(Exported by FreeCAD)
(Post Processor: grbl_post)
(Output Time:2022-06-04 14:13:39.926668)
(Begin preamble)
G17 G90
G21
(Begin operation: Fixture)
(Path: Fixture)
G54
(Finish operation: Fixture)
(Begin operation: TC: endmill_FC1D319)
(Path: TC: endmill_FC1D319)
(TC: endmill_FC1D319)
(Begin toolchange)
( M6 T1.0 )
M3 S10000.0
(Finish operation: TC: endmill_FC1D319)
(Begin operation: RampEntryDressup009)
(Path: RampEntryDressup009)
G0 X0.000 Y0.000 Z6.000
G0 X-9.891 Y-74.891 Z6.000
G0 X-9.891 Y-74.891 Z4.000
G1 X-9.867 Y-74.923 Z3.792 F300.000
G1 X-9.875 Y-75.061 Z3.171 F300.000
G1 X-9.923 Y-75.133 Z2.542 F300.000
G1 X-10.009 Y-75.138 Z1.912 F300.000
G1 X-10.133 Y-75.077 Z1.292 F300.000
G1 X-10.134 Y-74.951 Z0.723 F300.000
G1 X-10.094 Y-74.878 Z0.146 F300.000
G1 X-10.012 Y-74.858 Z-0.431 F300.000
G1 X-9.891 Y-74.891 Z-1.000 F300.000
G1 X-9.867 Y-74.923 Z-1.083 F300.000
G1 X-9.873 Y-75.059 Z-1.323 F300.000
G1 X-9.923 Y-75.133 Z-1.583 F300.000
G1 X-10.012 Y-75.139 Z-1.844 F300.000
G1 X-10.133 Y-75.077 Z-2.083 F300.000
G1 X-10.136 Y-74.953 Z-2.304 F300.000
G1 X-10.094 Y-74.878 Z-2.542 F300.000
G1 X-10.010 Y-74.857 Z-2.779 F300.000
G1 X-9.891 Y-74.891 Z-3.000 F300.000
G1 X-9.867 Y-74.923 Z-3.083 F300.000
G1 X-9.873 Y-75.059 Z-3.323 F300.000
G1 X-9.923 Y-75.133 Z-3.583 F300.000
G1 X-10.012 Y-75.139 Z-3.844 F300.000
G1 X-10.133 Y-75.077 Z-4.083 F300.000
G1 X-10.136 Y-74.953 Z-4.304 F300.000
G1 X-10.094 Y-74.878 Z-4.542 F300.000
G1 X-10.010 Y-74.857 Z-4.779 F300.000
G1 X-9.891 Y-74.891 Z-5.000 F300.000
G1 X-9.867 Y-74.923 Z-5.083 F300.000
G1 X-9.873 Y-75.059 Z-5.323 F300.000
G1 X-9.923 Y-75.133 Z-5.583 F300.000
G1 X-10.012 Y-75.139 Z-5.844 F300.000
G1 X-10.133 Y-75.077 Z-6.083 F300.000
G1 X-10.136 Y-74.953 Z-6.304 F300.000
G1 X-10.094 Y-74.878 Z-6.542 F300.000
G1 X-10.010 Y-74.857 Z-6.779 F300.000
G1 X-9.891 Y-74.891 Z-7.000 F300.000
G1 X-9.867 Y-74.923 Z-7.083 F300.000
G1 X-9.873 Y-75.059 Z-7.323 F300.000
G1 X-9.923 Y-75.133 Z-7.583 F300.000
G1 X-10.012 Y-75.139 Z-7.844 F300.000
G1 X-10.133 Y-75.077 Z-8.083 F300.000
G1 X-10.136 Y-74.953 Z-8.304 F300.000
G1 X-10.094 Y-74.878 Z-8.542 F300.000
G1 X-10.010 Y-74.857 Z-8.779 F300.000
G1 X-9.891 Y-74.891 Z-9.000 F300.000
G1 X-9.867 Y-74.923 Z-9.083 F300.000
G1 X-9.873 Y-75.059 Z-9.323 F300.000
G1 X-9.923 Y-75.133 Z-9.583 F300.000
G1 X-10.012 Y-75.139 Z-9.844 F300.000
G1 X-10.133 Y-75.077 Z-10.083 F300.000
G1 X-10.136 Y-74.953 Z-10.304 F300.000
G1 X-10.094 Y-74.878 Z-10.542 F300.000
G1 X-10.010 Y-74.857 Z-10.779 F300.000
G1 X-9.891 Y-74.891 Z-11.000 F300.000
G1 X-9.867 Y-74.923 Z-11.083 F300.000
G1 X-9.873 Y-75.059 Z-11.323 F300.000
G1 X-9.923 Y-75.133 Z-11.583 F300.000
G1 X-10.012 Y-75.139 Z-11.844 F300.000
G1 X-10.133 Y-75.077 Z-12.083 F300.000
G1 X-10.136 Y-74.953 Z-12.304 F300.000
G1 X-10.094 Y-74.878 Z-12.542 F300.000
G1 X-10.010 Y-74.857 Z-12.779 F300.000
G1 X-9.891 Y-74.891 Z-13.000 F300.000
G1 X-9.867 Y-74.923 Z-13.042 F300.000
G1 X-9.864 Y-75.032 Z-13.125 F300.000
G1 X-9.895 Y-75.109 Z-13.233 F300.000
G1 X-9.958 Y-75.145 Z-13.350 F300.000
G1 X-10.041 Y-75.134 Z-13.458 F300.000
G1 X-10.133 Y-75.077 Z-13.542 F300.000
G1 X-10.139 Y-74.958 Z-13.643 F300.000
G1 X-10.094 Y-74.878 Z-13.771 F300.000
G1 X-10.005 Y-74.854 Z-13.898 F300.000
G1 X-9.891 Y-74.891 Z-14.000 F300.000
G2 X-9.867 Y-74.923 Z-14.000 I-0.109 J-0.109 K0.000 F600.000
G2 X-10.133 Y-75.077 Z-14.000 I-0.133 J-0.077 K0.000 F600.000
G2 X-9.891 Y-74.891 Z-14.000 I0.133 J0.077 K0.000 F600.000
G0 X-9.891 Y-74.891 Z6.000
(Finish operation: RampEntryDressup009)
(Begin operation: RampEntryDressup010)
(Path: RampEntryDressup010)
G0 X0.000 Y0.000 Z6.000
G0 X-9.891 Y75.109 Z6.000
G0 X-9.891 Y75.109 Z4.000
G1 X-9.857 Y75.059 Z3.688 F300.000
G1 X-9.884 Y74.923 Z3.067 F300.000
G1 X-9.941 Y74.857 Z2.438 F300.000
G1 X-10.028 Y74.863 Z1.808 F300.000
G1 X-10.143 Y74.941 Z1.188 F300.000
G1 X-10.132 Y75.060 Z0.644 F300.000
G1 X-10.086 Y75.129 Z0.094 F300.000
G1 X-10.005 Y75.145 Z-0.457 F300.000
G1 X-9.891 Y75.109 Z-1.000 F300.000
G1 X-9.857 Y75.059 Z-1.125 F300.000
G1 X-9.881 Y74.924 Z-1.364 F300.000
G1 X-9.941 Y74.857 Z-1.625 F300.000
G1 X-10.030 Y74.863 Z-1.886 F300.000
G1 X-10.143 Y74.941 Z-2.125 F300.000
G1 X-10.134 Y75.059 Z-2.336 F300.000
G1 X-10.086 Y75.129 Z-2.562 F300.000
G1 X-10.003 Y75.146 Z-2.789 F300.000
G1 X-9.891 Y75.109 Z-3.000 F300.000
G1 X-9.857 Y75.059 Z-3.125 F300.000
G1 X-9.881 Y74.924 Z-3.364 F300.000
G1 X-9.941 Y74.857 Z-3.625 F300.000
G1 X-10.030 Y74.863 Z-3.886 F300.000
G1 X-10.143 Y74.941 Z-4.125 F300.000
G1 X-10.134 Y75.059 Z-4.336 F300.000
G1 X-10.086 Y75.129 Z-4.562 F300.000
G1 X-10.003 Y75.146 Z-4.789 F300.000
G1 X-9.891 Y75.109 Z-5.000 F300.000
G1 X-9.857 Y75.059 Z-5.125 F300.000
G1 X-9.881 Y74.924 Z-5.364 F300.000
G1 X-9.941 Y74.857 Z-5.625 F300.000
G1 X-10.030 Y74.863 Z-5.886 F300.000
G1 X-10.143 Y74.941 Z-6.125 F300.000
G1 X-10.134 Y75.059 Z-6.336 F300.000
G1 X-10.086 Y75.129 Z-6.562 F300.000
G1 X-10.003 Y75.146 Z-6.789 F300.000
G1 X-9.891 Y75.109 Z-7.000 F300.000
G1 X-9.857 Y75.059 Z-7.125 F300.000
G1 X-9.881 Y74.924 Z-7.364 F300.000
G1 X-9.941 Y74.857 Z-7.625 F300.000
G1 X-10.030 Y74.863 Z-7.886 F300.000
G1 X-10.143 Y74.941 Z-8.125 F300.000
G1 X-10.134 Y75.059 Z-8.336 F300.000
G1 X-10.086 Y75.129 Z-8.562 F300.000
G1 X-10.003 Y75.146 Z-8.789 F300.000
G1 X-9.891 Y75.109 Z-9.000 F300.000
G1 X-9.857 Y75.059 Z-9.125 F300.000
G1 X-9.881 Y74.924 Z-9.364 F300.000
G1 X-9.941 Y74.857 Z-9.625 F300.000
G1 X-10.030 Y74.863 Z-9.886 F300.000
G1 X-10.143 Y74.941 Z-10.125 F300.000
G1 X-10.134 Y75.059 Z-10.336 F300.000
G1 X-10.086 Y75.129 Z-10.562 F300.000
G1 X-10.003 Y75.146 Z-10.789 F300.000
G1 X-9.891 Y75.109 Z-11.000 F300.000
G1 X-9.857 Y75.059 Z-11.125 F300.000
G1 X-9.881 Y74.924 Z-11.364 F300.000
G1 X-9.941 Y74.857 Z-11.625 F300.000
G1 X-10.030 Y74.863 Z-11.886 F300.000
G1 X-10.143 Y74.941 Z-12.125 F300.000
G1 X-10.134 Y75.059 Z-12.336 F300.000
G1 X-10.086 Y75.129 Z-12.562 F300.000
G1 X-10.003 Y75.146 Z-12.789 F300.000
G1 X-9.891 Y75.109 Z-13.000 F300.000
G1 X-9.857 Y75.059 Z-13.062 F300.000
G1 X-9.868 Y74.951 Z-13.146 F300.000
G1 X-9.910 Y74.877 Z-13.254 F300.000
G1 X-9.977 Y74.849 Z-13.371 F300.000
G1 X-10.058 Y74.872 Z-13.479 F300.000
G1 X-10.143 Y74.941 Z-13.562 F300.000
G1 X-10.138 Y75.055 Z-13.660 F300.000
G1 X-10.086 Y75.129 Z-13.781 F300.000
G1 X-9.998 Y75.148 Z-13.902 F300.000
G1 X-9.891 Y75.109 Z-14.000 F300.000
G2 X-9.857 Y75.059 Z-14.000 I-0.109 J-0.109 K0.000 F600.000
G2 X-10.143 Y74.941 Z-14.000 I-0.143 J-0.059 K0.000 F600.000
G2 X-9.891 Y75.109 Z-14.000 I0.143 J0.059 K0.000 F600.000
G0 X-9.891 Y75.109 Z6.000
(Finish operation: RampEntryDressup010)
(Begin operation: RampEntryDressup011)
(Path: RampEntryDressup011)
G0 X0.000 Y0.000 Z6.000
G0 X10.109 Y-74.891 Z6.000
G0 X10.109 Y-74.891 Z4.000
G1 X10.133 Y-74.923 Z3.792 F300.000
G1 X10.125 Y-75.061 Z3.171 F300.000
G1 X10.077 Y-75.133 Z2.542 F300.000
G1 X9.991 Y-75.138 Z1.912 F300.000
G1 X9.867 Y-75.077 Z1.292 F300.000
G1 X9.866 Y-74.951 Z0.723 F300.000
G1 X9.906 Y-74.878 Z0.146 F300.000
G1 X9.988 Y-74.858 Z-0.431 F300.000
G1 X10.109 Y-74.891 Z-1.000 F300.000
G1 X10.133 Y-74.923 Z-1.083 F300.000
G1 X10.127 Y-75.059 Z-1.323 F300.000
G1 X10.077 Y-75.133 Z-1.583 F300.000
G1 X9.988 Y-75.139 Z-1.844 F300.000
G1 X9.867 Y-75.077 Z-2.083 F300.000
G1 X9.864 Y-74.953 Z-2.304 F300.000
G1 X9.906 Y-74.878 Z-2.542 F300.000
G1 X9.990 Y-74.857 Z-2.779 F300.000
G1 X10.109 Y-74.891 Z-3.000 F300.000
G1 X10.133 Y-74.923 Z-3.083 F300.000
G1 X10.127 Y-75.059 Z-3.323 F300.000
G1 X10.077 Y-75.133 Z-3.583 F300.000
G1 X9.988 Y-75.139 Z-3.844 F300.000
G1 X9.867 Y-75.077 Z-4.083 F300.000
G1 X9.864 Y-74.953 Z-4.304 F300.000
G1 X9.906 Y-74.878 Z-4.542 F300.000
G1 X9.990 Y-74.857 Z-4.779 F300.000
G1 X10.109 Y-74.891 Z-5.000 F300.000
G1 X10.133 Y-74.923 Z-5.083 F300.000
G1 X10.127 Y-75.059 Z-5.323 F300.000
G1 X10.077 Y-75.133 Z-5.583 F300.000
G1 X9.988 Y-75.139 Z-5.844 F300.000
G1 X9.867 Y-75.077 Z-6.083 F300.000
G1 X9.864 Y-74.953 Z-6.304 F300.000
G1 X9.906 Y-74.878 Z-6.542 F300.000
G1 X9.990 Y-74.857 Z-6.779 F300.000
G1 X10.109 Y-74.891 Z-7.000 F300.000
G1 X10.133 Y-74.923 Z-7.083 F300.000
G1 X10.127 Y-75.059 Z-7.323 F300.000
G1 X10.077 Y-75.133 Z-7.583 F300.000
G1 X9.988 Y-75.139 Z-7.844 F300.000
G1 X9.867 Y-75.077 Z-8.083 F300.000
G1 X9.864 Y-74.953 Z-8.304 F300.000
G1 X9.906 Y-74.878 Z-8.542 F300.000
G1 X9.990 Y-74.857 Z-8.779 F300.000
G1 X10.109 Y-74.891 Z-9.000 F300.000
G1 X10.133 Y-74.923 Z-9.083 F300.000
G1 X10.127 Y-75.059 Z-9.323 F300.000
G1 X10.077 Y-75.133 Z-9.583 F300.000
G1 X9.988 Y-75.139 Z-9.844 F300.000
G1 X9.867 Y-75.077 Z-10.083 F300.000
G1 X9.864 Y-74.953 Z-10.304 F300.000
G1 X9.906 Y-74.878 Z-10.542 F300.000
G1 X9.990 Y-74.857 Z-10.779 F300.000
G1 X10.109 Y-74.891 Z-11.000 F300.000
G1 X10.133 Y-74.923 Z-11.083 F300.000
G1 X10.127 Y-75.059 Z-11.323 F300.000
G1 X10.077 Y-75.133 Z-11.583 F300.000
G1 X9.988 Y-75.139 Z-11.844 F300.000
G1 X9.867 Y-75.077 Z-12.083 F300.000
G1 X9.864 Y-74.953 Z-12.304 F300.000
G1 X9.906 Y-74.878 Z-12.542 F300.000
G1 X9.990 Y-74.857 Z-12.779 F300.000
G1 X10.109 Y-74.891 Z-13.000 F300.000
G1 X10.133 Y-74.923 Z-13.042 F300.000
G1 X10.136 Y-75.032 Z-13.125 F300.000
G1 X10.105 Y-75.109 Z-13.233 F300.000
G1 X10.042 Y-75.145 Z-13.350 F300.000
G1 X9.959 Y-75.134 Z-13.458 F300.000
G1 X9.867 Y-75.077 Z-13.542 F300.000
G1 X9.861 Y-74.958 Z-13.643 F300.000
G1 X9.906 Y-74.878 Z-13.771 F300.000
G1 X9.995 Y-74.854 Z-13.898 F300.000
G1 X10.109 Y-74.891 Z-14.000 F300.000
G2 X10.133 Y-74.923 Z-14.000 I-0.109 J-0.109 K0.000 F600.000
G2 X9.867 Y-75.077 Z-14.000 I-0.133 J-0.077 K0.000 F600.000
G2 X10.109 Y-74.891 Z-14.000 I0.133 J0.077 K0.000 F600.000
G0 X10.109 Y-74.891 Z6.000
(Finish operation: RampEntryDressup011)
(Begin operation: RampEntryDressup012)
(Path: RampEntryDressup012)
G0 X0.000 Y0.000 Z6.000
G0 X10.109 Y75.109 Z6.000
G0 X10.109 Y75.109 Z4.000
G1 X10.153 Y75.014 Z3.480 F300.000
G1 X10.136 Y74.929 Z2.957 F300.000
G1 X10.059 Y74.857 Z2.437 F300.000
G1 X9.976 Y74.848 Z2.021 F300.000
G1 X9.909 Y74.876 Z1.604 F300.000
G1 X9.857 Y74.941 Z1.187 F300.000
G1 X9.848 Y75.023 Z0.771 F300.000
G1 X9.876 Y75.091 Z0.354 F300.000
G1 X9.941 Y75.143 Z-0.063 F300.000
G1 X10.030 Y75.152 Z-0.531 F300.000
G1 X10.109 Y75.109 Z-1.000 F300.000
G1 X10.153 Y75.014 Z-1.206 F300.000
G1 X10.136 Y74.928 Z-1.419 F300.000
G1 X10.059 Y74.857 Z-1.625 F300.000
G1 X9.977 Y74.847 Z-1.790 F300.000
G1 X9.908 Y74.876 Z-1.960 F300.000
G1 X9.857 Y74.941 Z-2.125 F300.000
G1 X9.847 Y75.023 Z-2.290 F300.000
G1 X9.876 Y75.092 Z-2.460 F300.000
G1 X9.941 Y75.143 Z-2.625 F300.000
G1 X10.030 Y75.152 Z-2.812 F300.000
G1 X10.109 Y75.109 Z-3.000 F300.000
G1 X10.153 Y75.014 Z-3.206 F300.000
G1 X10.136 Y74.928 Z-3.419 F300.000
G1 X10.059 Y74.857 Z-3.625 F300.000
G1 X9.977 Y74.847 Z-3.790 F300.000
G1 X9.908 Y74.876 Z-3.960 F300.000
G1 X9.857 Y74.941 Z-4.125 F300.000
G1 X9.847 Y75.023 Z-4.290 F300.000
G1 X9.876 Y75.092 Z-4.460 F300.000
G1 X9.941 Y75.143 Z-4.625 F300.000
G1 X10.030 Y75.152 Z-4.812 F300.000
G1 X10.109 Y75.109 Z-5.000 F300.000
G1 X10.153 Y75.014 Z-5.206 F300.000
G1 X10.136 Y74.928 Z-5.419 F300.000
G1 X10.059 Y74.857 Z-5.625 F300.000
G1 X9.977 Y74.847 Z-5.790 F300.000
G1 X9.908 Y74.876 Z-5.960 F300.000
G1 X9.857 Y74.941 Z-6.125 F300.000
G1 X9.847 Y75.023 Z-6.290 F300.000
G1 X9.876 Y75.092 Z-6.460 F300.000
G1 X9.941 Y75.143 Z-6.625 F300.000
G1 X10.030 Y75.152 Z-6.812 F300.000
G1 X10.109 Y75.109 Z-7.000 F300.000
G1 X10.153 Y75.014 Z-7.206 F300.000
G1 X10.136 Y74.928 Z-7.419 F300.000
G1 X10.059 Y74.857 Z-7.625 F300.000
G1 X9.977 Y74.847 Z-7.790 F300.000
G1 X9.908 Y74.876 Z-7.960 F300.000
G1 X9.857 Y74.941 Z-8.125 F300.000
G1 X9.847 Y75.023 Z-8.290 F300.000
G1 X9.876 Y75.092 Z-8.460 F300.000
G1 X9.941 Y75.143 Z-8.625 F300.000
G1 X10.030 Y75.152 Z-8.812 F300.000
G1 X10.109 Y75.109 Z-9.000 F300.000
G1 X10.153 Y75.014 Z-9.206 F300.000
G1 X10.136 Y74.928 Z-9.419 F300.000
G1 X10.059 Y74.857 Z-9.625 F300.000
G1 X9.977 Y74.847 Z-9.790 F300.000
G1 X9.908 Y74.876 Z-9.960 F300.000
G1 X9.857 Y74.941 Z-10.125 F300.000
G1 X9.847 Y75.023 Z-10.290 F300.000
G1 X9.876 Y75.092 Z-10.460 F300.000
G1 X9.941 Y75.143 Z-10.625 F300.000
G1 X10.030 Y75.152 Z-10.812 F300.000
G1 X10.109 Y75.109 Z-11.000 F300.000
G1 X10.153 Y75.014 Z-11.206 F300.000
G1 X10.136 Y74.928 Z-11.419 F300.000
G1 X10.059 Y74.857 Z-11.625 F300.000
G1 X9.977 Y74.847 Z-11.790 F300.000
G1 X9.908 Y74.876 Z-11.960 F300.000
G1 X9.857 Y74.941 Z-12.125 F300.000
G1 X9.847 Y75.023 Z-12.290 F300.000
G1 X9.876 Y75.092 Z-12.460 F300.000
G1 X9.941 Y75.143 Z-12.625 F300.000
G1 X10.030 Y75.152 Z-12.812 F300.000
G1 X10.109 Y75.109 Z-13.000 F300.000
G1 X10.153 Y75.016 Z-13.101 F300.000
G1 X10.135 Y74.926 Z-13.212 F300.000
G1 X10.059 Y74.857 Z-13.312 F300.000
G1 X9.978 Y74.847 Z-13.394 F300.000
G1 X9.908 Y74.876 Z-13.481 F300.000
G1 X9.857 Y74.941 Z-13.562 F300.000
G1 X9.847 Y75.022 Z-13.644 F300.000
G1 X9.876 Y75.092 Z-13.731 F300.000
G1 X9.941 Y75.143 Z-13.812 F300.000
G1 X10.030 Y75.152 Z-13.906 F300.000
G1 X10.109 Y75.109 Z-14.000 F300.000
G2 X10.059 Y74.857 Z-14.000 I-0.109 J-0.109 K0.000 F600.000
G2 X9.857 Y74.941 Z-14.000 I-0.059 J0.143 K0.000 F600.000
G2 X9.941 Y75.143 Z-14.000 I0.143 J0.059 K0.000 F600.000
G2 X10.109 Y75.109 Z-14.000 I0.059 J-0.143 K0.000 F600.000
G0 X10.109 Y75.109 Z6.000
(Finish operation: RampEntryDressup012)
(Begin operation: RampEntryDressup013)
(Path: RampEntryDressup013)
G0 X0.000 Y0.000 Z6.000
G0 X12.411 Y77.411 Z6.000
G0 X12.411 Y77.411 Z4.000
G1 X12.710 Y77.069 Z3.994 F600.000
G1 X12.961 Y76.691 Z3.988 F600.000
G1 X13.160 Y76.283 Z3.981 F600.000
G1 X13.303 Y75.852 Z3.975 F600.000
G1 X13.388 Y75.405 Z3.968 F600.000
G1 X13.412 Y74.952 Z3.962 F600.000
G1 X13.412 Y-74.952 Z1.889 F600.000
G1 X13.382 Y-75.446 Z1.883 F600.000
G1 X13.281 Y-75.931 Z1.876 F600.000
G1 X13.111 Y-76.397 Z1.869 F600.000
G1 X12.876 Y-76.832 Z1.862 F600.000
G1 X12.580 Y-77.229 Z1.855 F600.000
G1 X12.229 Y-77.580 Z1.847 F600.000
G1 X11.832 Y-77.876 Z1.839 F600.000
G1 X11.397 Y-78.111 Z1.832 F600.000
G1 X10.931 Y-78.281 Z1.825 F600.000
G1 X10.446 Y-78.382 Z1.819 F600.000
G1 X9.952 Y-78.412 Z1.813 F600.000
G1 X-9.952 Y-78.412 Z1.538 F600.000
G1 X-10.446 Y-78.382 Z1.532 F600.000
G1 X-10.931 Y-78.281 Z1.526 F600.000
G1 X-11.397 Y-78.111 Z1.519 F600.000
G1 X-11.832 Y-77.876 Z1.511 F600.000
G1 X-12.229 Y-77.580 Z1.504 F600.000
G1 X-12.580 Y-77.229 Z1.496 F600.000
G1 X-12.876 Y-76.832 Z1.489 F600.000
G1 X-13.111 Y-76.397 Z1.481 F600.000
G1 X-13.281 Y-75.931 Z1.474 F600.000
G1 X-13.382 Y-75.446 Z1.468 F600.000
G1 X-13.412 Y-74.952 Z1.462 F600.000
G1 X-13.412 Y74.953 Z-0.611 F600.000
G1 X-13.384 Y75.440 Z-0.617 F600.000
G1 X-13.285 Y75.918 Z-0.623 F600.000
G1 X-13.120 Y76.378 Z-0.630 F600.000
G1 X-12.891 Y76.809 Z-0.637 F600.000
G1 X-12.603 Y77.203 Z-0.645 F600.000
G1 X-12.262 Y77.552 Z-0.652 F600.000
G1 X-11.875 Y77.849 Z-0.660 F600.000
G1 X-11.449 Y78.088 Z-0.667 F600.000
G1 X-10.993 Y78.263 Z-0.674 F600.000
G1 X-10.517 Y78.372 Z-0.680 F600.000
G1 X-10.031 Y78.412 Z-0.686 F600.000
G1 X9.952 Y78.412 Z-0.962 F600.000
G1 X10.405 Y78.388 Z-0.968 F600.000
G1 X10.852 Y78.303 Z-0.975 F600.000
G1 X11.283 Y78.160 Z-0.981 F600.000
G1 X11.691 Y77.961 Z-0.988 F600.000
G1 X12.069 Y77.710 Z-0.994 F600.000
G1 X12.411 Y77.411 Z-1.000 F600.000
G1 X12.710 Y77.069 Z-1.001 F600.000
G1 X12.961 Y76.691 Z-1.002 F600.000
G1 X13.160 Y76.283 Z-1.004 F600.000
G1 X13.303 Y75.852 Z-1.005 F600.000
G1 X13.388 Y75.405 Z-1.006 F600.000
G1 X13.412 Y74.952 Z-1.008 F600.000
G1 X13.412 Y-74.952 Z-1.422 F600.000
G1 X13.382 Y-75.446 Z-1.423 F600.000
G1 X13.281 Y-75.931 Z-1.425 F600.000
G1 X13.111 Y-76.397 Z-1.426 F600.000
G1 X12.876 Y-76.832 Z-1.428 F600.000
G1 X12.580 Y-77.229 Z-1.429 F600.000
G1 X12.229 Y-77.580 Z-1.431 F600.000
G1 X11.832 Y-77.876 Z-1.432 F600.000
G1 X11.397 Y-78.111 Z-1.434 F600.000
G1 X10.931 Y-78.281 Z-1.435 F600.000
G1 X10.446 Y-78.382 Z-1.436 F600.000
G1 X9.952 Y-78.412 Z-1.437 F600.000
G1 X-9.952 Y-78.412 Z-1.492 F600.000
G1 X-10.446 Y-78.382 Z-1.494 F600.000
G1 X-10.931 Y-78.281 Z-1.495 F600.000
G1 X-11.397 Y-78.111 Z-1.496 F600.000
G1 X-11.832 Y-77.876 Z-1.498 F600.000
G1 X-12.229 Y-77.580 Z-1.499 F600.000
G1 X-12.580 Y-77.229 Z-1.501 F600.000
G1 X-12.876 Y-76.832 Z-1.502 F600.000
G1 X-13.111 Y-76.397 Z-1.504 F600.000
G1 X-13.281 Y-75.931 Z-1.505 F600.000
G1 X-13.382 Y-75.446 Z-1.506 F600.000
G1 X-13.412 Y-74.952 Z-1.508 F600.000
G1 X-13.412 Y74.953 Z-1.922 F600.000
G1 X-13.384 Y75.440 Z-1.923 F600.000
G1 X-13.285 Y75.918 Z-1.925 F600.000
G1 X-13.120 Y76.378 Z-1.926 F600.000
G1 X-12.891 Y76.809 Z-1.927 F600.000
G1 X-12.603 Y77.203 Z-1.929 F600.000
G1 X-12.262 Y77.552 Z-1.930 F600.000
G1 X-11.875 Y77.849 Z-1.932 F600.000
G1 X-11.449 Y78.088 Z-1.933 F600.000
G1 X-10.993 Y78.263 Z-1.935 F600.000
G1 X-10.517 Y78.372 Z-1.936 F600.000
G1 X-10.031 Y78.412 Z-1.937 F600.000
G1 X9.952 Y78.412 Z-1.992 F600.000
G1 X10.405 Y78.388 Z-1.994 F600.000
G1 X10.852 Y78.303 Z-1.995 F600.000
G1 X11.283 Y78.160 Z-1.996 F600.000
G1 X11.691 Y77.961 Z-1.998 F600.000
G1 X12.069 Y77.710 Z-1.999 F600.000
G1 X12.411 Y77.411 Z-2.000 F600.000
G2 X13.412 Y74.952 Z-2.000 I-2.419 J-2.419 K0.000 F600.000
G1 X13.412 Y-74.952 Z-2.000 F600.000
G2 X9.952 Y-78.412 Z-2.000 I-3.420 J-0.040 K0.000 F600.000
G1 X-9.952 Y-78.412 Z-2.000 F600.000
G2 X-13.412 Y-74.952 Z-2.000 I-0.040 J3.420 K0.000 F600.000
G1 X-13.412 Y74.953 Z-2.000 F600.000
G2 X-10.031 Y78.412 Z-2.000 I3.419 J0.041 K0.000 F600.000
G1 X9.952 Y78.412 Z-2.000 F600.000
G2 X12.411 Y77.411 Z-2.000 I0.040 J-3.420 K0.000 F600.000
G0 X12.411 Y77.411 Z6.000
(Finish operation: RampEntryDressup013)
(Begin operation: RampEntryDressup014)
(Path: RampEntryDressup014)
G0 X0.000 Y0.000 Z6.000
G0 X6.912 Y65.912 Z6.000
G0 X6.912 Y65.912 Z4.000
G1 X6.912 Y-65.912 Z2.030 F600.000
G1 X2.087 Y-65.912 Z1.958 F600.000
G1 X2.087 Y-46.500 Z1.667 F600.000
G1 X2.048 Y-46.147 Z1.663 F600.000
G1 X1.930 Y-45.811 Z1.658 F600.000
G1 X1.741 Y-45.510 Z1.652 F600.000
G1 X1.490 Y-45.259 Z1.646 F600.000
G1 X1.189 Y-45.070 Z1.640 F600.000
G1 X0.853 Y-44.952 Z1.635 F600.000
G1 X0.500 Y-44.913 Z1.630 F600.000
G1 X-10.912 Y-44.913 Z1.460 F600.000
G1 X-10.912 Y-35.087 Z1.313 F600.000
G1 X-2.500 Y-35.087 Z1.187 F600.000
G1 X-2.147 Y-35.048 Z1.182 F600.000
G1 X-1.811 Y-34.930 Z1.177 F600.000
G1 X-1.510 Y-34.741 Z1.171 F600.000
G1 X-1.259 Y-34.490 Z1.165 F600.000
G1 X-1.070 Y-34.189 Z1.160 F600.000
G1 X-0.952 Y-33.853 Z1.154 F600.000
G1 X-0.912 Y-33.500 Z1.150 F600.000
G1 X-0.912 Y-14.500 Z0.866 F600.000
G1 X-0.952 Y-14.147 Z0.861 F600.000
G1 X-1.070 Y-13.811 Z0.856 F600.000
G1 X-1.259 Y-13.510 Z0.850 F600.000
G1 X-1.510 Y-13.259 Z0.844 F600.000
G1 X-1.811 Y-13.070 Z0.838 F600.000
G1 X-2.147 Y-12.952 Z0.833 F600.000
G1 X-2.500 Y-12.912 Z0.828 F600.000
G1 X-10.912 Y-12.912 Z0.703 F600.000
G1 X-10.912 Y17.913 Z0.242 F600.000
G1 X-2.500 Y17.913 Z0.116 F600.000
G1 X-2.147 Y17.952 Z0.112 F600.000
G1 X-1.811 Y18.070 Z0.106 F600.000
G1 X-1.510 Y18.259 Z0.101 F600.000
G1 X-1.259 Y18.510 Z0.095 F600.000
G1 X-1.070 Y18.811 Z0.089 F600.000
G1 X-0.952 Y19.147 Z0.084 F600.000
G1 X-0.912 Y19.500 Z0.079 F600.000
G1 X-0.912 Y27.500 Z-0.041 F600.000
G1 X-0.952 Y27.853 Z-0.045 F600.000
G1 X-1.070 Y28.189 Z-0.050 F600.000
G1 X-1.259 Y28.490 Z-0.056 F600.000
G1 X-1.510 Y28.741 Z-0.062 F600.000
G1 X-1.811 Y28.930 Z-0.068 F600.000
G1 X-2.147 Y29.048 Z-0.073 F600.000
G1 X-2.500 Y29.087 Z-0.078 F600.000
G1 X-10.912 Y29.087 Z-0.204 F600.000
G1 X-10.912 Y40.913 Z-0.380 F600.000
G1 X-2.500 Y40.913 Z-0.506 F600.000
G1 X-2.147 Y40.952 Z-0.511 F600.000
G1 X-1.811 Y41.070 Z-0.516 F600.000
G1 X-1.510 Y41.259 Z-0.522 F600.000
G1 X-1.259 Y41.510 Z-0.528 F600.000
G1 X-1.070 Y41.811 Z-0.533 F600.000
G1 X-0.952 Y42.147 Z-0.539 F600.000
G1 X-0.912 Y42.500 Z-0.543 F600.000
G1 X-0.912 Y49.913 Z-0.654 F600.000
G1 X0.500 Y49.913 Z-0.675 F600.000
G1 X0.853 Y49.952 Z-0.680 F600.000
G1 X1.189 Y50.070 Z-0.685 F600.000
G1 X1.490 Y50.259 Z-0.691 F600.000
G1 X1.741 Y50.510 Z-0.697 F600.000
G1 X1.930 Y50.811 Z-0.703 F600.000
G1 X2.048 Y51.147 Z-0.708 F600.000
G1 X2.087 Y51.500 Z-0.712 F600.000
G1 X2.087 Y65.912 Z-0.928 F600.000
G1 X6.912 Y65.912 Z-1.000 F600.000
G1 X6.912 Y-65.912 Z-1.788 F600.000
G1 X2.087 Y-65.912 Z-1.817 F600.000
G1 X2.087 Y-46.500 Z-1.933 F600.000
G1 X2.048 Y-46.147 Z-1.935 F600.000
G1 X1.930 Y-45.811 Z-1.937 F600.000
G1 X1.741 Y-45.510 Z-1.939 F600.000
G1 X1.490 Y-45.259 Z-1.942 F600.000
G1 X1.189 Y-45.070 Z-1.944 F600.000
G1 X0.853 Y-44.952 Z-1.946 F600.000
G1 X0.500 Y-44.913 Z-1.948 F600.000
G1 X-10.912 Y-44.913 Z-2.016 F600.000
G1 X-10.912 Y-35.087 Z-2.075 F600.000
G1 X-2.500 Y-35.087 Z-2.125 F600.000
G1 X-2.147 Y-35.048 Z-2.127 F600.000
G1 X-1.811 Y-34.930 Z-2.129 F600.000
G1 X-1.510 Y-34.741 Z-2.131 F600.000
G1 X-1.259 Y-34.490 Z-2.134 F600.000
G1 X-1.070 Y-34.189 Z-2.136 F600.000
G1 X-0.952 Y-33.853 Z-2.138 F600.000
G1 X-0.912 Y-33.500 Z-2.140 F600.000
G1 X-0.912 Y-14.500 Z-2.254 F600.000
G1 X-0.952 Y-14.147 Z-2.256 F600.000
G1 X-1.070 Y-13.811 Z-2.258 F600.000
G1 X-1.259 Y-13.510 Z-2.260 F600.000
G1 X-1.510 Y-13.259 Z-2.262 F600.000
G1 X-1.811 Y-13.070 Z-2.265 F600.000
G1 X-2.147 Y-12.952 Z-2.267 F600.000
G1 X-2.500 Y-12.912 Z-2.269 F600.000
G1 X-10.912 Y-12.912 Z-2.319 F600.000
G1 X-10.912 Y17.913 Z-2.503 F600.000
G1 X-2.500 Y17.913 Z-2.553 F600.000
G1 X-2.147 Y17.952 Z-2.555 F600.000
G1 X-1.811 Y18.070 Z-2.557 F600.000
G1 X-1.510 Y18.259 Z-2.560 F600.000
G1 X-1.259 Y18.510 Z-2.562 F600.000
G1 X-1.070 Y18.811 Z-2.564 F600.000
G1 X-0.952 Y19.147 Z-2.567 F600.000
G1 X-0.912 Y19.500 Z-2.568 F600.000
G1 X-0.912 Y27.500 Z-2.616 F600.000
G1 X-0.952 Y27.853 Z-2.618 F600.000
G1 X-1.070 Y28.189 Z-2.620 F600.000
G1 X-1.259 Y28.490 Z-2.622 F600.000
G1 X-1.510 Y28.741 Z-2.625 F600.000
G1 X-1.811 Y28.930 Z-2.627 F600.000
G1 X-2.147 Y29.048 Z-2.629 F600.000
G1 X-2.500 Y29.087 Z-2.631 F600.000
G1 X-10.912 Y29.087 Z-2.681 F600.000
G1 X-10.912 Y40.913 Z-2.752 F600.000
G1 X-2.500 Y40.913 Z-2.802 F600.000
G1 X-2.147 Y40.952 Z-2.804 F600.000
G1 X-1.811 Y41.070 Z-2.806 F600.000
G1 X-1.510 Y41.259 Z-2.809 F600.000
G1 X-1.259 Y41.510 Z-2.811 F600.000
G1 X-1.070 Y41.811 Z-2.813 F600.000
G1 X-0.952 Y42.147 Z-2.815 F600.000
G1 X-0.912 Y42.500 Z-2.817 F600.000
G1 X-0.912 Y49.913 Z-2.862 F600.000
G1 X0.500 Y49.913 Z-2.870 F600.000
G1 X0.853 Y49.952 Z-2.872 F600.000
G1 X1.189 Y50.070 Z-2.874 F600.000
G1 X1.490 Y50.259 Z-2.876 F600.000
G1 X1.741 Y50.510 Z-2.879 F600.000
G1 X1.930 Y50.811 Z-2.881 F600.000
G1 X2.048 Y51.147 Z-2.883 F600.000
G1 X2.087 Y51.500 Z-2.885 F600.000
G1 X2.087 Y65.912 Z-2.971 F600.000
G1 X6.912 Y65.912 Z-3.000 F600.000
G1 X6.912 Y-65.912 Z-3.591 F600.000
G1 X2.087 Y-65.912 Z-3.613 F600.000
G1 X2.087 Y-46.500 Z-3.700 F600.000
G1 X2.048 Y-46.147 Z-3.701 F600.000
G1 X1.930 Y-45.811 Z-3.703 F600.000
G1 X1.741 Y-45.510 Z-3.704 F600.000
G1 X1.490 Y-45.259 Z-3.706 F600.000
G1 X1.189 Y-45.070 Z-3.708 F600.000
G1 X0.853 Y-44.952 Z-3.710 F600.000
G1 X0.500 Y-44.913 Z-3.711 F600.000
G1 X-10.912 Y-44.913 Z-3.762 F600.000
G1 X-10.912 Y-35.087 Z-3.806 F600.000
G1 X-2.500 Y-35.087 Z-3.844 F600.000
G1 X-2.147 Y-35.048 Z-3.845 F600.000
G1 X-1.811 Y-34.930 Z-3.847 F600.000
G1 X-1.510 Y-34.741 Z-3.849 F600.000
G1 X-1.259 Y-34.490 Z-3.850 F600.000
G1 X-1.070 Y-34.189 Z-3.852 F600.000
G1 X-0.952 Y-33.853 Z-3.854 F600.000
G1 X-0.912 Y-33.500 Z-3.855 F600.000
G1 X-0.912 Y-14.500 Z-3.940 F600.000
G1 X-0.952 Y-14.147 Z-3.942 F600.000
G1 X-1.070 Y-13.811 Z-3.943 F600.000
G1 X-1.259 Y-13.510 Z-3.945 F600.000
G1 X-1.510 Y-13.259 Z-3.947 F600.000
G1 X-1.811 Y-13.070 Z-3.948 F600.000
G1 X-2.147 Y-12.952 Z-3.950 F600.000
G1 X-2.500 Y-12.912 Z-3.951 F600.000
G1 X-10.912 Y-12.912 Z-3.989 F600.000
G1 X-10.912 Y17.913 Z-4.127 F600.000
G1 X-2.500 Y17.913 Z-4.165 F600.000
G1 X-2.147 Y17.952 Z-4.166 F600.000
G1 X-1.811 Y18.070 Z-4.168 F600.000
G1 X-1.510 Y18.259 Z-4.170 F600.000
G1 X-1.259 Y18.510 Z-4.172 F600.000
G1 X-1.070 Y18.811 Z-4.173 F600.000
G1 X-0.952 Y19.147 Z-4.175 F600.000
G1 X-0.912 Y19.500 Z-4.176 F600.000
G1 X-0.912 Y27.500 Z-4.212 F600.000
G1 X-0.952 Y27.853 Z-4.214 F600.000
G1 X-1.070 Y28.189 Z-4.215 F600.000
G1 X-1.259 Y28.490 Z-4.217 F600.000
G1 X-1.510 Y28.741 Z-4.219 F600.000
G1 X-1.811 Y28.930 Z-4.220 F600.000
G1 X-2.147 Y29.048 Z-4.222 F600.000
G1 X-2.500 Y29.087 Z-4.223 F600.000
G1 X-10.912 Y29.087 Z-4.261 F600.000
G1 X-10.912 Y40.913 Z-4.314 F600.000
G1 X-2.500 Y40.913 Z-4.352 F600.000
G1 X-2.147 Y40.952 Z-4.353 F600.000
G1 X-1.811 Y41.070 Z-4.355 F600.000
G1 X-1.510 Y41.259 Z-4.357 F600.000
G1 X-1.259 Y41.510 Z-4.358 F600.000
G1 X-1.070 Y41.811 Z-4.360 F600.000
G1 X-0.952 Y42.147 Z-4.362 F600.000
G1 X-0.912 Y42.500 Z-4.363 F600.000
G1 X-0.912 Y49.913 Z-4.396 F600.000
G1 X0.500 Y49.913 Z-4.403 F600.000
G1 X0.853 Y49.952 Z-4.404 F600.000
G1 X1.189 Y50.070 Z-4.406 F600.000
G1 X1.490 Y50.259 Z-4.407 F600.000
G1 X1.741 Y50.510 Z-4.409 F600.000
G1 X1.930 Y50.811 Z-4.411 F600.000
G1 X2.048 Y51.147 Z-4.412 F600.000
G1 X2.087 Y51.500 Z-4.414 F600.000
G1 X2.087 Y65.912 Z-4.478 F600.000
G1 X6.912 Y65.912 Z-4.500 F600.000
G1 X6.912 Y-65.912 Z-4.500 F600.000
G1 X2.087 Y-65.912 Z-4.500 F600.000
G1 X2.087 Y-46.500 Z-4.500 F600.000
G3 X0.500 Y-44.913 Z-4.500 I-1.587 J0.000 K0.000 F600.000
G1 X-10.912 Y-44.913 Z-4.500 F600.000
G1 X-10.912 Y-35.087 Z-4.500 F600.000
G1 X-2.500 Y-35.087 Z-4.500 F600.000
G3 X-0.912 Y-33.500 Z-4.500 I0.000 J1.587 K0.000 F600.000
G1 X-0.912 Y-14.500 Z-4.500 F600.000
G3 X-2.500 Y-12.912 Z-4.500 I-1.587 J0.000 K0.000 F600.000
G1 X-10.912 Y-12.912 Z-4.500 F600.000
G1 X-10.912 Y17.913 Z-4.500 F600.000
G1 X-2.500 Y17.913 Z-4.500 F600.000
G3 X-0.912 Y19.500 Z-4.500 I0.000 J1.587 K0.000 F600.000
G1 X-0.912 Y27.500 Z-4.500 F600.000
G3 X-2.500 Y29.087 Z-4.500 I-1.587 J0.000 K0.000 F600.000
G1 X-10.912 Y29.087 Z-4.500 F600.000
G1 X-10.912 Y40.913 Z-4.500 F600.000
G1 X-2.500 Y40.913 Z-4.500 F600.000
G3 X-0.912 Y42.500 Z-4.500 I0.000 J1.587 K0.000 F600.000
G1 X-0.912 Y49.913 Z-4.500 F600.000
G1 X0.500 Y49.913 Z-4.500 F600.000
G3 X2.087 Y51.500 Z-4.500 I0.000 J1.587 K0.000 F600.000
G1 X2.087 Y65.912 Z-4.500 F600.000
G1 X6.912 Y65.912 Z-4.500 F600.000
G0 X6.912 Y65.912 Z6.000
(Finish operation: RampEntryDressup014)
(Begin operation: DressupTag)
(Path: DressupTag)
G0 Z6.000
G0 X6.912 Y65.912 Z6.000
G0 X6.912 Y65.912 Z4.000
G1 X6.912 Y-65.912 Z2.006 F597.111
G1 X2.087 Y-65.912 Z1.933 F597.111
G1 X2.087 Y-46.500 Z1.639 F597.111
G1 X2.048 Y-46.147 Z1.635 F597.491
G1 X1.930 Y-45.811 Z1.629 F597.109
G1 X1.741 Y-45.510 Z1.623 F596.872
G1 X1.490 Y-45.259 Z1.617 F596.791
G1 X1.189 Y-45.070 Z1.612 F596.872
G1 X0.853 Y-44.952 Z1.606 F597.109
G1 X0.500 Y-44.913 Z1.601 F597.491
G1 X-10.912 Y-44.913 Z1.429 F597.111
G1 X-10.912 Y-35.087 Z1.280 F597.111
G1 X-2.500 Y-35.087 Z1.153 F597.111
G1 X-2.147 Y-35.048 Z1.148 F597.491
G1 X-1.811 Y-34.930 Z1.143 F597.109
G1 X-1.510 Y-34.741 Z1.137 F596.872
G1 X-1.259 Y-34.490 Z1.131 F596.791
G1 X-1.070 Y-34.189 Z1.125 F596.872
G1 X-0.952 Y-33.853 Z1.120 F597.109
G1 X-0.912 Y-33.500 Z1.115 F597.491
G1 X-0.912 Y-14.500 Z0.828 F597.111
G1 X-0.952 Y-14.147 Z0.823 F597.491
G1 X-1.070 Y-13.811 Z0.818 F597.109
G1 X-1.259 Y-13.510 Z0.812 F596.872
G1 X-1.510 Y-13.259 Z0.806 F596.791
G1 X-1.811 Y-13.070 Z0.800 F596.872
G1 X-2.147 Y-12.952 Z0.795 F597.109
G1 X-2.500 Y-12.912 Z0.790 F597.491
G1 X-8.912 Y-12.912 Z0.693 F597.111
G1 X-8.912 Y17.913 Z0.227 F597.111
G1 X-2.500 Y17.913 Z0.130 F597.111
G1 X-2.147 Y17.952 Z0.125 F597.491
G1 X-1.811 Y18.070 Z0.120 F597.109
G1 X-1.510 Y18.259 Z0.114 F596.872
G1 X-1.259 Y18.510 Z0.108 F596.791
G1 X-1.070 Y18.811 Z0.102 F596.872
G1 X-0.952 Y19.147 Z0.097 F597.109
G1 X-0.912 Y19.500 Z0.092 F597.491
G1 X-0.912 Y27.500 Z-0.029 F597.111
G1 X-0.952 Y27.853 Z-0.034 F597.491
G1 X-1.070 Y28.189 Z-0.039 F597.109
G1 X-1.259 Y28.490 Z-0.045 F596.872
G1 X-1.510 Y28.741 Z-0.051 F596.791
G1 X-1.811 Y28.930 Z-0.057 F596.872
G1 X-2.147 Y29.048 Z-0.062 F597.109
G1 X-2.500 Y29.087 Z-0.067 F597.491
G1 X-10.912 Y29.087 Z-0.194 F597.111
G1 X-10.912 Y40.913 Z-0.373 F597.111
G1 X-2.500 Y40.913 Z-0.500 F597.111
G1 X-2.147 Y40.952 Z-0.505 F597.491
G1 X-1.811 Y41.070 Z-0.510 F597.109
G1 X-1.510 Y41.259 Z-0.516 F596.872
G1 X-1.259 Y41.510 Z-0.522 F596.791
G1 X-1.070 Y41.811 Z-0.528 F596.872
G1 X-0.952 Y42.147 Z-0.533 F597.109
G1 X-0.912 Y42.500 Z-0.538 F597.491
G1 X-0.912 Y49.913 Z-0.650 F597.111
G1 X0.500 Y49.913 Z-0.671 F597.111
G1 X0.853 Y49.952 Z-0.676 F597.491
G1 X1.189 Y50.070 Z-0.681 F597.109
G1 X1.490 Y50.259 Z-0.687 F596.872
G1 X1.741 Y50.510 Z-0.693 F596.791
G1 X1.930 Y50.811 Z-0.699 F596.872
G1 X2.048 Y51.147 Z-0.704 F597.109
G1 X2.087 Y51.500 Z-0.709 F597.491
G1 X2.087 Y65.912 Z-0.927 F597.111
G1 X6.912 Y65.912 Z-1.000 F597.111
G1 X6.912 Y-65.912 Z-1.798 F598.844
G1 X2.087 Y-65.912 Z-1.827 F598.844
G1 X2.087 Y-46.500 Z-1.944 F598.844
G1 X2.048 Y-46.147 Z-1.946 F598.996
G1 X1.930 Y-45.811 Z-1.948 F598.844
G1 X1.741 Y-45.510 Z-1.951 F598.749
G1 X1.490 Y-45.259 Z-1.953 F598.716
G1 X1.189 Y-45.070 Z-1.955 F598.749
G1 X0.853 Y-44.952 Z-1.958 F598.844
G1 X0.500 Y-44.913 Z-1.959 F598.996
G1 X-10.912 Y-44.913 Z-2.028 F598.844
G1 X-10.912 Y-35.087 Z-2.088 F598.844
G1 X-2.500 Y-35.087 Z-2.139 F598.844
G1 X-2.147 Y-35.048 Z-2.141 F598.996
G1 X-1.811 Y-34.930 Z-2.143 F598.844
G1 X-1.510 Y-34.741 Z-2.145 F598.749
G1 X-1.259 Y-34.490 Z-2.148 F598.716
G1 X-1.070 Y-34.189 Z-2.150 F598.749
G1 X-0.952 Y-33.853 Z-2.152 F598.844
G1 X-0.912 Y-33.500 Z-2.154 F598.996
G1 X-0.912 Y-14.500 Z-2.269 F598.844
G1 X-0.952 Y-14.147 Z-2.271 F598.996
G1 X-1.070 Y-13.811 Z-2.273 F598.844
G1 X-1.259 Y-13.510 Z-2.275 F598.749
G1 X-1.510 Y-13.259 Z-2.278 F598.716
G1 X-1.811 Y-13.070 Z-2.280 F598.749
G1 X-2.147 Y-12.952 Z-2.282 F598.844
G1 X-2.500 Y-12.912 Z-2.284 F598.996
G1 X-8.912 Y-12.912 Z-2.323 F598.844
G1 X-8.912 Y17.913 Z-2.509 F598.844
G1 X-2.500 Y17.913 Z-2.548 F598.844
G1 X-2.147 Y17.952 Z-2.550 F598.996
G1 X-1.811 Y18.070 Z-2.552 F598.844
G1 X-1.510 Y18.259 Z-2.554 F598.749
G1 X-1.259 Y18.510 Z-2.557 F598.716
G1 X-1.070 Y18.811 Z-2.559 F598.749
G1 X-0.952 Y19.147 Z-2.561 F598.844
G1 X-0.912 Y19.500 Z-2.563 F598.996
G1 X-0.912 Y27.500 Z-2.612 F598.844
G1 X-0.952 Y27.853 Z-2.613 F598.996
G1 X-1.070 Y28.189 Z-2.616 F598.844
G1 X-1.259 Y28.490 Z-2.618 F598.749
G1 X-1.510 Y28.741 Z-2.620 F598.716
G1 X-1.811 Y28.930 Z-2.623 F598.749
G1 X-2.147 Y29.048 Z-2.625 F598.844
G1 X-2.500 Y29.087 Z-2.627 F598.996
G1 X-10.912 Y29.087 Z-2.678 F598.844
G1 X-10.912 Y40.913 Z-2.749 F598.844
G1 X-2.500 Y40.913 Z-2.800 F598.844
G1 X-2.147 Y40.952 Z-2.802 F598.996
G1 X-1.811 Y41.070 Z-2.804 F598.844
G1 X-1.510 Y41.259 Z-2.806 F598.749
G1 X-1.259 Y41.510 Z-2.809 F598.716
G1 X-1.070 Y41.811 Z-2.811 F598.749
G1 X-0.952 Y42.147 Z-2.813 F598.844
G1 X-0.912 Y42.500 Z-2.815 F598.996
G1 X-0.912 Y49.913 Z-2.860 F598.844
G1 X0.500 Y49.913 Z-2.869 F598.844
G1 X0.853 Y49.952 Z-2.870 F598.996
G1 X1.189 Y50.070 Z-2.873 F598.844
G1 X1.490 Y50.259 Z-2.875 F598.749
G1 X1.741 Y50.510 Z-2.877 F598.716
G1 X1.930 Y50.811 Z-2.880 F598.749
G1 X2.048 Y51.147 Z-2.882 F598.844
G1 X2.087 Y51.500 Z-2.884 F598.996
G1 X2.087 Y65.912 Z-2.971 F598.844
G1 X6.912 Y65.912 Z-3.000 F598.844
G1 X6.912 Y-65.912 Z-3.798 F598.844
G1 X2.087 Y-65.912 Z-3.827 F598.844
G1 X2.087 Y-46.500 Z-3.944 F598.844
G1 X2.048 Y-46.147 Z-3.946 F598.996
G1 X1.930 Y-45.811 Z-3.948 F598.844
G1 X1.741 Y-45.510 Z-3.951 F598.749
G1 X1.490 Y-45.259 Z-3.953 F598.716
G1 X1.189 Y-45.070 Z-3.955 F598.749
G1 X0.853 Y-44.952 Z-3.958 F598.844
G1 X0.500 Y-44.913 Z-3.959 F598.996
G1 X-10.912 Y-44.913 Z-4.028 F598.844
G1 X-10.912 Y-35.087 Z-4.088 F598.844
G1 X-2.500 Y-35.087 Z-4.139 F598.844
G1 X-2.147 Y-35.048 Z-4.141 F598.996
G1 X-1.811 Y-34.930 Z-4.143 F598.844
G1 X-1.510 Y-34.741 Z-4.145 F598.749
G1 X-1.259 Y-34.490 Z-4.148 F598.716
G1 X-1.070 Y-34.189 Z-4.150 F598.749
G1 X-0.952 Y-33.853 Z-4.152 F598.844
G1 X-0.912 Y-33.500 Z-4.154 F598.996
G1 X-0.912 Y-14.500 Z-4.269 F598.844
G1 X-0.952 Y-14.147 Z-4.271 F598.996
G1 X-1.070 Y-13.811 Z-4.273 F598.844
G1 X-1.259 Y-13.510 Z-4.275 F598.749
G1 X-1.510 Y-13.259 Z-4.278 F598.716
G1 X-1.811 Y-13.070 Z-4.280 F598.749
G1 X-2.147 Y-12.952 Z-4.282 F598.844
G1 X-2.500 Y-12.912 Z-4.284 F598.996
G1 X-8.912 Y-12.912 Z-4.323 F598.844
G1 X-8.912 Y17.913 Z-4.509 F598.844
G1 X-2.500 Y17.913 Z-4.548 F598.844
G1 X-2.147 Y17.952 Z-4.550 F598.996
G1 X-1.811 Y18.070 Z-4.552 F598.844
G1 X-1.510 Y18.259 Z-4.554 F598.749
G1 X-1.259 Y18.510 Z-4.557 F598.716
G1 X-1.070 Y18.811 Z-4.559 F598.749
G1 X-0.952 Y19.147 Z-4.561 F598.844
G1 X-0.912 Y19.500 Z-4.563 F598.996
G1 X-0.912 Y27.500 Z-4.612 F598.844
G1 X-0.952 Y27.853 Z-4.613 F598.996
G1 X-1.070 Y28.189 Z-4.616 F598.844
G1 X-1.259 Y28.490 Z-4.618 F598.749
G1 X-1.510 Y28.741 Z-4.620 F598.716
G1 X-1.811 Y28.930 Z-4.623 F598.749
G1 X-2.147 Y29.048 Z-4.625 F598.844
G1 X-2.500 Y29.087 Z-4.627 F598.996
G1 X-10.912 Y29.087 Z-4.678 F598.844
G1 X-10.912 Y40.913 Z-4.749 F598.844
G1 X-2.500 Y40.913 Z-4.800 F598.844
G1 X-2.147 Y40.952 Z-4.802 F598.996
G1 X-1.811 Y41.070 Z-4.804 F598.844
G1 X-1.510 Y41.259 Z-4.806 F598.749
G1 X-1.259 Y41.510 Z-4.809 F598.716
G1 X-1.070 Y41.811 Z-4.811 F598.749
G1 X-0.952 Y42.147 Z-4.813 F598.844
G1 X-0.912 Y42.500 Z-4.815 F598.996
G1 X-0.912 Y49.913 Z-4.860 F598.844
G1 X0.500 Y49.913 Z-4.869 F598.844
G1 X0.853 Y49.952 Z-4.870 F598.996
G1 X1.189 Y50.070 Z-4.873 F598.844
G1 X1.490 Y50.259 Z-4.875 F598.749
G1 X1.741 Y50.510 Z-4.877 F598.716
G1 X1.930 Y50.811 Z-4.880 F598.749
G1 X2.048 Y51.147 Z-4.882 F598.844
G1 X2.087 Y51.500 Z-4.884 F598.996
G1 X2.087 Y65.912 Z-4.971 F598.844
G1 X6.912 Y65.912 Z-5.000 F598.844
G1 X6.912 Y-65.912 Z-5.798 F598.844
G1 X2.087 Y-65.912 Z-5.827 F598.844
G1 X2.087 Y-46.500 Z-5.944 F598.844
G1 X2.048 Y-46.147 Z-5.946 F598.996
G1 X1.930 Y-45.811 Z-5.948 F598.844
G1 X1.741 Y-45.510 Z-5.951 F598.749
G1 X1.490 Y-45.259 Z-5.953 F598.716
G1 X1.189 Y-45.070 Z-5.955 F598.749
G1 X0.853 Y-44.952 Z-5.958 F598.844
G1 X0.500 Y-44.913 Z-5.959 F598.996
G1 X-10.912 Y-44.913 Z-6.028 F598.844
G1 X-10.912 Y-35.087 Z-6.088 F598.844
G1 X-2.500 Y-35.087 Z-6.139 F598.844
G1 X-2.147 Y-35.048 Z-6.141 F598.996
G1 X-1.811 Y-34.930 Z-6.143 F598.844
G1 X-1.510 Y-34.741 Z-6.145 F598.749
G1 X-1.259 Y-34.490 Z-6.148 F598.716
G1 X-1.070 Y-34.189 Z-6.150 F598.749
G1 X-0.952 Y-33.853 Z-6.152 F598.844
G1 X-0.912 Y-33.500 Z-6.154 F598.996
G1 X-0.912 Y-14.500 Z-6.269 F598.844
G1 X-0.952 Y-14.147 Z-6.271 F598.996
G1 X-1.070 Y-13.811 Z-6.273 F598.844
G1 X-1.259 Y-13.510 Z-6.275 F598.749
G1 X-1.510 Y-13.259 Z-6.278 F598.716
G1 X-1.811 Y-13.070 Z-6.280 F598.749
G1 X-2.147 Y-12.952 Z-6.282 F598.844
G1 X-2.500 Y-12.912 Z-6.284 F598.996
G1 X-8.912 Y-12.912 Z-6.323 F598.844
G1 X-8.912 Y17.913 Z-6.509 F598.844
G1 X-2.500 Y17.913 Z-6.548 F598.844
G1 X-2.147 Y17.952 Z-6.550 F598.996
G1 X-1.811 Y18.070 Z-6.552 F598.844
G1 X-1.510 Y18.259 Z-6.554 F598.749
G1 X-1.259 Y18.510 Z-6.557 F598.716
G1 X-1.070 Y18.811 Z-6.559 F598.749
G1 X-0.952 Y19.147 Z-6.561 F598.844
G1 X-0.912 Y19.500 Z-6.563 F598.996
G1 X-0.912 Y27.500 Z-6.612 F598.844
G1 X-0.952 Y27.853 Z-6.613 F598.996
G1 X-1.070 Y28.189 Z-6.616 F598.844
G1 X-1.259 Y28.490 Z-6.618 F598.749
G1 X-1.510 Y28.741 Z-6.620 F598.716
G1 X-1.811 Y28.930 Z-6.623 F598.749
G1 X-2.147 Y29.048 Z-6.625 F598.844
G1 X-2.500 Y29.087 Z-6.627 F598.996
G1 X-10.912 Y29.087 Z-6.678 F598.844
G1 X-10.912 Y40.913 Z-6.749 F598.844
G1 X-2.500 Y40.913 Z-6.800 F598.844
G1 X-2.147 Y40.952 Z-6.802 F598.996
G1 X-1.811 Y41.070 Z-6.804 F598.844
G1 X-1.510 Y41.259 Z-6.806 F598.749
G1 X-1.259 Y41.510 Z-6.809 F598.716
G1 X-1.070 Y41.811 Z-6.811 F598.749
G1 X-0.952 Y42.147 Z-6.813 F598.844
G1 X-0.912 Y42.500 Z-6.815 F598.996
G1 X-0.912 Y49.913 Z-6.860 F598.844
G1 X0.500 Y49.913 Z-6.869 F598.844
G1 X0.853 Y49.952 Z-6.870 F598.996
G1 X1.189 Y50.070 Z-6.873 F598.844
G1 X1.490 Y50.259 Z-6.875 F598.749
G1 X1.741 Y50.510 Z-6.877 F598.716
G1 X1.930 Y50.811 Z-6.880 F598.749
G1 X2.048 Y51.147 Z-6.882 F598.844
G1 X2.087 Y51.500 Z-6.884 F598.996
G1 X2.087 Y65.912 Z-6.971 F598.844
G1 X6.912 Y65.912 Z-7.000 F598.844
G1 X6.912 Y-65.912 Z-7.798 F598.844
G1 X2.087 Y-65.912 Z-7.827 F598.844
G1 X2.087 Y-46.500 Z-7.944 F598.844
G1 X2.048 Y-46.147 Z-7.946 F598.996
G1 X1.930 Y-45.811 Z-7.948 F598.844
G1 X1.741 Y-45.510 Z-7.951 F598.749
G1 X1.490 Y-45.259 Z-7.953 F598.716
G1 X1.189 Y-45.070 Z-7.955 F598.749
G1 X0.853 Y-44.952 Z-7.958 F598.844
G1 X0.500 Y-44.913 Z-7.959 F598.996
G1 X-10.912 Y-44.913 Z-8.028 F598.844
G1 X-10.912 Y-35.087 Z-8.088 F598.844
G1 X-2.500 Y-35.087 Z-8.139 F598.844
G1 X-2.147 Y-35.048 Z-8.141 F598.996
G1 X-1.811 Y-34.930 Z-8.143 F598.844
G1 X-1.510 Y-34.741 Z-8.145 F598.749
G1 X-1.259 Y-34.490 Z-8.148 F598.716
G1 X-1.070 Y-34.189 Z-8.150 F598.749
G1 X-0.952 Y-33.853 Z-8.152 F598.844
G1 X-0.912 Y-33.500 Z-8.154 F598.996
G1 X-0.912 Y-14.500 Z-8.269 F598.844
G1 X-0.952 Y-14.147 Z-8.271 F598.996
G1 X-1.070 Y-13.811 Z-8.273 F598.844
G1 X-1.259 Y-13.510 Z-8.275 F598.749
G1 X-1.510 Y-13.259 Z-8.278 F598.716
G1 X-1.811 Y-13.070 Z-8.280 F598.749
G1 X-2.147 Y-12.952 Z-8.282 F598.844
G1 X-2.500 Y-12.912 Z-8.284 F598.996
G1 X-8.912 Y-12.912 Z-8.323 F598.844
G1 X-8.912 Y17.913 Z-8.509 F598.844
G1 X-2.500 Y17.913 Z-8.548 F598.844
G1 X-2.147 Y17.952 Z-8.550 F598.996
G1 X-1.811 Y18.070 Z-8.552 F598.844
G1 X-1.510 Y18.259 Z-8.554 F598.749
G1 X-1.259 Y18.510 Z-8.557 F598.716
G1 X-1.070 Y18.811 Z-8.559 F598.749
G1 X-0.952 Y19.147 Z-8.561 F598.844
G1 X-0.912 Y19.500 Z-8.563 F598.996
G1 X-0.912 Y27.500 Z-8.612 F598.844
G1 X-0.952 Y27.853 Z-8.613 F598.996
G1 X-1.070 Y28.189 Z-8.616 F598.844
G1 X-1.259 Y28.490 Z-8.618 F598.749
G1 X-1.510 Y28.741 Z-8.620 F598.716
G1 X-1.811 Y28.930 Z-8.623 F598.749
G1 X-2.147 Y29.048 Z-8.625 F598.844
G1 X-2.500 Y29.087 Z-8.627 F598.996
G1 X-10.912 Y29.087 Z-8.678 F598.844
G1 X-10.912 Y40.913 Z-8.749 F598.844
G1 X-2.500 Y40.913 Z-8.800 F598.844
G1 X-2.147 Y40.952 Z-8.802 F598.996
G1 X-1.811 Y41.070 Z-8.804 F598.844
G1 X-1.510 Y41.259 Z-8.806 F598.749
G1 X-1.259 Y41.510 Z-8.809 F598.716
G1 X-1.070 Y41.811 Z-8.811 F598.749
G1 X-0.952 Y42.147 Z-8.813 F598.844
G1 X-0.912 Y42.500 Z-8.815 F598.996
G1 X-0.912 Y49.913 Z-8.860 F598.844
G1 X0.500 Y49.913 Z-8.869 F598.844
G1 X0.853 Y49.952 Z-8.870 F598.996
G1 X1.189 Y50.070 Z-8.873 F598.844
G1 X1.490 Y50.259 Z-8.875 F598.749
G1 X1.741 Y50.510 Z-8.877 F598.716
G1 X1.930 Y50.811 Z-8.880 F598.749
G1 X2.048 Y51.147 Z-8.882 F598.844
G1 X2.087 Y51.500 Z-8.884 F598.996
G1 X2.087 Y65.912 Z-8.971 F598.844
G1 X6.912 Y65.912 Z-9.000 F598.844
G1 X6.912 Y-65.912 Z-9.798 F598.844
G1 X2.087 Y-65.912 Z-9.827 F598.844
G1 X2.087 Y-46.500 Z-9.944 F598.844
G1 X2.048 Y-46.147 Z-9.946 F598.996
G1 X1.930 Y-45.811 Z-9.948 F598.844
G1 X1.741 Y-45.510 Z-9.951 F598.749
G1 X1.490 Y-45.259 Z-9.953 F598.716
G1 X1.189 Y-45.070 Z-9.955 F598.749
G1 X0.853 Y-44.952 Z-9.958 F598.844
G1 X0.500 Y-44.913 Z-9.959 F598.996
G1 X-10.912 Y-44.913 Z-10.028 F598.844
G1 X-10.912 Y-35.087 Z-10.088 F598.844
G1 X-2.500 Y-35.087 Z-10.139 F598.844
G1 X-2.147 Y-35.048 Z-10.141 F598.996
G1 X-1.811 Y-34.930 Z-10.143 F598.844
G1 X-1.510 Y-34.741 Z-10.145 F598.749
G1 X-1.259 Y-34.490 Z-10.148 F598.716
G1 X-1.070 Y-34.189 Z-10.150 F598.749
G1 X-0.952 Y-33.853 Z-10.152 F598.844
G1 X-0.912 Y-33.500 Z-10.154 F598.996
G1 X-0.912 Y-14.500 Z-10.269 F598.844
G1 X-0.952 Y-14.147 Z-10.271 F598.996
G1 X-1.070 Y-13.811 Z-10.273 F598.844
G1 X-1.259 Y-13.510 Z-10.275 F598.749
G1 X-1.510 Y-13.259 Z-10.278 F598.716
G1 X-1.811 Y-13.070 Z-10.280 F598.749
G1 X-2.147 Y-12.952 Z-10.282 F598.844
G1 X-2.500 Y-12.912 Z-10.284 F598.996
G1 X-8.912 Y-12.912 Z-10.323 F598.844
G1 X-8.912 Y17.913 Z-10.509 F598.844
G1 X-2.500 Y17.913 Z-10.548 F598.844
G1 X-2.147 Y17.952 Z-10.550 F598.996
G1 X-1.811 Y18.070 Z-10.552 F598.844
G1 X-1.510 Y18.259 Z-10.554 F598.749
G1 X-1.259 Y18.510 Z-10.557 F598.716
G1 X-1.070 Y18.811 Z-10.559 F598.749
G1 X-0.952 Y19.147 Z-10.561 F598.844
G1 X-0.912 Y19.500 Z-10.563 F598.996
G1 X-0.912 Y27.500 Z-10.612 F598.844
G1 X-0.952 Y27.853 Z-10.613 F598.996
G1 X-1.070 Y28.189 Z-10.616 F598.844
G1 X-1.259 Y28.490 Z-10.618 F598.749
G1 X-1.510 Y28.741 Z-10.620 F598.716
G1 X-1.811 Y28.930 Z-10.623 F598.749
G1 X-2.147 Y29.048 Z-10.625 F598.844
G1 X-2.500 Y29.087 Z-10.627 F598.996
G1 X-10.912 Y29.087 Z-10.678 F598.844
G1 X-10.912 Y40.913 Z-10.749 F598.844
G1 X-2.500 Y40.913 Z-10.800 F598.844
G1 X-2.147 Y40.952 Z-10.802 F598.996
G1 X-1.811 Y41.070 Z-10.804 F598.844
G1 X-1.510 Y41.259 Z-10.806 F598.749
G1 X-1.259 Y41.510 Z-10.809 F598.716
G1 X-1.070 Y41.811 Z-10.811 F598.749
G1 X-0.952 Y42.147 Z-10.813 F598.844
G1 X-0.912 Y42.500 Z-10.815 F598.996
G1 X-0.912 Y49.913 Z-10.860 F598.844
G1 X0.500 Y49.913 Z-10.869 F598.844
G1 X0.853 Y49.952 Z-10.870 F598.996
G1 X1.189 Y50.070 Z-10.873 F598.844
G1 X1.490 Y50.259 Z-10.875 F598.749
G1 X1.741 Y50.510 Z-10.877 F598.716
G1 X1.930 Y50.811 Z-10.880 F598.749
G1 X2.048 Y51.147 Z-10.882 F598.844
G1 X2.087 Y51.500 Z-10.884 F598.996
G1 X2.087 Y65.912 Z-10.971 F598.844
G1 X6.912 Y65.912 Z-11.000 F598.844
G1 X6.912 Y-65.912 Z-11.798 F598.844
G1 X2.087 Y-65.912 Z-11.827 F598.844
G1 X2.087 Y-46.500 Z-11.944 F598.844
G1 X2.048 Y-46.147 Z-11.946 F598.996
G1 X1.930 Y-45.811 Z-11.948 F598.844
G1 X1.741 Y-45.510 Z-11.951 F598.749
G1 X1.490 Y-45.259 Z-11.953 F598.716
G1 X1.189 Y-45.070 Z-11.955 F598.749
G1 X0.853 Y-44.952 Z-11.958 F598.844
G1 X0.500 Y-44.913 Z-11.959 F598.996
G1 X-10.912 Y-44.913 Z-12.028 F598.844
G1 X-10.912 Y-35.087 Z-12.088 F598.844
G1 X-2.500 Y-35.087 Z-12.139 F598.844
G1 X-2.147 Y-35.048 Z-12.141 F598.996
G1 X-1.811 Y-34.930 Z-12.143 F598.844
G1 X-1.510 Y-34.741 Z-12.145 F598.749
G1 X-1.259 Y-34.490 Z-12.148 F598.716
G1 X-1.070 Y-34.189 Z-12.150 F598.749
G1 X-0.952 Y-33.853 Z-12.152 F598.844
G1 X-0.912 Y-33.500 Z-12.154 F598.996
G1 X-0.912 Y-14.500 Z-12.269 F598.844
G1 X-0.952 Y-14.147 Z-12.271 F598.996
G1 X-1.070 Y-13.811 Z-12.273 F598.844
G1 X-1.259 Y-13.510 Z-12.275 F598.749
G1 X-1.510 Y-13.259 Z-12.278 F598.716
G1 X-1.811 Y-13.070 Z-12.280 F598.749
G1 X-2.147 Y-12.952 Z-12.282 F598.844
G1 X-2.500 Y-12.912 Z-12.284 F598.996
G1 X-8.912 Y-12.912 Z-12.323 F598.844
G1 X-8.912 Y0.031 Z-12.401 F598.844
G1 X-8.912 Y0.433 Z-12.000 F450.000
G1 X-8.912 Y4.568 Z-12.000 F600.000
G1 X-8.912 Y4.999 Z-12.431 F450.000
G1 X-8.912 Y17.913 Z-12.509 F598.844
G1 X-2.500 Y17.913 Z-12.548 F598.844
G1 X-2.147 Y17.952 Z-12.550 F598.996
G1 X-1.811 Y18.070 Z-12.552 F598.844
G1 X-1.510 Y18.259 Z-12.554 F598.749
G1 X-1.259 Y18.510 Z-12.557 F598.716
G1 X-1.070 Y18.811 Z-12.559 F598.749
G1 X-0.952 Y19.147 Z-12.561 F598.844
G1 X-0.912 Y19.500 Z-12.563 F598.996
G1 X-0.912 Y27.500 Z-12.612 F598.844
G1 X-0.952 Y27.853 Z-12.613 F598.996
G1 X-1.070 Y28.189 Z-12.616 F598.844
G1 X-1.259 Y28.490 Z-12.618 F598.749
G1 X-1.510 Y28.741 Z-12.620 F598.716
G1 X-1.811 Y28.930 Z-12.623 F598.749
G1 X-2.147 Y29.048 Z-12.625 F598.844
G1 X-2.500 Y29.087 Z-12.627 F598.996
G1 X-10.912 Y29.087 Z-12.678 F598.844
G1 X-10.912 Y40.913 Z-12.749 F598.844
G1 X-2.500 Y40.913 Z-12.800 F598.844
G1 X-2.147 Y40.952 Z-12.802 F598.996
G1 X-1.811 Y41.070 Z-12.804 F598.844
G1 X-1.510 Y41.259 Z-12.806 F598.749
G1 X-1.259 Y41.510 Z-12.809 F598.716
G1 X-1.070 Y41.811 Z-12.811 F598.749
G1 X-0.952 Y42.147 Z-12.813 F598.844
G1 X-0.912 Y42.500 Z-12.815 F598.996
G1 X-0.912 Y49.913 Z-12.860 F598.844
G1 X0.500 Y49.913 Z-12.869 F598.844
G1 X0.853 Y49.952 Z-12.870 F598.996
G1 X1.189 Y50.070 Z-12.873 F598.844
G1 X1.490 Y50.259 Z-12.875 F598.749
G1 X1.741 Y50.510 Z-12.877 F598.716
G1 X1.930 Y50.811 Z-12.880 F598.749
G1 X2.048 Y51.147 Z-12.882 F598.844
G1 X2.087 Y51.500 Z-12.884 F598.996
G1 X2.087 Y65.912 Z-12.971 F598.844
G1 X6.912 Y65.912 Z-13.000 F598.844
G1 X6.912 Y36.114 Z-13.090 F599.422
G1 X6.912 Y35.024 Z-12.000 F450.000
G1 X6.912 Y30.889 Z-12.000 F600.000
G1 X6.912 Y29.779 Z-13.109 F450.000
G1 X6.912 Y-29.600 Z-13.289 F599.422
G1 X6.912 Y-30.889 Z-12.000 F450.000
G1 X6.912 Y-35.024 Z-12.000 F600.000
G1 X6.912 Y-36.333 Z-13.309 F450.000
G1 X6.912 Y-65.912 Z-13.399 F599.422
G1 X2.087 Y-65.912 Z-13.413 F599.422
G1 X2.087 Y-46.500 Z-13.472 F599.422
G1 X2.048 Y-46.147 Z-13.473 F599.498
G1 X1.930 Y-45.811 Z-13.474 F599.422
G1 X1.741 Y-45.510 Z-13.475 F599.374
G1 X1.490 Y-45.259 Z-13.477 F599.358
G1 X1.189 Y-45.070 Z-13.478 F599.374
G1 X0.853 Y-44.952 Z-13.479 F599.422
G1 X0.500 Y-44.913 Z-13.480 F599.498
G1 X-10.912 Y-44.913 Z-13.514 F599.422
G1 X-10.912 Y-35.087 Z-13.544 F599.422
G1 X-2.500 Y-35.087 Z-13.569 F599.422
G1 X-2.147 Y-35.048 Z-13.570 F599.498
G1 X-1.811 Y-34.930 Z-13.571 F599.422
G1 X-1.510 Y-34.741 Z-13.573 F599.374
G1 X-1.259 Y-34.490 Z-13.574 F599.358
G1 X-1.070 Y-34.189 Z-13.575 F599.374
G1 X-0.952 Y-33.853 Z-13.576 F599.422
G1 X-0.912 Y-33.500 Z-13.577 F599.498
G1 X-0.912 Y-14.500 Z-13.634 F599.422
G1 X-0.952 Y-14.147 Z-13.635 F599.498
G1 X-1.070 Y-13.811 Z-13.636 F599.422
G1 X-1.259 Y-13.510 Z-13.638 F599.374
G1 X-1.510 Y-13.259 Z-13.639 F599.358
G1 X-1.811 Y-13.070 Z-13.640 F599.374
G1 X-2.147 Y-12.952 Z-13.641 F599.422
G1 X-2.500 Y-12.912 Z-13.642 F599.498
G1 X-8.912 Y-12.912 Z-13.661 F599.422
G1 X-8.912 Y-1.264 Z-13.697 F599.422
G1 X-8.912 Y0.433 Z-12.000 F450.000
G1 X-8.912 Y4.568 Z-12.000 F600.000
G1 X-8.912 Y6.287 Z-13.719 F450.000
G1 X-8.912 Y17.913 Z-13.755 F599.422
G1 X-2.500 Y17.913 Z-13.774 F599.422
G1 X-2.147 Y17.952 Z-13.775 F599.498
G1 X-1.811 Y18.070 Z-13.776 F599.422
G1 X-1.510 Y18.259 Z-13.777 F599.374
G1 X-1.259 Y18.510 Z-13.778 F599.358
G1 X-1.070 Y18.811 Z-13.780 F599.374
G1 X-0.952 Y19.147 Z-13.781 F599.422
G1 X-0.912 Y19.500 Z-13.782 F599.498
G1 X-0.912 Y27.500 Z-13.806 F599.422
G1 X-0.952 Y27.853 Z-13.807 F599.498
G1 X-1.070 Y28.189 Z-13.808 F599.422
G1 X-1.259 Y28.490 Z-13.809 F599.374
G1 X-1.510 Y28.741 Z-13.810 F599.358
G1 X-1.811 Y28.930 Z-13.811 F599.374
G1 X-2.147 Y29.048 Z-13.812 F599.422
G1 X-2.500 Y29.087 Z-13.813 F599.498
G1 X-10.912 Y29.087 Z-13.839 F599.422
G1 X-10.912 Y40.913 Z-13.875 F599.422
G1 X-2.500 Y40.913 Z-13.900 F599.422
G1 X-2.147 Y40.952 Z-13.901 F599.498
G1 X-1.811 Y41.070 Z-13.902 F599.422
G1 X-1.510 Y41.259 Z-13.903 F599.374
G1 X-1.259 Y41.510 Z-13.904 F599.358
G1 X-1.070 Y41.811 Z-13.906 F599.374
G1 X-0.952 Y42.147 Z-13.907 F599.422
G1 X-0.912 Y42.500 Z-13.908 F599.498
G1 X-0.912 Y49.913 Z-13.930 F599.422
G1 X0.500 Y49.913 Z-13.934 F599.422
G1 X0.853 Y49.952 Z-13.935 F599.498
G1 X1.189 Y50.070 Z-13.936 F599.422
G1 X1.490 Y50.259 Z-13.937 F599.374
G1 X1.741 Y50.510 Z-13.939 F599.358
G1 X1.930 Y50.811 Z-13.940 F599.374
G1 X2.048 Y51.147 Z-13.941 F599.422
G1 X2.087 Y51.500 Z-13.942 F599.498
G1 X2.087 Y65.912 Z-13.985 F599.422
G1 X6.912 Y65.912 Z-14.000 F599.422
G1 X6.912 Y37.024 Z-14.000 F600.000
G1 X6.912 Y35.024 Z-12.000 F450.000
G1 X6.912 Y30.889 Z-12.000 F600.000
G1 X6.912 Y28.889 Z-14.000 F450.000
G1 X6.912 Y-28.889 Z-14.000 F600.000
G1 X6.912 Y-30.889 Z-12.000 F450.000
G1 X6.912 Y-35.024 Z-12.000 F600.000
G1 X6.912 Y-37.024 Z-14.000 F450.000
G1 X6.912 Y-65.912 Z-14.000 F600.000
G1 X2.087 Y-65.912 Z-14.000 F600.000
G1 X2.087 Y-46.500 Z-14.000 F600.000
G3 X0.500 Y-44.913 Z-14.000 I-1.587 J0.000 K0.000 F600.000
G1 X-10.912 Y-44.913 Z-14.000 F600.000
G1 X-10.912 Y-35.087 Z-14.000 F600.000
G1 X-2.500 Y-35.087 Z-14.000 F600.000
G3 X-0.912 Y-33.500 Z-14.000 I0.000 J1.587 K0.000 F600.000
G1 X-0.912 Y-14.500 Z-14.000 F600.000
G3 X-2.500 Y-12.912 Z-14.000 I-1.587 J0.000 K0.000 F600.000
G1 X-8.912 Y-12.912 Z-14.000 F600.000
G1 X-8.912 Y-1.567 Z-14.000 F600.000
G1 X-8.912 Y0.433 Z-12.000 F450.000
G1 X-8.912 Y4.568 Z-12.000 F600.000
G1 X-8.912 Y6.568 Z-14.000 F450.000
G1 X-8.912 Y17.913 Z-14.000 F600.000
G1 X-2.500 Y17.913 Z-14.000 F600.000
G3 X-0.912 Y19.500 Z-14.000 I0.000 J1.587 K0.000 F600.000
G1 X-0.912 Y27.500 Z-14.000 F600.000
G3 X-2.500 Y29.087 Z-14.000 I-1.588 J-0.000 K0.000 F600.000
G1 X-10.912 Y29.087 Z-14.000 F600.000
G1 X-10.912 Y40.913 Z-14.000 F600.000
G1 X-2.500 Y40.913 Z-14.000 F600.000
G3 X-0.912 Y42.500 Z-14.000 I0.000 J1.587 K0.000 F600.000
G1 X-0.912 Y49.913 Z-14.000 F600.000
G1 X0.500 Y49.913 Z-14.000 F600.000
G3 X2.087 Y51.500 Z-14.000 I0.000 J1.587 K0.000 F600.000
G1 X2.087 Y65.912 Z-14.000 F600.000
G1 X6.912 Y65.912 Z-14.000 F600.000
G0 X6.912 Y65.912 Z6.000
(Finish operation: DressupTag)
(Begin operation: Pocket_Shape002)
(Path: Pocket_Shape002)
(Pocket_Shape002)
G0 Z6.000
G0 X12.411 Y77.411
G0 Z4.000
G1 X12.411 Y77.411 Z-1.000 F300.000
G2 X13.412 Y74.952 Z-1.000 I-2.419 J-2.419 K0.000 F600.000
G1 X13.412 Y-74.952 Z-1.000 F600.000
G2 X9.952 Y-78.412 Z-1.000 I-3.420 J-0.040 K0.000 F600.000
G1 X-9.952 Y-78.412 Z-1.000 F600.000
G2 X-13.412 Y-74.952 Z-1.000 I-0.040 J3.420 K0.000 F600.000
G1 X-13.412 Y-47.790 Z-1.000 F600.000
G3 X-12.500 Y-48.087 Z-1.000 I0.882 J1.155 K0.000 F600.000
G1 X-1.088 Y-48.087 Z-1.000 F600.000
G1 X-1.088 Y-67.500 Z-1.000 F600.000
G3 X0.500 Y-69.088 Z-1.000 I1.588 J0.000 K0.000 F600.000
G1 X8.500 Y-69.088 Z-1.000 F600.000
G3 X10.087 Y-67.500 Z-1.000 I-0.000 J1.588 K0.000 F600.000
G1 X10.087 Y67.500 Z-1.000 F600.000
G3 X8.500 Y69.088 Z-1.000 I-1.588 J-0.000 K0.000 F600.000
G1 X0.500 Y69.088 Z-1.000 F600.000
G3 X-1.088 Y67.500 Z-1.000 I0.000 J-1.588 K0.000 F600.000
G1 X-1.088 Y53.087 Z-1.000 F600.000
G1 X-2.500 Y53.087 Z-1.000 F600.000
G3 X-4.087 Y51.500 Z-1.000 I0.000 J-1.588 K0.000 F600.000
G1 X-4.087 Y44.087 Z-1.000 F600.000
G1 X-12.500 Y44.087 Z-1.000 F600.000
G3 X-13.412 Y43.790 Z-1.000 I-0.007 J-1.526 K0.000 F600.000
G1 X-13.412 Y74.953 Z-1.000 F600.000
G2 X-10.031 Y78.412 Z-1.000 I3.419 J0.041 K0.000 F600.000
G1 X9.952 Y78.412 Z-1.000 F600.000
G2 X12.411 Y77.411 Z-1.000 I0.040 J-3.420 K0.000 F600.000
G0 Z6.000
G0 X12.358 Y77.358 Z6.000
G0 X12.358 Y77.358 Z4.000
G1 X12.358 Y77.358 Z-1.000 F300.000
G3 X10.000 Y78.338 Z-1.000 I-2.362 J-2.358 K0.000 F600.000
G3 X10.000 Y71.662 Z-1.000 I0.005 J-3.338 K0.000 F600.000
G3 X12.358 Y77.358 Z-1.000 I-0.005 J3.338 K0.000 F600.000
G0 Z6.000
G0 X13.176 Y76.027 Z6.000
G0 X13.176 Y76.027 Z4.000
G1 X13.176 Y76.027 Z-1.000 F300.000
G1 X13.228 Y76.080 Z-1.000 F600.000
G3 X10.933 Y78.274 Z-1.000 I-3.197 J-1.046 K0.000 F600.000
G2 X10.775 Y78.245 Z-1.000 I-0.091 J0.051 K0.000 F600.000
G3 X6.784 Y74.125 Z-1.000 I-0.776 J-3.241 K0.000 F600.000
G1 X1.746 Y69.087 Z-1.000 F600.000
G1 X0.500 Y69.087 Z-1.000 F600.000
G3 X-1.088 Y67.500 Z-1.000 I0.000 J-1.588 K0.000 F600.000
G1 X-1.088 Y66.254 Z-1.000 F600.000
G1 X-13.412 Y53.929 Z-1.000 F600.000
G1 X-13.412 Y58.419 Z-1.000 F600.000
G1 X6.581 Y78.412 Z-1.000 F600.000
G1 X2.091 Y78.412 Z-1.000 F600.000
G1 X-13.412 Y62.909 Z-1.000 F600.000
G1 X-13.412 Y67.399 Z-1.000 F600.000
G1 X-8.979 Y71.832 Z-1.000 F600.000
G2 X-12.506 Y72.796 Z-1.000 I-1.030 J3.166 K0.000 F600.000
G1 X-13.412 Y71.889 Z-1.000 F600.000
G0 Z6.000
G0 X-12.463 Y72.753 Z6.000
G0 X-12.463 Y72.753 Z4.000
G1 X-12.463 Y72.753 Z-1.000 F300.000
G3 X-10.000 Y71.662 Z-1.000 I2.468 J2.247 K0.000 F600.000
G3 X-10.000 Y78.338 Z-1.000 I-0.005 J3.338 K0.000 F600.000
G3 X-12.463 Y72.753 Z-1.000 I0.005 J-3.338 K0.000 F600.000
G0 Z6.000
G0 X-12.637 Y77.155 Z6.000
G0 X-12.637 Y77.155 Z4.000
G1 X-12.637 Y77.155 Z-1.000 F300.000
G2 X-12.162 Y77.630 Z-1.000 I1.775 J-1.301 K0.000 F600.000
G3 X-13.412 Y74.953 Z-1.000 I2.142 J-2.631 K0.000 F600.000
G1 X-13.412 Y71.889 Z-1.000 F600.000
G1 X-12.506 Y72.796 Z-1.000 F600.000
G2 X-7.802 Y77.499 Z-1.000 I2.500 J2.203 K0.000 F600.000
G1 X-6.889 Y78.412 Z-1.000 F600.000
G1 X-2.399 Y78.412 Z-1.000 F600.000
G1 X-6.819 Y73.993 Z-1.000 F600.000
G0 Z6.000
G0 X1.746 Y69.087 Z6.000
G0 X1.746 Y69.087 Z4.000
G1 X1.746 Y69.087 Z-1.000 F300.000
G1 X6.784 Y74.125 Z-1.000 F600.000
G3 X8.981 Y71.832 Z-1.000 I3.172 J0.840 K0.000 F600.000
G1 X6.236 Y69.087 Z-1.000 F600.000
G1 X8.500 Y69.087 Z-1.000 F600.000
G2 X9.891 Y68.252 Z-1.000 I0.005 J-1.567 K0.000 F600.000
G1 X13.412 Y71.774 Z-1.000 F600.000
G1 X13.412 Y67.283 Z-1.000 F600.000
G1 X10.087 Y63.958 Z-1.000 F600.000
G1 X10.087 Y59.468 Z-1.000 F600.000
G1 X13.412 Y62.793 Z-1.000 F600.000
G1 X13.412 Y58.303 Z-1.000 F600.000
G1 X10.087 Y54.978 Z-1.000 F600.000
G1 X10.087 Y50.488 Z-1.000 F600.000
G1 X13.412 Y53.813 Z-1.000 F600.000
G1 X13.412 Y49.323 Z-1.000 F600.000
G1 X10.087 Y45.998 Z-1.000 F600.000
G1 X10.087 Y41.508 Z-1.000 F600.000
G1 X13.412 Y44.833 Z-1.000 F600.000
G1 X13.412 Y40.343 Z-1.000 F600.000
G1 X10.087 Y37.018 Z-1.000 F600.000
G1 X10.087 Y32.528 Z-1.000 F600.000
G1 X13.412 Y35.853 Z-1.000 F600.000
G1 X13.412 Y31.362 Z-1.000 F600.000
G1 X10.087 Y28.037 Z-1.000 F600.000
G1 X10.087 Y23.547 Z-1.000 F600.000
G1 X13.412 Y26.872 Z-1.000 F600.000
G1 X13.412 Y22.382 Z-1.000 F600.000
G1 X10.087 Y19.057 Z-1.000 F600.000
G1 X10.087 Y14.567 Z-1.000 F600.000
G1 X13.412 Y17.892 Z-1.000 F600.000
G1 X13.412 Y13.402 Z-1.000 F600.000
G1 X10.087 Y10.077 Z-1.000 F600.000
G1 X10.087 Y5.587 Z-1.000 F600.000
G1 X13.412 Y8.912 Z-1.000 F600.000
G1 X13.412 Y4.422 Z-1.000 F600.000
G1 X10.087 Y1.097 Z-1.000 F600.000
G1 X10.087 Y-3.393 Z-1.000 F600.000
G1 X13.412 Y-0.068 Z-1.000 F600.000
G1 X13.412 Y-4.559 Z-1.000 F600.000
G1 X10.087 Y-7.884 Z-1.000 F600.000
G1 X10.087 Y-12.374 Z-1.000 F600.000
G1 X13.412 Y-9.049 Z-1.000 F600.000
G1 X13.412 Y-13.539 Z-1.000 F600.000
G1 X10.087 Y-16.864 Z-1.000 F600.000
G1 X10.087 Y-21.354 Z-1.000 F600.000
G1 X13.412 Y-18.029 Z-1.000 F600.000
G1 X13.412 Y-22.519 Z-1.000 F600.000
G1 X10.087 Y-25.844 Z-1.000 F600.000
G1 X10.087 Y-30.334 Z-1.000 F600.000
G1 X13.412 Y-27.009 Z-1.000 F600.000
G1 X13.412 Y-31.499 Z-1.000 F600.000
G1 X10.087 Y-34.824 Z-1.000 F600.000
G1 X10.087 Y-39.314 Z-1.000 F600.000
G1 X13.412 Y-35.989 Z-1.000 F600.000
G1 X13.412 Y-40.480 Z-1.000 F600.000
G1 X10.087 Y-43.805 Z-1.000 F600.000
G1 X10.087 Y-48.295 Z-1.000 F600.000
G1 X13.412 Y-44.970 Z-1.000 F600.000
G1 X13.412 Y-49.460 Z-1.000 F600.000
G1 X10.087 Y-52.785 Z-1.000 F600.000
G1 X10.087 Y-57.275 Z-1.000 F600.000
G1 X13.412 Y-53.950 Z-1.000 F600.000
G1 X13.412 Y-58.440 Z-1.000 F600.000
G1 X10.087 Y-61.765 Z-1.000 F600.000
G1 X10.087 Y-66.255 Z-1.000 F600.000
G1 X13.412 Y-62.930 Z-1.000 F600.000
G1 X13.412 Y-67.420 Z-1.000 F600.000
G1 X9.011 Y-71.822 Z-1.000 F600.000
G3 X6.810 Y-74.023 Z-1.000 I0.960 J-3.161 K0.000 F600.000
G1 X2.420 Y-78.412 Z-1.000 F600.000
G1 X6.910 Y-78.412 Z-1.000 F600.000
G1 X7.814 Y-77.509 Z-1.000 F600.000
G0 Z6.000
G0 X7.809 Y-77.514 Z6.000
G0 X7.809 Y-77.514 Z4.000
G1 X7.809 Y-77.514 Z-1.000 F300.000
G3 X10.000 Y-78.338 Z-1.000 I2.195 J2.514 K0.000 F600.000
G3 X10.000 Y-71.662 Z-1.000 I-0.005 J3.338 K0.000 F600.000
G3 X7.809 Y-77.514 Z-1.000 I0.005 J-3.338 K0.000 F600.000
G0 Z6.000
G0 X12.261 Y-77.552 Z6.000
G0 X12.261 Y-77.552 Z4.000
G1 X12.261 Y-77.552 Z-1.000 F300.000
G3 X13.412 Y-74.952 Z-1.000 I-2.278 J2.564 K0.000 F600.000
G1 X13.412 Y-71.910 Z-1.000 F600.000
G1 X12.515 Y-72.808 Z-1.000 F600.000
G3 X9.011 Y-71.822 Z-1.000 I-2.501 J-2.169 K0.000 F600.000
G1 X13.412 Y-67.420 Z-1.000 F600.000
G0 Z6.000
G0 X7.255 Y-69.087 Z6.000
G0 X7.255 Y-69.087 Z4.000
G1 X7.255 Y-69.087 Z-1.000 F300.000
G1 X-2.070 Y-78.412 Z-1.000 F600.000
G1 X-6.560 Y-78.412 Z-1.000 F600.000
G1 X2.765 Y-69.087 Z-1.000 F600.000
G1 X0.500 Y-69.087 Z-1.000 F600.000
G2 X-0.890 Y-68.253 Z-1.000 I-0.011 J1.557 K0.000 F600.000
G1 X-6.780 Y-74.142 Z-1.000 F600.000
G3 X-8.965 Y-71.837 Z-1.000 I-3.174 J-0.820 K0.000 F600.000
G1 X-1.088 Y-63.960 Z-1.000 F600.000
G0 Z6.000
G0 X-7.907 Y-72.404 Z6.000
G0 X-7.907 Y-72.404 Z4.000
G1 X-7.907 Y-72.404 Z-1.000 F300.000
G3 X-10.000 Y-71.662 Z-1.000 I-2.097 J-2.596 K0.000 F600.000
G3 X-10.000 Y-78.338 Z-1.000 I0.005 J-3.338 K0.000 F600.000
G3 X-7.907 Y-72.404 Z-1.000 I-0.005 J3.338 K0.000 F600.000
G0 Z6.000
G0 X-10.858 Y-78.220 Z6.000
G0 X-10.858 Y-78.220 Z4.000
G1 X-10.858 Y-78.220 Z-1.000 F300.000
G1 X-10.917 Y-78.279 Z-1.000 F600.000
G2 X-13.223 Y-76.096 Z-1.000 I0.887 J3.247 K0.000 F600.000
G3 X-13.198 Y-75.952 Z-1.000 I-0.040 J0.081 K0.000 F600.000
G2 X-8.965 Y-71.837 Z-1.000 I3.193 J0.949 K0.000 F600.000
G1 X-1.088 Y-63.960 Z-1.000 F600.000
G1 X-1.088 Y-59.470 Z-1.000 F600.000
G1 X-13.412 Y-71.795 Z-1.000 F600.000
G1 X-13.412 Y-67.305 Z-1.000 F600.000
G1 X-1.088 Y-54.980 Z-1.000 F600.000
G1 X-1.088 Y-50.489 Z-1.000 F600.000
G1 X-13.412 Y-62.814 Z-1.000 F600.000
G1 X-13.412 Y-58.324 Z-1.000 F600.000
G1 X-3.176 Y-48.087 Z-1.000 F600.000
G1 X-7.666 Y-48.087 Z-1.000 F600.000
G1 X-13.412 Y-53.834 Z-1.000 F600.000
G1 X-13.412 Y-49.344 Z-1.000 F600.000
G1 X-13.412 Y-47.790 Z-1.000 F600.000
G3 X-12.156 Y-48.087 Z-1.000 I1.006 J1.446 K0.000 F600.000
G1 X-13.412 Y-49.344 Z-1.000 F600.000
G0 Z6.000
G0 Y-32.210 Z6.000
G0 Y-32.210 Z4.000
G1 X-13.412 Y-32.210 Z-1.000 F300.000
G1 X-13.412 Y-15.790 Z-1.000 F600.000
G3 X-12.500 Y-16.087 Z-1.000 I0.882 J1.155 K0.000 F600.000
G1 X-4.087 Y-16.087 Z-1.000 F600.000
G1 X-4.087 Y-31.913 Z-1.000 F600.000
G1 X-12.500 Y-31.913 Z-1.000 F600.000
G3 X-13.412 Y-32.210 Z-1.000 I-0.007 J-1.526 K0.000 F600.000
G0 Z6.000
G0 X-4.087 Y-31.039 Z6.000
G0 X-4.087 Y-31.039 Z4.000
G1 X-4.087 Y-31.039 Z-1.000 F300.000
G1 X-4.087 Y-31.912 Z-1.000 F600.000
G1 X-4.961 Y-31.912 Z-1.000 F600.000
G1 X-4.087 Y-31.039 Z-1.000 F600.000
G1 X-4.087 Y-26.549 Z-1.000 F600.000
G1 X-9.451 Y-31.912 Z-1.000 F600.000
G1 X-12.500 Y-31.912 Z-1.000 F600.000
G3 X-13.412 Y-32.210 Z-1.000 I-0.031 J-1.453 K0.000 F600.000
G1 X-13.412 Y-31.384 Z-1.000 F600.000
G1 X-4.087 Y-22.059 Z-1.000 F600.000
G1 X-4.087 Y-17.568 Z-1.000 F600.000
G1 X-13.412 Y-26.893 Z-1.000 F600.000
G1 X-13.412 Y-22.403 Z-1.000 F600.000
G1 X-7.097 Y-16.087 Z-1.000 F600.000
G1 X-11.587 Y-16.087 Z-1.000 F600.000
G1 X-12.500 Y-16.087 Z-1.000 F600.000
G2 X-13.412 Y-15.790 Z-1.000 I-0.007 J1.526 K0.000 F600.000
G1 X-13.412 Y-17.913 Z-1.000 F600.000
G1 X-11.587 Y-16.087 Z-1.000 F600.000
G0 Z6.000
G0 X-13.412 Y20.790 Z6.000
G0 X-13.412 Y20.790 Z4.000
G1 X-13.412 Y20.790 Z-1.000 F300.000
G1 X-13.412 Y26.210 Z-1.000 F600.000
G3 X-12.500 Y25.912 Z-1.000 I0.882 J1.155 K0.000 F600.000
G1 X-4.087 Y25.913 Z-1.000 F600.000
G1 X-4.087 Y21.087 Z-1.000 F600.000
G1 X-12.500 Y21.087 Z-1.000 F600.000
G3 X-13.412 Y20.790 Z-1.000 I-0.007 J-1.526 K0.000 F600.000
G0 Z6.000
G0 Y22.498 Z6.000
G0 Y22.498 Z4.000
G1 X-13.412 Y22.498 Z-1.000 F300.000
G1 X-13.412 Y26.210 Z-1.000 F600.000
G3 X-12.500 Y25.912 Z-1.000 I0.882 J1.155 K0.000 F600.000
G1 X-9.998 Y25.912 Z-1.000 F600.000
G1 X-13.412 Y22.498 Z-1.000 F600.000
G1 X-13.412 Y20.790 Z-1.000 F600.000
G2 X-12.500 Y21.087 Z-1.000 I0.882 J-1.155 K0.000 F600.000
G1 X-10.333 Y21.087 Z-1.000 F600.000
G1 X-5.508 Y25.912 Z-1.000 F600.000
G1 X-4.087 Y25.912 Z-1.000 F600.000
G1 X-4.087 Y22.843 Z-1.000 F600.000
G1 X-5.843 Y21.087 Z-1.000 F600.000
G1 X-4.087 Y21.087 Z-1.000 F600.000
G1 X-4.087 Y22.843 Z-1.000 F600.000
G0 Z6.000
G0 X-5.293 Y44.087 Z6.000
G0 X-5.293 Y44.087 Z4.000
G1 X-5.293 Y44.087 Z-1.000 F300.000
G1 X-4.087 Y44.087 Z-1.000 F600.000
G1 X-4.087 Y45.293 Z-1.000 F600.000
G1 X-5.293 Y44.087 Z-1.000 F600.000
G1 X-9.783 Y44.087 Z-1.000 F600.000
G1 X-4.087 Y49.783 Z-1.000 F600.000
G1 X-4.087 Y51.500 Z-1.000 F600.000
G2 X-2.500 Y53.087 Z-1.000 I1.588 J-0.000 K0.000 F600.000
G1 X-1.088 Y53.087 Z-1.000 F600.000
G1 X-1.088 Y57.274 Z-1.000 F600.000
G1 X-13.412 Y44.949 Z-1.000 F600.000
G1 X-13.412 Y49.439 Z-1.000 F600.000
G1 X-1.088 Y61.764 Z-1.000 F600.000
G1 X-1.088 Y66.254 Z-1.000 F600.000
G1 X-13.412 Y53.929 Z-1.000 F600.000
G1 X-13.412 Y53.929 Z-2.000 F300.000
G1 X-1.088 Y66.254 Z-2.000 F600.000
G1 X-1.088 Y61.764 Z-2.000 F600.000
G1 X-13.412 Y49.439 Z-2.000 F600.000
G1 X-13.412 Y44.949 Z-2.000 F600.000
G1 X-1.088 Y57.274 Z-2.000 F600.000
G1 X-1.088 Y53.087 Z-2.000 F600.000
G1 X-2.500 Y53.087 Z-2.000 F600.000
G3 X-4.087 Y51.500 Z-2.000 I0.000 J-1.588 K0.000 F600.000
G1 X-4.087 Y49.783 Z-2.000 F600.000
G1 X-9.783 Y44.087 Z-2.000 F600.000
G1 X-5.293 Y44.087 Z-2.000 F600.000
G1 X-4.087 Y45.293 Z-2.000 F600.000
G1 X-4.087 Y44.087 Z-2.000 F600.000
G1 X-5.293 Y44.087 Z-2.000 F600.000
G1 X-5.293 Y44.087 Z-2.000 F300.000
G1 X-12.500 Y44.087 Z-2.000 F600.000
G3 X-13.412 Y43.790 Z-2.000 I-0.007 J-1.526 K0.000 F600.000
G1 X-13.412 Y74.953 Z-2.000 F600.000
G2 X-10.031 Y78.412 Z-2.000 I3.419 J0.041 K0.000 F600.000
G1 X9.952 Y78.412 Z-2.000 F600.000
G2 X13.412 Y74.952 Z-2.000 I0.040 J-3.420 K0.000 F600.000
G1 X13.412 Y-74.952 Z-2.000 F600.000
G2 X9.952 Y-78.412 Z-2.000 I-3.420 J-0.040 K0.000 F600.000
G1 X-9.952 Y-78.412 Z-2.000 F600.000
G2 X-13.412 Y-74.952 Z-2.000 I-0.040 J3.420 K0.000 F600.000
G1 X-13.412 Y-47.790 Z-2.000 F600.000
G3 X-12.500 Y-48.087 Z-2.000 I0.882 J1.155 K0.000 F600.000
G1 X-1.088 Y-48.087 Z-2.000 F600.000
G1 X-1.088 Y-67.500 Z-2.000 F600.000
G3 X0.500 Y-69.088 Z-2.000 I1.588 J0.000 K0.000 F600.000
G1 X8.500 Y-69.088 Z-2.000 F600.000
G3 X10.087 Y-67.500 Z-2.000 I-0.000 J1.588 K0.000 F600.000
G1 X10.087 Y67.500 Z-2.000 F600.000
G3 X8.500 Y69.088 Z-2.000 I-1.588 J-0.000 K0.000 F600.000
G1 X0.500 Y69.088 Z-2.000 F600.000
G3 X-1.088 Y67.500 Z-2.000 I0.000 J-1.588 K0.000 F600.000
G1 X-1.088 Y53.087 Z-2.000 F600.000
G1 X-2.500 Y53.087 Z-2.000 F600.000
G3 X-4.087 Y51.500 Z-2.000 I0.000 J-1.588 K0.000 F600.000
G1 X-4.087 Y44.087 Z-2.000 F600.000
G1 X-5.293 Y44.087 Z-2.000 F600.000
G0 Z6.000
G0 X-5.293 Y25.912 Z6.000
G0 X-5.293 Y25.912 Z4.000
G1 X-5.293 Y25.912 Z-2.000 F300.000
G1 X-4.087 Y25.913 Z-2.000 F600.000
G1 X-4.087 Y21.087 Z-2.000 F600.000
G1 X-12.500 Y21.087 Z-2.000 F600.000
G3 X-13.412 Y20.790 Z-2.000 I-0.007 J-1.526 K0.000 F600.000
G1 X-13.412 Y26.210 Z-2.000 F600.000
G3 X-12.500 Y25.912 Z-2.000 I0.882 J1.155 K0.000 F600.000
G1 X-5.293 Y25.912 Z-2.000 F600.000
G0 Z6.000
G0 X-4.087 Y22.843 Z6.000
G0 X-4.087 Y22.843 Z4.000
G1 X-4.087 Y22.843 Z-2.000 F300.000
G1 X-4.087 Y21.087 Z-2.000 F600.000
G1 X-5.843 Y21.087 Z-2.000 F600.000
G1 X-4.087 Y22.843 Z-2.000 F600.000
G1 X-4.087 Y25.912 Z-2.000 F600.000
G1 X-5.508 Y25.912 Z-2.000 F600.000
G1 X-10.333 Y21.087 Z-2.000 F600.000
G1 X-12.500 Y21.087 Z-2.000 F600.000
G3 X-13.412 Y20.790 Z-2.000 I-0.031 J-1.453 K0.000 F600.000
G1 X-13.412 Y22.498 Z-2.000 F600.000
G1 X-9.998 Y25.912 Z-2.000 F600.000
G1 X-12.500 Y25.912 Z-2.000 F600.000
G2 X-13.412 Y26.210 Z-2.000 I-0.031 J1.453 K0.000 F600.000
G1 X-13.412 Y22.498 Z-2.000 F600.000
G0 Z6.000
G0 Y-15.790 Z6.000
G0 Y-15.790 Z4.000
G1 X-13.412 Y-15.790 Z-2.000 F300.000
G3 X-12.500 Y-16.087 Z-2.000 I0.882 J1.155 K0.000 F600.000
G1 X-4.087 Y-16.087 Z-2.000 F600.000
G1 X-4.087 Y-31.913 Z-2.000 F600.000
G1 X-12.500 Y-31.913 Z-2.000 F600.000
G3 X-13.412 Y-32.210 Z-2.000 I-0.007 J-1.526 K0.000 F600.000
G1 X-13.412 Y-15.790 Z-2.000 F600.000
G0 Z6.000
G0 X-11.587 Y-16.087 Z6.000
G0 X-11.587 Y-16.087 Z4.000
G1 X-11.587 Y-16.087 Z-2.000 F300.000
G1 X-13.412 Y-17.913 Z-2.000 F600.000
G1 X-13.412 Y-15.790 Z-2.000 F600.000
G3 X-12.500 Y-16.087 Z-2.000 I0.906 J1.228 K0.000 F600.000
G1 X-11.587 Y-16.087 Z-2.000 F600.000
G1 X-7.097 Y-16.087 Z-2.000 F600.000
G1 X-13.412 Y-22.403 Z-2.000 F600.000
G1 X-13.412 Y-26.893 Z-2.000 F600.000
G1 X-4.087 Y-17.568 Z-2.000 F600.000
G1 X-4.087 Y-22.059 Z-2.000 F600.000
G1 X-13.412 Y-31.384 Z-2.000 F600.000
G1 X-13.412 Y-32.210 Z-2.000 F600.000
G2 X-12.500 Y-31.912 Z-2.000 I0.882 J-1.155 K0.000 F600.000
G1 X-9.451 Y-31.912 Z-2.000 F600.000
G1 X-4.087 Y-26.549 Z-2.000 F600.000
G1 X-4.087 Y-31.039 Z-2.000 F600.000
G1 X-4.961 Y-31.912 Z-2.000 F600.000
G1 X-4.087 Y-31.912 Z-2.000 F600.000
G1 X-4.087 Y-31.039 Z-2.000 F600.000
G0 Z6.000
G0 X-13.412 Y-49.344 Z6.000
G0 X-13.412 Y-49.344 Z4.000
G1 X-13.412 Y-49.344 Z-2.000 F300.000
G1 X-12.156 Y-48.087 Z-2.000 F600.000
G2 X-13.412 Y-47.790 Z-2.000 I-0.250 J1.744 K0.000 F600.000
G1 X-13.412 Y-49.344 Z-2.000 F600.000
G1 X-13.412 Y-53.834 Z-2.000 F600.000
G1 X-7.666 Y-48.087 Z-2.000 F600.000
G1 X-3.176 Y-48.087 Z-2.000 F600.000
G1 X-13.412 Y-58.324 Z-2.000 F600.000
G1 X-13.412 Y-62.814 Z-2.000 F600.000
G1 X-1.088 Y-50.489 Z-2.000 F600.000
G1 X-1.088 Y-54.980 Z-2.000 F600.000
G1 X-13.412 Y-67.305 Z-2.000 F600.000
G1 X-13.412 Y-71.795 Z-2.000 F600.000
G1 X-1.088 Y-59.470 Z-2.000 F600.000
G1 X-1.088 Y-63.960 Z-2.000 F600.000
G1 X-8.965 Y-71.837 Z-2.000 F600.000
G3 X-13.198 Y-75.952 Z-2.000 I-1.040 J-3.165 K0.000 F600.000
G2 X-13.223 Y-76.096 Z-2.000 I-0.065 J-0.063 K0.000 F600.000
G3 X-10.917 Y-78.279 Z-2.000 I3.193 J1.064 K0.000 F600.000
G1 X-10.858 Y-78.220 Z-2.000 F600.000
G0 Z6.000
G0 X-10.859 Y-78.224 Z6.000
G0 X-10.859 Y-78.224 Z4.000
G1 X-10.859 Y-78.224 Z-2.000 F300.000
G3 X-10.000 Y-78.338 Z-2.000 I0.863 J3.224 K0.000 F600.000
G3 X-10.000 Y-71.662 Z-2.000 I-0.005 J3.338 K0.000 F600.000
G3 X-10.859 Y-78.224 Z-2.000 I0.005 J-3.338 K0.000 F600.000
G0 Z6.000
G0 X-1.088 Y-63.960 Z6.000
G0 X-1.088 Y-63.960 Z4.000
G1 X-1.088 Y-63.960 Z-2.000 F300.000
G1 X-8.965 Y-71.837 Z-2.000 F600.000
G2 X-6.780 Y-74.142 Z-2.000 I-0.989 J-3.125 K0.000 F600.000
G1 X-0.890 Y-68.253 Z-2.000 F600.000
G3 X0.500 Y-69.087 Z-2.000 I1.380 J0.722 K0.000 F600.000
G1 X2.765 Y-69.087 Z-2.000 F600.000
G1 X-6.560 Y-78.412 Z-2.000 F600.000
G1 X-2.070 Y-78.412 Z-2.000 F600.000
G1 X7.255 Y-69.087 Z-2.000 F600.000
G0 Z6.000
G0 X8.597 Y-71.974 Z6.000
G0 X8.597 Y-71.974 Z4.000
G1 X8.597 Y-71.974 Z-2.000 F300.000
G3 X10.000 Y-78.338 Z-2.000 I1.407 J-3.026 K0.000 F600.000
G3 X10.000 Y-71.662 Z-2.000 I-0.005 J3.338 K0.000 F600.000
G3 X8.597 Y-71.974 Z-2.000 I0.005 J-3.338 K0.000 F600.000
G0 Z6.000
G0 X7.814 Y-77.509 Z6.000
G0 X7.814 Y-77.509 Z4.000
G1 X7.814 Y-77.509 Z-2.000 F300.000
G1 X6.910 Y-78.412 Z-2.000 F600.000
G1 X2.420 Y-78.412 Z-2.000 F600.000
G1 X6.810 Y-74.023 Z-2.000 F600.000
G2 X9.011 Y-71.822 Z-2.000 I3.161 J-0.960 K0.000 F600.000
G1 X13.412 Y-67.420 Z-2.000 F600.000
G1 X13.412 Y-62.930 Z-2.000 F600.000
G1 X10.087 Y-66.255 Z-2.000 F600.000
G1 X10.087 Y-61.765 Z-2.000 F600.000
G1 X13.412 Y-58.440 Z-2.000 F600.000
G1 X13.412 Y-53.950 Z-2.000 F600.000
G1 X10.087 Y-57.275 Z-2.000 F600.000
G1 X10.087 Y-52.785 Z-2.000 F600.000
G1 X13.412 Y-49.460 Z-2.000 F600.000
G1 X13.412 Y-44.970 Z-2.000 F600.000
G1 X10.087 Y-48.295 Z-2.000 F600.000
G1 X10.087 Y-43.805 Z-2.000 F600.000
G1 X13.412 Y-40.480 Z-2.000 F600.000
G1 X13.412 Y-35.989 Z-2.000 F600.000
G1 X10.087 Y-39.314 Z-2.000 F600.000
G1 X10.087 Y-34.824 Z-2.000 F600.000
G1 X13.412 Y-31.499 Z-2.000 F600.000
G1 X13.412 Y-27.009 Z-2.000 F600.000
G1 X10.087 Y-30.334 Z-2.000 F600.000
G1 X10.087 Y-25.844 Z-2.000 F600.000
G1 X13.412 Y-22.519 Z-2.000 F600.000
G1 X13.412 Y-18.029 Z-2.000 F600.000
G1 X10.087 Y-21.354 Z-2.000 F600.000
G1 X10.087 Y-16.864 Z-2.000 F600.000
G1 X13.412 Y-13.539 Z-2.000 F600.000
G1 X13.412 Y-9.049 Z-2.000 F600.000
G1 X10.087 Y-12.374 Z-2.000 F600.000
G1 X10.087 Y-7.884 Z-2.000 F600.000
G1 X13.412 Y-4.559 Z-2.000 F600.000
G1 X13.412 Y-0.068 Z-2.000 F600.000
G1 X10.087 Y-3.393 Z-2.000 F600.000
G1 X10.087 Y1.097 Z-2.000 F600.000
G1 X13.412 Y4.422 Z-2.000 F600.000
G1 X13.412 Y8.912 Z-2.000 F600.000
G1 X10.087 Y5.587 Z-2.000 F600.000
G1 X10.087 Y10.077 Z-2.000 F600.000
G1 X13.412 Y13.402 Z-2.000 F600.000
G1 X13.412 Y17.892 Z-2.000 F600.000
G1 X10.087 Y14.567 Z-2.000 F600.000
G1 X10.087 Y19.057 Z-2.000 F600.000
G1 X13.412 Y22.382 Z-2.000 F600.000
G1 X13.412 Y26.872 Z-2.000 F600.000
G1 X10.087 Y23.547 Z-2.000 F600.000
G1 X10.087 Y28.037 Z-2.000 F600.000
G1 X13.412 Y31.362 Z-2.000 F600.000
G1 X13.412 Y35.853 Z-2.000 F600.000
G1 X10.087 Y32.528 Z-2.000 F600.000
G1 X10.087 Y37.018 Z-2.000 F600.000
G1 X13.412 Y40.343 Z-2.000 F600.000
G1 X13.412 Y44.833 Z-2.000 F600.000
G1 X10.087 Y41.508 Z-2.000 F600.000
G1 X10.087 Y45.998 Z-2.000 F600.000
G1 X13.412 Y49.323 Z-2.000 F600.000
G1 X13.412 Y53.813 Z-2.000 F600.000
G1 X10.087 Y50.488 Z-2.000 F600.000
G1 X10.087 Y54.978 Z-2.000 F600.000
G1 X13.412 Y58.303 Z-2.000 F600.000
G1 X13.412 Y62.793 Z-2.000 F600.000
G1 X10.087 Y59.468 Z-2.000 F600.000
G1 X10.087 Y63.958 Z-2.000 F600.000
G1 X13.412 Y67.283 Z-2.000 F600.000
G1 X13.412 Y71.774 Z-2.000 F600.000
G1 X9.891 Y68.252 Z-2.000 F600.000
G3 X8.500 Y69.087 Z-2.000 I-1.386 J-0.732 K0.000 F600.000
G1 X6.236 Y69.087 Z-2.000 F600.000
G1 X8.981 Y71.832 Z-2.000 F600.000
G2 X6.784 Y74.125 Z-2.000 I0.975 J3.133 K0.000 F600.000
G1 X1.746 Y69.087 Z-2.000 F600.000
G0 Z6.000
G0 X7.291 Y73.057 Z6.000
G0 X7.291 Y73.057 Z4.000
G1 X7.291 Y73.057 Z-2.000 F300.000
G3 X10.000 Y71.662 Z-2.000 I2.714 J1.943 K0.000 F600.000
G3 X10.000 Y78.338 Z-2.000 I-0.005 J3.338 K0.000 F600.000
G3 X7.291 Y73.057 Z-2.000 I0.005 J-3.338 K0.000 F600.000
G0 Z6.000
G0 X13.176 Y76.027 Z6.000
G0 X13.176 Y76.027 Z4.000
G1 X13.176 Y76.027 Z-2.000 F300.000
G1 X13.228 Y76.080 Z-2.000 F600.000
G3 X10.933 Y78.274 Z-2.000 I-3.197 J-1.046 K0.000 F600.000
G2 X10.775 Y78.245 Z-2.000 I-0.091 J0.051 K0.000 F600.000
G3 X6.784 Y74.125 Z-2.000 I-0.776 J-3.241 K0.000 F600.000
G1 X1.746 Y69.087 Z-2.000 F600.000
G1 X0.500 Y69.087 Z-2.000 F600.000
G3 X-1.088 Y67.500 Z-2.000 I0.000 J-1.588 K0.000 F600.000
G1 X-1.088 Y66.254 Z-2.000 F600.000
G1 X-13.412 Y53.929 Z-2.000 F600.000
G1 X-13.412 Y58.419 Z-2.000 F600.000
G1 X6.581 Y78.412 Z-2.000 F600.000
G1 X2.091 Y78.412 Z-2.000 F600.000
G1 X-13.412 Y62.909 Z-2.000 F600.000
G1 X-13.412 Y67.399 Z-2.000 F600.000
G1 X-8.979 Y71.832 Z-2.000 F600.000
G2 X-12.506 Y72.796 Z-2.000 I-1.030 J3.166 K0.000 F600.000
G1 X-13.412 Y71.889 Z-2.000 F600.000
G0 Z6.000
G0 X-12.463 Y72.753 Z6.000
G0 X-12.463 Y72.753 Z4.000
G1 X-12.463 Y72.753 Z-2.000 F300.000
G3 X-10.000 Y71.662 Z-2.000 I2.468 J2.247 K0.000 F600.000
G3 X-10.000 Y78.338 Z-2.000 I-0.005 J3.338 K0.000 F600.000
G3 X-12.463 Y72.753 Z-2.000 I0.005 J-3.338 K0.000 F600.000
G0 Z6.000
G0 X-12.637 Y77.155 Z6.000
G0 X-12.637 Y77.155 Z4.000
G1 X-12.637 Y77.155 Z-2.000 F300.000
G2 X-12.162 Y77.630 Z-2.000 I1.775 J-1.301 K0.000 F600.000
G3 X-13.412 Y74.953 Z-2.000 I2.142 J-2.631 K0.000 F600.000
G1 X-13.412 Y71.889 Z-2.000 F600.000
G1 X-12.506 Y72.796 Z-2.000 F600.000
G2 X-7.802 Y77.499 Z-2.000 I2.500 J2.203 K0.000 F600.000
G1 X-6.889 Y78.412 Z-2.000 F600.000
G1 X-2.399 Y78.412 Z-2.000 F600.000
G1 X-6.819 Y73.993 Z-2.000 F600.000
G0 Z6.000
G0 X13.412 Y-67.420 Z6.000
G0 X13.412 Y-67.420 Z4.000
G1 X13.412 Y-67.420 Z-2.000 F300.000
G1 X9.011 Y-71.822 Z-2.000 F600.000
G2 X12.515 Y-72.808 Z-2.000 I1.004 J-3.154 K0.000 F600.000
G1 X13.412 Y-71.910 Z-2.000 F600.000
G1 X13.412 Y-74.952 Z-2.000 F600.000
G2 X12.261 Y-77.552 Z-2.000 I-3.430 J-0.036 K0.000 F600.000
G0 Z6.000
G0 Z6.000
(Finish operation: Pocket_Shape002)
(Begin postamble)
M5
G17 G90
M2
