(Exported by FreeCAD)
(Post Processor: grbl_post)
(Output Time:2022-04-24 15:57:18.874200)
(Begin preamble)
G17 G90
G21
(Begin operation: Fixture)
(Path: Fixture)
G54
(Finish operation: Fixture)
(Begin operation: TC: endmill_3mm)
(Path: TC: endmill_3mm)
(TC: endmill_3mm)
(Begin toolchange)
( M6 T1.0 )
M3 S10000.0
(Finish operation: TC: endmill_3mm)
(Begin operation: Profile)
(Path: Profile)
(Profile)
(Compensated Tool Path. Diameter: 3.0)
G0 Z12.000
G0 X48.939 Y48.939
G0 Z10.000
G1 X48.939 Y48.939 Z6.000 F780.000
G1 X58.500 Y39.379 Z6.000 F780.000
G1 X58.500 Y-39.379 Z6.000 F780.000
G1 X39.379 Y-58.500 Z6.000 F780.000
G1 X-39.379 Y-58.500 Z6.000 F780.000
G1 X-58.500 Y-39.379 Z6.000 F780.000
G1 X-58.500 Y39.379 Z6.000 F780.000
G1 X-39.379 Y58.500 Z6.000 F780.000
G1 X39.379 Y58.500 Z6.000 F780.000
G1 X48.939 Y48.939 Z6.000 F780.000
G1 X48.939 Y48.939 Z5.000 F780.000
G1 X58.500 Y39.379 Z5.000 F780.000
G1 X58.500 Y-39.379 Z5.000 F780.000
G1 X39.379 Y-58.500 Z5.000 F780.000
G1 X-39.379 Y-58.500 Z5.000 F780.000
G1 X-58.500 Y-39.379 Z5.000 F780.000
G1 X-58.500 Y39.379 Z5.000 F780.000
G1 X-39.379 Y58.500 Z5.000 F780.000
G1 X39.379 Y58.500 Z5.000 F780.000
G1 X48.939 Y48.939 Z5.000 F780.000
G1 X48.939 Y48.939 Z4.000 F780.000
G1 X58.500 Y39.379 Z4.000 F780.000
G1 X58.500 Y-39.379 Z4.000 F780.000
G1 X39.379 Y-58.500 Z4.000 F780.000
G1 X-39.379 Y-58.500 Z4.000 F780.000
G1 X-58.500 Y-39.379 Z4.000 F780.000
G1 X-58.500 Y39.379 Z4.000 F780.000
G1 X-39.379 Y58.500 Z4.000 F780.000
G1 X39.379 Y58.500 Z4.000 F780.000
G1 X48.939 Y48.939 Z4.000 F780.000
G1 X48.939 Y48.939 Z3.000 F780.000
G1 X58.500 Y39.379 Z3.000 F780.000
G1 X58.500 Y-39.379 Z3.000 F780.000
G1 X39.379 Y-58.500 Z3.000 F780.000
G1 X-39.379 Y-58.500 Z3.000 F780.000
G1 X-58.500 Y-39.379 Z3.000 F780.000
G1 X-58.500 Y39.379 Z3.000 F780.000
G1 X-39.379 Y58.500 Z3.000 F780.000
G1 X39.379 Y58.500 Z3.000 F780.000
G1 X48.939 Y48.939 Z3.000 F780.000
G1 X48.939 Y48.939 Z2.000 F780.000
G1 X58.500 Y39.379 Z2.000 F780.000
G1 X58.500 Y-39.379 Z2.000 F780.000
G1 X39.379 Y-58.500 Z2.000 F780.000
G1 X-39.379 Y-58.500 Z2.000 F780.000
G1 X-58.500 Y-39.379 Z2.000 F780.000
G1 X-58.500 Y39.379 Z2.000 F780.000
G1 X-39.379 Y58.500 Z2.000 F780.000
G1 X39.379 Y58.500 Z2.000 F780.000
G1 X48.939 Y48.939 Z2.000 F780.000
G1 X48.939 Y48.939 Z1.000 F780.000
G1 X58.500 Y39.379 Z1.000 F780.000
G1 X58.500 Y-39.379 Z1.000 F780.000
G1 X39.379 Y-58.500 Z1.000 F780.000
G1 X-39.379 Y-58.500 Z1.000 F780.000
G1 X-58.500 Y-39.379 Z1.000 F780.000
G1 X-58.500 Y39.379 Z1.000 F780.000
G1 X-39.379 Y58.500 Z1.000 F780.000
G1 X39.379 Y58.500 Z1.000 F780.000
G1 X48.939 Y48.939 Z1.000 F780.000
G1 X48.939 Y48.939 Z0.000 F780.000
G1 X58.500 Y39.379 Z0.000 F780.000
G1 X58.500 Y-39.379 Z0.000 F780.000
G1 X39.379 Y-58.500 Z0.000 F780.000
G1 X-39.379 Y-58.500 Z0.000 F780.000
G1 X-58.500 Y-39.379 Z0.000 F780.000
G1 X-58.500 Y39.379 Z0.000 F780.000
G1 X-39.379 Y58.500 Z0.000 F780.000
G1 X39.379 Y58.500 Z0.000 F780.000
G1 X48.939 Y48.939 Z0.000 F780.000
G0 Z12.000
G0 Z12.000
(Finish operation: Profile)
(Begin postamble)
M5
G17 G90
M2
