(Exported by FreeCAD)
(Post Processor: grbl_post)
(Output Time:2022-06-04 11:20:58.066371)
(Begin preamble)
G17 G90
G21
(Begin operation: Fixture)
(Path: Fixture)
G54
(Finish operation: Fixture)
(Begin operation: TC: endmill_FC1DA3007DLC)
(Path: TC: endmill_FC1DA3007DLC)
(TC: endmill_FC1DA3007DLC)
(Begin toolchange)
( M6 T2.0 )
M3 S5000.0
(Finish operation: TC: endmill_FC1DA3007DLC)
(Begin operation: RampEntryDressup002)
(Path: RampEntryDressup002)
G0 X0.000 Y0.000 Z5.000
G0 X10.109 Y-74.891 Z5.000
G0 X10.109 Y-74.891 Z0.200
G1 X10.153 Y-74.981 Z0.171 F30.000
G1 X10.134 Y-75.077 Z0.135 F30.000
G1 X10.059 Y-75.143 Z0.106 F30.000
G1 X9.979 Y-75.153 Z0.082 F30.000
G1 X9.906 Y-75.123 Z0.055 F30.000
G1 X9.857 Y-75.059 Z0.031 F30.000
G1 X9.847 Y-74.979 Z0.007 F30.000
G1 X9.877 Y-74.906 Z-0.020 F30.000
G1 X9.941 Y-74.857 Z-0.044 F30.000
G1 X10.030 Y-74.848 Z-0.072 F30.000
G1 X10.109 Y-74.891 Z-0.100 F30.000
G1 X10.153 Y-74.980 Z-0.110 F30.000
G1 X10.134 Y-75.077 Z-0.122 F30.000
G1 X10.059 Y-75.143 Z-0.131 F30.000
G1 X9.980 Y-75.153 Z-0.139 F30.000
G1 X9.906 Y-75.123 Z-0.148 F30.000
G1 X9.857 Y-75.059 Z-0.156 F30.000
G1 X9.847 Y-74.980 Z-0.164 F30.000
G1 X9.877 Y-74.906 Z-0.173 F30.000
G1 X9.941 Y-74.857 Z-0.181 F30.000
G1 X10.030 Y-74.848 Z-0.191 F30.000
G1 X10.109 Y-74.891 Z-0.200 F30.000
G1 X10.153 Y-74.980 Z-0.210 F30.000
G1 X10.134 Y-75.077 Z-0.222 F30.000
G1 X10.059 Y-75.143 Z-0.231 F30.000
G1 X9.980 Y-75.153 Z-0.239 F30.000
G1 X9.906 Y-75.123 Z-0.248 F30.000
G1 X9.857 Y-75.059 Z-0.256 F30.000
G1 X9.847 Y-74.980 Z-0.264 F30.000
G1 X9.877 Y-74.906 Z-0.273 F30.000
G1 X9.941 Y-74.857 Z-0.281 F30.000
G1 X10.030 Y-74.848 Z-0.291 F30.000
G1 X10.109 Y-74.891 Z-0.300 F30.000
G1 X10.153 Y-74.980 Z-0.310 F30.000
G1 X10.134 Y-75.077 Z-0.322 F30.000
G1 X10.059 Y-75.143 Z-0.331 F30.000
G1 X9.980 Y-75.153 Z-0.339 F30.000
G1 X9.906 Y-75.123 Z-0.348 F30.000
G1 X9.857 Y-75.059 Z-0.356 F30.000
G1 X9.847 Y-74.980 Z-0.364 F30.000
G1 X9.877 Y-74.906 Z-0.373 F30.000
G1 X9.941 Y-74.857 Z-0.381 F30.000
G1 X10.030 Y-74.848 Z-0.391 F30.000
G1 X10.109 Y-74.891 Z-0.400 F30.000
G1 X10.153 Y-74.980 Z-0.410 F30.000
G1 X10.134 Y-75.077 Z-0.422 F30.000
G1 X10.059 Y-75.143 Z-0.431 F30.000
G1 X9.980 Y-75.153 Z-0.439 F30.000
G1 X9.906 Y-75.123 Z-0.448 F30.000
G1 X9.857 Y-75.059 Z-0.456 F30.000
G1 X9.847 Y-74.980 Z-0.464 F30.000
G1 X9.877 Y-74.906 Z-0.473 F30.000
G1 X9.941 Y-74.857 Z-0.481 F30.000
G1 X10.030 Y-74.848 Z-0.491 F30.000
G1 X10.109 Y-74.891 Z-0.500 F30.000
G1 X10.153 Y-74.980 Z-0.510 F30.000
G1 X10.134 Y-75.077 Z-0.522 F30.000
G1 X10.059 Y-75.143 Z-0.531 F30.000
G1 X9.980 Y-75.153 Z-0.539 F30.000
G1 X9.906 Y-75.123 Z-0.548 F30.000
G1 X9.857 Y-75.059 Z-0.556 F30.000
G1 X9.847 Y-74.980 Z-0.564 F30.000
G1 X9.877 Y-74.906 Z-0.573 F30.000
G1 X9.941 Y-74.857 Z-0.581 F30.000
G1 X10.030 Y-74.848 Z-0.591 F30.000
G1 X10.109 Y-74.891 Z-0.600 F30.000
G1 X10.153 Y-74.980 Z-0.610 F30.000
G1 X10.134 Y-75.077 Z-0.622 F30.000
G1 X10.059 Y-75.143 Z-0.631 F30.000
G1 X9.980 Y-75.153 Z-0.639 F30.000
G1 X9.906 Y-75.123 Z-0.648 F30.000
G1 X9.857 Y-75.059 Z-0.656 F30.000
G1 X9.847 Y-74.980 Z-0.664 F30.000
G1 X9.877 Y-74.906 Z-0.673 F30.000
G1 X9.941 Y-74.857 Z-0.681 F30.000
G1 X10.030 Y-74.848 Z-0.691 F30.000
G1 X10.109 Y-74.891 Z-0.700 F30.000
G1 X10.153 Y-74.980 Z-0.710 F30.000
G1 X10.134 Y-75.077 Z-0.722 F30.000
G1 X10.059 Y-75.143 Z-0.731 F30.000
G1 X9.980 Y-75.153 Z-0.739 F30.000
G1 X9.906 Y-75.123 Z-0.748 F30.000
G1 X9.857 Y-75.059 Z-0.756 F30.000
G1 X9.847 Y-74.980 Z-0.764 F30.000
G1 X9.877 Y-74.906 Z-0.773 F30.000
G1 X9.941 Y-74.857 Z-0.781 F30.000
G1 X10.030 Y-74.848 Z-0.791 F30.000
G1 X10.109 Y-74.891 Z-0.800 F30.000
G1 X10.153 Y-74.980 Z-0.810 F30.000
G1 X10.134 Y-75.077 Z-0.822 F30.000
G1 X10.059 Y-75.143 Z-0.831 F30.000
G1 X9.980 Y-75.153 Z-0.839 F30.000
G1 X9.906 Y-75.123 Z-0.848 F30.000
G1 X9.857 Y-75.059 Z-0.856 F30.000
G1 X9.847 Y-74.980 Z-0.864 F30.000
G1 X9.877 Y-74.906 Z-0.873 F30.000
G1 X9.941 Y-74.857 Z-0.881 F30.000
G1 X10.030 Y-74.848 Z-0.891 F30.000
G1 X10.109 Y-74.891 Z-0.900 F30.000
G1 X10.153 Y-74.980 Z-0.910 F30.000
G1 X10.134 Y-75.077 Z-0.922 F30.000
G1 X10.059 Y-75.143 Z-0.931 F30.000
G1 X9.980 Y-75.153 Z-0.939 F30.000
G1 X9.906 Y-75.123 Z-0.948 F30.000
G1 X9.857 Y-75.059 Z-0.956 F30.000
G1 X9.847 Y-74.980 Z-0.964 F30.000
G1 X9.877 Y-74.906 Z-0.973 F30.000
G1 X9.941 Y-74.857 Z-0.981 F30.000
G1 X10.030 Y-74.848 Z-0.991 F30.000
G1 X10.109 Y-74.891 Z-1.000 F30.000
G1 X10.153 Y-74.980 Z-1.010 F30.000
G1 X10.134 Y-75.077 Z-1.022 F30.000
G1 X10.059 Y-75.143 Z-1.031 F30.000
G1 X9.980 Y-75.153 Z-1.039 F30.000
G1 X9.906 Y-75.123 Z-1.048 F30.000
G1 X9.857 Y-75.059 Z-1.056 F30.000
G1 X9.847 Y-74.980 Z-1.064 F30.000
G1 X9.877 Y-74.906 Z-1.073 F30.000
G1 X9.941 Y-74.857 Z-1.081 F30.000
G1 X10.030 Y-74.848 Z-1.091 F30.000
G1 X10.109 Y-74.891 Z-1.100 F30.000
G1 X10.153 Y-74.980 Z-1.110 F30.000
G1 X10.134 Y-75.077 Z-1.122 F30.000
G1 X10.059 Y-75.143 Z-1.131 F30.000
G1 X9.980 Y-75.153 Z-1.139 F30.000
G1 X9.906 Y-75.123 Z-1.148 F30.000
G1 X9.857 Y-75.059 Z-1.156 F30.000
G1 X9.847 Y-74.980 Z-1.164 F30.000
G1 X9.877 Y-74.906 Z-1.173 F30.000
G1 X9.941 Y-74.857 Z-1.181 F30.000
G1 X10.030 Y-74.848 Z-1.191 F30.000
G1 X10.109 Y-74.891 Z-1.200 F30.000
G1 X10.153 Y-74.980 Z-1.210 F30.000
G1 X10.134 Y-75.077 Z-1.222 F30.000
G1 X10.059 Y-75.143 Z-1.231 F30.000
G1 X9.980 Y-75.153 Z-1.239 F30.000
G1 X9.906 Y-75.123 Z-1.248 F30.000
G1 X9.857 Y-75.059 Z-1.256 F30.000
G1 X9.847 Y-74.980 Z-1.264 F30.000
G1 X9.877 Y-74.906 Z-1.273 F30.000
G1 X9.941 Y-74.857 Z-1.281 F30.000
G1 X10.030 Y-74.848 Z-1.291 F30.000
G1 X10.109 Y-74.891 Z-1.300 F30.000
G1 X10.153 Y-74.980 Z-1.310 F30.000
G1 X10.134 Y-75.077 Z-1.322 F30.000
G1 X10.059 Y-75.143 Z-1.331 F30.000
G1 X9.980 Y-75.153 Z-1.339 F30.000
G1 X9.906 Y-75.123 Z-1.348 F30.000
G1 X9.857 Y-75.059 Z-1.356 F30.000
G1 X9.847 Y-74.980 Z-1.364 F30.000
G1 X9.877 Y-74.906 Z-1.373 F30.000
G1 X9.941 Y-74.857 Z-1.381 F30.000
G1 X10.030 Y-74.848 Z-1.391 F30.000
G1 X10.109 Y-74.891 Z-1.400 F30.000
G1 X10.153 Y-74.980 Z-1.410 F30.000
G1 X10.134 Y-75.077 Z-1.422 F30.000
G1 X10.059 Y-75.143 Z-1.431 F30.000
G1 X9.980 Y-75.153 Z-1.439 F30.000
G1 X9.906 Y-75.123 Z-1.448 F30.000
G1 X9.857 Y-75.059 Z-1.456 F30.000
G1 X9.847 Y-74.980 Z-1.464 F30.000
G1 X9.877 Y-74.906 Z-1.473 F30.000
G1 X9.941 Y-74.857 Z-1.481 F30.000
G1 X10.030 Y-74.848 Z-1.491 F30.000
G1 X10.109 Y-74.891 Z-1.500 F30.000
G1 X10.153 Y-74.980 Z-1.510 F30.000
G1 X10.134 Y-75.077 Z-1.522 F30.000
G1 X10.059 Y-75.143 Z-1.531 F30.000
G1 X9.980 Y-75.153 Z-1.539 F30.000
G1 X9.906 Y-75.123 Z-1.548 F30.000
G1 X9.857 Y-75.059 Z-1.556 F30.000
G1 X9.847 Y-74.980 Z-1.564 F30.000
G1 X9.877 Y-74.906 Z-1.573 F30.000
G1 X9.941 Y-74.857 Z-1.581 F30.000
G1 X10.030 Y-74.848 Z-1.591 F30.000
G1 X10.109 Y-74.891 Z-1.600 F30.000
G1 X10.153 Y-74.980 Z-1.610 F30.000
G1 X10.134 Y-75.077 Z-1.622 F30.000
G1 X10.059 Y-75.143 Z-1.631 F30.000
G1 X9.980 Y-75.153 Z-1.639 F30.000
G1 X9.906 Y-75.123 Z-1.648 F30.000
G1 X9.857 Y-75.059 Z-1.656 F30.000
G1 X9.847 Y-74.980 Z-1.664 F30.000
G1 X9.877 Y-74.906 Z-1.673 F30.000
G1 X9.941 Y-74.857 Z-1.681 F30.000
G1 X10.030 Y-74.848 Z-1.691 F30.000
G1 X10.109 Y-74.891 Z-1.700 F30.000
G1 X10.153 Y-74.980 Z-1.710 F30.000
G1 X10.134 Y-75.077 Z-1.722 F30.000
G1 X10.059 Y-75.143 Z-1.731 F30.000
G1 X9.980 Y-75.153 Z-1.739 F30.000
G1 X9.906 Y-75.123 Z-1.748 F30.000
G1 X9.857 Y-75.059 Z-1.756 F30.000
G1 X9.847 Y-74.980 Z-1.764 F30.000
G1 X9.877 Y-74.906 Z-1.773 F30.000
G1 X9.941 Y-74.857 Z-1.781 F30.000
G1 X10.030 Y-74.848 Z-1.791 F30.000
G1 X10.109 Y-74.891 Z-1.800 F30.000
G1 X10.153 Y-74.980 Z-1.810 F30.000
G1 X10.134 Y-75.077 Z-1.822 F30.000
G1 X10.059 Y-75.143 Z-1.831 F30.000
G1 X9.980 Y-75.153 Z-1.839 F30.000
G1 X9.906 Y-75.123 Z-1.848 F30.000
G1 X9.857 Y-75.059 Z-1.856 F30.000
G1 X9.847 Y-74.980 Z-1.864 F30.000
G1 X9.877 Y-74.906 Z-1.873 F30.000
G1 X9.941 Y-74.857 Z-1.881 F30.000
G1 X10.030 Y-74.848 Z-1.891 F30.000
G1 X10.109 Y-74.891 Z-1.900 F30.000
G1 X10.153 Y-74.980 Z-1.910 F30.000
G1 X10.134 Y-75.077 Z-1.922 F30.000
G1 X10.059 Y-75.143 Z-1.931 F30.000
G1 X9.980 Y-75.153 Z-1.939 F30.000
G1 X9.906 Y-75.123 Z-1.948 F30.000
G1 X9.857 Y-75.059 Z-1.956 F30.000
G1 X9.847 Y-74.980 Z-1.964 F30.000
G1 X9.877 Y-74.906 Z-1.973 F30.000
G1 X9.941 Y-74.857 Z-1.981 F30.000
G1 X10.030 Y-74.848 Z-1.991 F30.000
G1 X10.109 Y-74.891 Z-2.000 F30.000
G1 X10.153 Y-74.980 Z-2.010 F30.000
G1 X10.134 Y-75.077 Z-2.022 F30.000
G1 X10.059 Y-75.143 Z-2.031 F30.000
G1 X9.980 Y-75.153 Z-2.039 F30.000
G1 X9.906 Y-75.123 Z-2.048 F30.000
G1 X9.857 Y-75.059 Z-2.056 F30.000
G1 X9.847 Y-74.980 Z-2.064 F30.000
G1 X9.877 Y-74.906 Z-2.073 F30.000
G1 X9.941 Y-74.857 Z-2.081 F30.000
G1 X10.030 Y-74.848 Z-2.091 F30.000
G1 X10.109 Y-74.891 Z-2.100 F30.000
G2 X10.059 Y-75.143 Z-2.100 I-0.109 J-0.109 K0.000 F60.000
G2 X9.857 Y-75.059 Z-2.100 I-0.059 J0.143 K0.000 F60.000
G2 X9.941 Y-74.857 Z-2.100 I0.143 J0.059 K0.000 F60.000
G2 X10.109 Y-74.891 Z-2.100 I0.059 J-0.143 K0.000 F60.000
G0 X10.109 Y-74.891 Z5.000
(Finish operation: RampEntryDressup002)
(Begin operation: RampEntryDressup003)
(Path: RampEntryDressup003)
G0 X0.000 Y0.000 Z5.000
G0 X-9.891 Y-74.891 Z5.000
G0 X-9.891 Y-74.891 Z0.200
G1 X-9.847 Y-74.981 Z0.171 F30.000
G1 X-9.866 Y-75.077 Z0.135 F30.000
G1 X-9.941 Y-75.143 Z0.106 F30.000
G1 X-10.021 Y-75.153 Z0.082 F30.000
G1 X-10.094 Y-75.123 Z0.055 F30.000
G1 X-10.143 Y-75.059 Z0.031 F30.000
G1 X-10.153 Y-74.979 Z0.007 F30.000
G1 X-10.123 Y-74.906 Z-0.020 F30.000
G1 X-10.059 Y-74.857 Z-0.044 F30.000
G1 X-9.970 Y-74.848 Z-0.072 F30.000
G1 X-9.891 Y-74.891 Z-0.100 F30.000
G1 X-9.847 Y-74.980 Z-0.110 F30.000
G1 X-9.866 Y-75.077 Z-0.122 F30.000
G1 X-9.941 Y-75.143 Z-0.131 F30.000
G1 X-10.020 Y-75.153 Z-0.139 F30.000
G1 X-10.094 Y-75.123 Z-0.148 F30.000
G1 X-10.143 Y-75.059 Z-0.156 F30.000
G1 X-10.153 Y-74.980 Z-0.164 F30.000
G1 X-10.123 Y-74.906 Z-0.173 F30.000
G1 X-10.059 Y-74.857 Z-0.181 F30.000
G1 X-9.970 Y-74.848 Z-0.191 F30.000
G1 X-9.891 Y-74.891 Z-0.200 F30.000
G1 X-9.847 Y-74.980 Z-0.210 F30.000
G1 X-9.866 Y-75.077 Z-0.222 F30.000
G1 X-9.941 Y-75.143 Z-0.231 F30.000
G1 X-10.020 Y-75.153 Z-0.239 F30.000
G1 X-10.094 Y-75.123 Z-0.248 F30.000
G1 X-10.143 Y-75.059 Z-0.256 F30.000
G1 X-10.153 Y-74.980 Z-0.264 F30.000
G1 X-10.123 Y-74.906 Z-0.273 F30.000
G1 X-10.059 Y-74.857 Z-0.281 F30.000
G1 X-9.970 Y-74.848 Z-0.291 F30.000
G1 X-9.891 Y-74.891 Z-0.300 F30.000
G1 X-9.847 Y-74.980 Z-0.310 F30.000
G1 X-9.866 Y-75.077 Z-0.322 F30.000
G1 X-9.941 Y-75.143 Z-0.331 F30.000
G1 X-10.020 Y-75.153 Z-0.339 F30.000
G1 X-10.094 Y-75.123 Z-0.348 F30.000
G1 X-10.143 Y-75.059 Z-0.356 F30.000
G1 X-10.153 Y-74.980 Z-0.364 F30.000
G1 X-10.123 Y-74.906 Z-0.373 F30.000
G1 X-10.059 Y-74.857 Z-0.381 F30.000
G1 X-9.970 Y-74.848 Z-0.391 F30.000
G1 X-9.891 Y-74.891 Z-0.400 F30.000
G1 X-9.847 Y-74.980 Z-0.410 F30.000
G1 X-9.866 Y-75.077 Z-0.422 F30.000
G1 X-9.941 Y-75.143 Z-0.431 F30.000
G1 X-10.020 Y-75.153 Z-0.439 F30.000
G1 X-10.094 Y-75.123 Z-0.448 F30.000
G1 X-10.143 Y-75.059 Z-0.456 F30.000
G1 X-10.153 Y-74.980 Z-0.464 F30.000
G1 X-10.123 Y-74.906 Z-0.473 F30.000
G1 X-10.059 Y-74.857 Z-0.481 F30.000
G1 X-9.970 Y-74.848 Z-0.491 F30.000
G1 X-9.891 Y-74.891 Z-0.500 F30.000
G1 X-9.847 Y-74.980 Z-0.510 F30.000
G1 X-9.866 Y-75.077 Z-0.522 F30.000
G1 X-9.941 Y-75.143 Z-0.531 F30.000
G1 X-10.020 Y-75.153 Z-0.539 F30.000
G1 X-10.094 Y-75.123 Z-0.548 F30.000
G1 X-10.143 Y-75.059 Z-0.556 F30.000
G1 X-10.153 Y-74.980 Z-0.564 F30.000
G1 X-10.123 Y-74.906 Z-0.573 F30.000
G1 X-10.059 Y-74.857 Z-0.581 F30.000
G1 X-9.970 Y-74.848 Z-0.591 F30.000
G1 X-9.891 Y-74.891 Z-0.600 F30.000
G1 X-9.847 Y-74.980 Z-0.610 F30.000
G1 X-9.866 Y-75.077 Z-0.622 F30.000
G1 X-9.941 Y-75.143 Z-0.631 F30.000
G1 X-10.020 Y-75.153 Z-0.639 F30.000
G1 X-10.094 Y-75.123 Z-0.648 F30.000
G1 X-10.143 Y-75.059 Z-0.656 F30.000
G1 X-10.153 Y-74.980 Z-0.664 F30.000
G1 X-10.123 Y-74.906 Z-0.673 F30.000
G1 X-10.059 Y-74.857 Z-0.681 F30.000
G1 X-9.970 Y-74.848 Z-0.691 F30.000
G1 X-9.891 Y-74.891 Z-0.700 F30.000
G1 X-9.847 Y-74.980 Z-0.710 F30.000
G1 X-9.866 Y-75.077 Z-0.722 F30.000
G1 X-9.941 Y-75.143 Z-0.731 F30.000
G1 X-10.020 Y-75.153 Z-0.739 F30.000
G1 X-10.094 Y-75.123 Z-0.748 F30.000
G1 X-10.143 Y-75.059 Z-0.756 F30.000
G1 X-10.153 Y-74.980 Z-0.764 F30.000
G1 X-10.123 Y-74.906 Z-0.773 F30.000
G1 X-10.059 Y-74.857 Z-0.781 F30.000
G1 X-9.970 Y-74.848 Z-0.791 F30.000
G1 X-9.891 Y-74.891 Z-0.800 F30.000
G1 X-9.847 Y-74.980 Z-0.810 F30.000
G1 X-9.866 Y-75.077 Z-0.822 F30.000
G1 X-9.941 Y-75.143 Z-0.831 F30.000
G1 X-10.020 Y-75.153 Z-0.839 F30.000
G1 X-10.094 Y-75.123 Z-0.848 F30.000
G1 X-10.143 Y-75.059 Z-0.856 F30.000
G1 X-10.153 Y-74.980 Z-0.864 F30.000
G1 X-10.123 Y-74.906 Z-0.873 F30.000
G1 X-10.059 Y-74.857 Z-0.881 F30.000
G1 X-9.970 Y-74.848 Z-0.891 F30.000
G1 X-9.891 Y-74.891 Z-0.900 F30.000
G1 X-9.847 Y-74.980 Z-0.910 F30.000
G1 X-9.866 Y-75.077 Z-0.922 F30.000
G1 X-9.941 Y-75.143 Z-0.931 F30.000
G1 X-10.020 Y-75.153 Z-0.939 F30.000
G1 X-10.094 Y-75.123 Z-0.948 F30.000
G1 X-10.143 Y-75.059 Z-0.956 F30.000
G1 X-10.153 Y-74.980 Z-0.964 F30.000
G1 X-10.123 Y-74.906 Z-0.973 F30.000
G1 X-10.059 Y-74.857 Z-0.981 F30.000
G1 X-9.970 Y-74.848 Z-0.991 F30.000
G1 X-9.891 Y-74.891 Z-1.000 F30.000
G1 X-9.847 Y-74.980 Z-1.010 F30.000
G1 X-9.866 Y-75.077 Z-1.022 F30.000
G1 X-9.941 Y-75.143 Z-1.031 F30.000
G1 X-10.020 Y-75.153 Z-1.039 F30.000
G1 X-10.094 Y-75.123 Z-1.048 F30.000
G1 X-10.143 Y-75.059 Z-1.056 F30.000
G1 X-10.153 Y-74.980 Z-1.064 F30.000
G1 X-10.123 Y-74.906 Z-1.073 F30.000
G1 X-10.059 Y-74.857 Z-1.081 F30.000
G1 X-9.970 Y-74.848 Z-1.091 F30.000
G1 X-9.891 Y-74.891 Z-1.100 F30.000
G1 X-9.847 Y-74.980 Z-1.110 F30.000
G1 X-9.866 Y-75.077 Z-1.122 F30.000
G1 X-9.941 Y-75.143 Z-1.131 F30.000
G1 X-10.020 Y-75.153 Z-1.139 F30.000
G1 X-10.094 Y-75.123 Z-1.148 F30.000
G1 X-10.143 Y-75.059 Z-1.156 F30.000
G1 X-10.153 Y-74.980 Z-1.164 F30.000
G1 X-10.123 Y-74.906 Z-1.173 F30.000
G1 X-10.059 Y-74.857 Z-1.181 F30.000
G1 X-9.970 Y-74.848 Z-1.191 F30.000
G1 X-9.891 Y-74.891 Z-1.200 F30.000
G1 X-9.847 Y-74.980 Z-1.210 F30.000
G1 X-9.866 Y-75.077 Z-1.222 F30.000
G1 X-9.941 Y-75.143 Z-1.231 F30.000
G1 X-10.020 Y-75.153 Z-1.239 F30.000
G1 X-10.094 Y-75.123 Z-1.248 F30.000
G1 X-10.143 Y-75.059 Z-1.256 F30.000
G1 X-10.153 Y-74.980 Z-1.264 F30.000
G1 X-10.123 Y-74.906 Z-1.273 F30.000
G1 X-10.059 Y-74.857 Z-1.281 F30.000
G1 X-9.970 Y-74.848 Z-1.291 F30.000
G1 X-9.891 Y-74.891 Z-1.300 F30.000
G1 X-9.847 Y-74.980 Z-1.310 F30.000
G1 X-9.866 Y-75.077 Z-1.322 F30.000
G1 X-9.941 Y-75.143 Z-1.331 F30.000
G1 X-10.020 Y-75.153 Z-1.339 F30.000
G1 X-10.094 Y-75.123 Z-1.348 F30.000
G1 X-10.143 Y-75.059 Z-1.356 F30.000
G1 X-10.153 Y-74.980 Z-1.364 F30.000
G1 X-10.123 Y-74.906 Z-1.373 F30.000
G1 X-10.059 Y-74.857 Z-1.381 F30.000
G1 X-9.970 Y-74.848 Z-1.391 F30.000
G1 X-9.891 Y-74.891 Z-1.400 F30.000
G1 X-9.847 Y-74.980 Z-1.410 F30.000
G1 X-9.866 Y-75.077 Z-1.422 F30.000
G1 X-9.941 Y-75.143 Z-1.431 F30.000
G1 X-10.020 Y-75.153 Z-1.439 F30.000
G1 X-10.094 Y-75.123 Z-1.448 F30.000
G1 X-10.143 Y-75.059 Z-1.456 F30.000
G1 X-10.153 Y-74.980 Z-1.464 F30.000
G1 X-10.123 Y-74.906 Z-1.473 F30.000
G1 X-10.059 Y-74.857 Z-1.481 F30.000
G1 X-9.970 Y-74.848 Z-1.491 F30.000
G1 X-9.891 Y-74.891 Z-1.500 F30.000
G1 X-9.847 Y-74.980 Z-1.510 F30.000
G1 X-9.866 Y-75.077 Z-1.522 F30.000
G1 X-9.941 Y-75.143 Z-1.531 F30.000
G1 X-10.020 Y-75.153 Z-1.539 F30.000
G1 X-10.094 Y-75.123 Z-1.548 F30.000
G1 X-10.143 Y-75.059 Z-1.556 F30.000
G1 X-10.153 Y-74.980 Z-1.564 F30.000
G1 X-10.123 Y-74.906 Z-1.573 F30.000
G1 X-10.059 Y-74.857 Z-1.581 F30.000
G1 X-9.970 Y-74.848 Z-1.591 F30.000
G1 X-9.891 Y-74.891 Z-1.600 F30.000
G1 X-9.847 Y-74.980 Z-1.610 F30.000
G1 X-9.866 Y-75.077 Z-1.622 F30.000
G1 X-9.941 Y-75.143 Z-1.631 F30.000
G1 X-10.020 Y-75.153 Z-1.639 F30.000
G1 X-10.094 Y-75.123 Z-1.648 F30.000
G1 X-10.143 Y-75.059 Z-1.656 F30.000
G1 X-10.153 Y-74.980 Z-1.664 F30.000
G1 X-10.123 Y-74.906 Z-1.673 F30.000
G1 X-10.059 Y-74.857 Z-1.681 F30.000
G1 X-9.970 Y-74.848 Z-1.691 F30.000
G1 X-9.891 Y-74.891 Z-1.700 F30.000
G1 X-9.847 Y-74.980 Z-1.710 F30.000
G1 X-9.866 Y-75.077 Z-1.722 F30.000
G1 X-9.941 Y-75.143 Z-1.731 F30.000
G1 X-10.020 Y-75.153 Z-1.739 F30.000
G1 X-10.094 Y-75.123 Z-1.748 F30.000
G1 X-10.143 Y-75.059 Z-1.756 F30.000
G1 X-10.153 Y-74.980 Z-1.764 F30.000
G1 X-10.123 Y-74.906 Z-1.773 F30.000
G1 X-10.059 Y-74.857 Z-1.781 F30.000
G1 X-9.970 Y-74.848 Z-1.791 F30.000
G1 X-9.891 Y-74.891 Z-1.800 F30.000
G1 X-9.847 Y-74.980 Z-1.810 F30.000
G1 X-9.866 Y-75.077 Z-1.822 F30.000
G1 X-9.941 Y-75.143 Z-1.831 F30.000
G1 X-10.020 Y-75.153 Z-1.839 F30.000
G1 X-10.094 Y-75.123 Z-1.848 F30.000
G1 X-10.143 Y-75.059 Z-1.856 F30.000
G1 X-10.153 Y-74.980 Z-1.864 F30.000
G1 X-10.123 Y-74.906 Z-1.873 F30.000
G1 X-10.059 Y-74.857 Z-1.881 F30.000
G1 X-9.970 Y-74.848 Z-1.891 F30.000
G1 X-9.891 Y-74.891 Z-1.900 F30.000
G1 X-9.847 Y-74.980 Z-1.910 F30.000
G1 X-9.866 Y-75.077 Z-1.922 F30.000
G1 X-9.941 Y-75.143 Z-1.931 F30.000
G1 X-10.020 Y-75.153 Z-1.939 F30.000
G1 X-10.094 Y-75.123 Z-1.948 F30.000
G1 X-10.143 Y-75.059 Z-1.956 F30.000
G1 X-10.153 Y-74.980 Z-1.964 F30.000
G1 X-10.123 Y-74.906 Z-1.973 F30.000
G1 X-10.059 Y-74.857 Z-1.981 F30.000
G1 X-9.970 Y-74.848 Z-1.991 F30.000
G1 X-9.891 Y-74.891 Z-2.000 F30.000
G1 X-9.847 Y-74.980 Z-2.010 F30.000
G1 X-9.866 Y-75.077 Z-2.022 F30.000
G1 X-9.941 Y-75.143 Z-2.031 F30.000
G1 X-10.020 Y-75.153 Z-2.039 F30.000
G1 X-10.094 Y-75.123 Z-2.048 F30.000
G1 X-10.143 Y-75.059 Z-2.056 F30.000
G1 X-10.153 Y-74.980 Z-2.064 F30.000
G1 X-10.123 Y-74.906 Z-2.073 F30.000
G1 X-10.059 Y-74.857 Z-2.081 F30.000
G1 X-9.970 Y-74.848 Z-2.091 F30.000
G1 X-9.891 Y-74.891 Z-2.100 F30.000
G2 X-9.941 Y-75.143 Z-2.100 I-0.109 J-0.109 K0.000 F60.000
G2 X-10.143 Y-75.059 Z-2.100 I-0.059 J0.143 K0.000 F60.000
G2 X-10.059 Y-74.857 Z-2.100 I0.143 J0.059 K0.000 F60.000
G2 X-9.891 Y-74.891 Z-2.100 I0.059 J-0.143 K0.000 F60.000
G0 X-9.891 Y-74.891 Z5.000
(Finish operation: RampEntryDressup003)
(Begin operation: RampEntryDressup004)
(Path: RampEntryDressup004)
G0 X0.000 Y0.000 Z5.000
G0 X-9.891 Y75.109 Z5.000
G0 X-9.891 Y75.109 Z0.200
G1 X-9.848 Y75.021 Z0.171 F30.000
G1 X-9.865 Y74.926 Z0.136 F30.000
G1 X-9.937 Y74.860 Z0.108 F30.000
G1 X-10.016 Y74.847 Z0.084 F30.000
G1 X-10.090 Y74.875 Z0.056 F30.000
G1 X-10.140 Y74.937 Z0.033 F30.000
G1 X-10.153 Y75.016 Z0.009 F30.000
G1 X-10.125 Y75.090 Z-0.019 F30.000
G1 X-10.063 Y75.140 Z-0.042 F30.000
G1 X-9.972 Y75.151 Z-0.071 F30.000
G1 X-9.891 Y75.109 Z-0.100 F30.000
G1 X-9.848 Y75.021 Z-0.109 F30.000
G1 X-9.865 Y74.926 Z-0.121 F30.000
G1 X-9.937 Y74.860 Z-0.131 F30.000
G1 X-10.016 Y74.847 Z-0.139 F30.000
G1 X-10.090 Y74.876 Z-0.148 F30.000
G1 X-10.140 Y74.937 Z-0.156 F30.000
G1 X-10.153 Y75.016 Z-0.164 F30.000
G1 X-10.124 Y75.090 Z-0.173 F30.000
G1 X-10.063 Y75.140 Z-0.181 F30.000
G1 X-9.972 Y75.151 Z-0.190 F30.000
G1 X-9.891 Y75.109 Z-0.200 F30.000
G1 X-9.848 Y75.021 Z-0.209 F30.000
G1 X-9.865 Y74.926 Z-0.221 F30.000
G1 X-9.937 Y74.860 Z-0.231 F30.000
G1 X-10.016 Y74.847 Z-0.239 F30.000
G1 X-10.090 Y74.876 Z-0.248 F30.000
G1 X-10.140 Y74.937 Z-0.256 F30.000
G1 X-10.153 Y75.016 Z-0.264 F30.000
G1 X-10.124 Y75.090 Z-0.273 F30.000
G1 X-10.063 Y75.140 Z-0.281 F30.000
G1 X-9.972 Y75.151 Z-0.290 F30.000
G1 X-9.891 Y75.109 Z-0.300 F30.000
G1 X-9.848 Y75.021 Z-0.309 F30.000
G1 X-9.865 Y74.926 Z-0.321 F30.000
G1 X-9.937 Y74.860 Z-0.331 F30.000
G1 X-10.016 Y74.847 Z-0.339 F30.000
G1 X-10.090 Y74.876 Z-0.348 F30.000
G1 X-10.140 Y74.937 Z-0.356 F30.000
G1 X-10.153 Y75.016 Z-0.364 F30.000
G1 X-10.124 Y75.090 Z-0.373 F30.000
G1 X-10.063 Y75.140 Z-0.381 F30.000
G1 X-9.972 Y75.151 Z-0.390 F30.000
G1 X-9.891 Y75.109 Z-0.400 F30.000
G1 X-9.848 Y75.021 Z-0.409 F30.000
G1 X-9.865 Y74.926 Z-0.421 F30.000
G1 X-9.937 Y74.860 Z-0.431 F30.000
G1 X-10.016 Y74.847 Z-0.439 F30.000
G1 X-10.090 Y74.876 Z-0.448 F30.000
G1 X-10.140 Y74.937 Z-0.456 F30.000
G1 X-10.153 Y75.016 Z-0.464 F30.000
G1 X-10.124 Y75.090 Z-0.473 F30.000
G1 X-10.063 Y75.140 Z-0.481 F30.000
G1 X-9.972 Y75.151 Z-0.490 F30.000
G1 X-9.891 Y75.109 Z-0.500 F30.000
G1 X-9.848 Y75.021 Z-0.509 F30.000
G1 X-9.865 Y74.926 Z-0.521 F30.000
G1 X-9.937 Y74.860 Z-0.531 F30.000
G1 X-10.016 Y74.847 Z-0.539 F30.000
G1 X-10.090 Y74.876 Z-0.548 F30.000
G1 X-10.140 Y74.937 Z-0.556 F30.000
G1 X-10.153 Y75.016 Z-0.564 F30.000
G1 X-10.124 Y75.090 Z-0.573 F30.000
G1 X-10.063 Y75.140 Z-0.581 F30.000
G1 X-9.972 Y75.151 Z-0.590 F30.000
G1 X-9.891 Y75.109 Z-0.600 F30.000
G1 X-9.848 Y75.021 Z-0.609 F30.000
G1 X-9.865 Y74.926 Z-0.621 F30.000
G1 X-9.937 Y74.860 Z-0.631 F30.000
G1 X-10.016 Y74.847 Z-0.639 F30.000
G1 X-10.090 Y74.876 Z-0.648 F30.000
G1 X-10.140 Y74.937 Z-0.656 F30.000
G1 X-10.153 Y75.016 Z-0.664 F30.000
G1 X-10.124 Y75.090 Z-0.673 F30.000
G1 X-10.063 Y75.140 Z-0.681 F30.000
G1 X-9.972 Y75.151 Z-0.690 F30.000
G1 X-9.891 Y75.109 Z-0.700 F30.000
G1 X-9.848 Y75.021 Z-0.709 F30.000
G1 X-9.865 Y74.926 Z-0.721 F30.000
G1 X-9.937 Y74.860 Z-0.731 F30.000
G1 X-10.016 Y74.847 Z-0.739 F30.000
G1 X-10.090 Y74.876 Z-0.748 F30.000
G1 X-10.140 Y74.937 Z-0.756 F30.000
G1 X-10.153 Y75.016 Z-0.764 F30.000
G1 X-10.124 Y75.090 Z-0.773 F30.000
G1 X-10.063 Y75.140 Z-0.781 F30.000
G1 X-9.972 Y75.151 Z-0.790 F30.000
G1 X-9.891 Y75.109 Z-0.800 F30.000
G1 X-9.848 Y75.021 Z-0.809 F30.000
G1 X-9.865 Y74.926 Z-0.821 F30.000
G1 X-9.937 Y74.860 Z-0.831 F30.000
G1 X-10.016 Y74.847 Z-0.839 F30.000
G1 X-10.090 Y74.876 Z-0.848 F30.000
G1 X-10.140 Y74.937 Z-0.856 F30.000
G1 X-10.153 Y75.016 Z-0.864 F30.000
G1 X-10.124 Y75.090 Z-0.873 F30.000
G1 X-10.063 Y75.140 Z-0.881 F30.000
G1 X-9.972 Y75.151 Z-0.890 F30.000
G1 X-9.891 Y75.109 Z-0.900 F30.000
G1 X-9.848 Y75.021 Z-0.909 F30.000
G1 X-9.865 Y74.926 Z-0.921 F30.000
G1 X-9.937 Y74.860 Z-0.931 F30.000
G1 X-10.016 Y74.847 Z-0.939 F30.000
G1 X-10.090 Y74.876 Z-0.948 F30.000
G1 X-10.140 Y74.937 Z-0.956 F30.000
G1 X-10.153 Y75.016 Z-0.964 F30.000
G1 X-10.124 Y75.090 Z-0.973 F30.000
G1 X-10.063 Y75.140 Z-0.981 F30.000
G1 X-9.972 Y75.151 Z-0.990 F30.000
G1 X-9.891 Y75.109 Z-1.000 F30.000
G1 X-9.848 Y75.021 Z-1.009 F30.000
G1 X-9.865 Y74.926 Z-1.021 F30.000
G1 X-9.937 Y74.860 Z-1.031 F30.000
G1 X-10.016 Y74.847 Z-1.039 F30.000
G1 X-10.090 Y74.876 Z-1.048 F30.000
G1 X-10.140 Y74.937 Z-1.056 F30.000
G1 X-10.153 Y75.016 Z-1.064 F30.000
G1 X-10.124 Y75.090 Z-1.073 F30.000
G1 X-10.063 Y75.140 Z-1.081 F30.000
G1 X-9.972 Y75.151 Z-1.090 F30.000
G1 X-9.891 Y75.109 Z-1.100 F30.000
G1 X-9.848 Y75.021 Z-1.109 F30.000
G1 X-9.865 Y74.926 Z-1.121 F30.000
G1 X-9.937 Y74.860 Z-1.131 F30.000
G1 X-10.016 Y74.847 Z-1.139 F30.000
G1 X-10.090 Y74.876 Z-1.148 F30.000
G1 X-10.140 Y74.937 Z-1.156 F30.000
G1 X-10.153 Y75.016 Z-1.164 F30.000
G1 X-10.124 Y75.090 Z-1.173 F30.000
G1 X-10.063 Y75.140 Z-1.181 F30.000
G1 X-9.972 Y75.151 Z-1.190 F30.000
G1 X-9.891 Y75.109 Z-1.200 F30.000
G1 X-9.848 Y75.021 Z-1.209 F30.000
G1 X-9.865 Y74.926 Z-1.221 F30.000
G1 X-9.937 Y74.860 Z-1.231 F30.000
G1 X-10.016 Y74.847 Z-1.239 F30.000
G1 X-10.090 Y74.876 Z-1.248 F30.000
G1 X-10.140 Y74.937 Z-1.256 F30.000
G1 X-10.153 Y75.016 Z-1.264 F30.000
G1 X-10.124 Y75.090 Z-1.273 F30.000
G1 X-10.063 Y75.140 Z-1.281 F30.000
G1 X-9.972 Y75.151 Z-1.290 F30.000
G1 X-9.891 Y75.109 Z-1.300 F30.000
G1 X-9.848 Y75.021 Z-1.309 F30.000
G1 X-9.865 Y74.926 Z-1.321 F30.000
G1 X-9.937 Y74.860 Z-1.331 F30.000
G1 X-10.016 Y74.847 Z-1.339 F30.000
G1 X-10.090 Y74.876 Z-1.348 F30.000
G1 X-10.140 Y74.937 Z-1.356 F30.000
G1 X-10.153 Y75.016 Z-1.364 F30.000
G1 X-10.124 Y75.090 Z-1.373 F30.000
G1 X-10.063 Y75.140 Z-1.381 F30.000
G1 X-9.972 Y75.151 Z-1.390 F30.000
G1 X-9.891 Y75.109 Z-1.400 F30.000
G1 X-9.848 Y75.021 Z-1.409 F30.000
G1 X-9.865 Y74.926 Z-1.421 F30.000
G1 X-9.937 Y74.860 Z-1.431 F30.000
G1 X-10.016 Y74.847 Z-1.439 F30.000
G1 X-10.090 Y74.876 Z-1.448 F30.000
G1 X-10.140 Y74.937 Z-1.456 F30.000
G1 X-10.153 Y75.016 Z-1.464 F30.000
G1 X-10.124 Y75.090 Z-1.473 F30.000
G1 X-10.063 Y75.140 Z-1.481 F30.000
G1 X-9.972 Y75.151 Z-1.490 F30.000
G1 X-9.891 Y75.109 Z-1.500 F30.000
G1 X-9.848 Y75.021 Z-1.509 F30.000
G1 X-9.865 Y74.926 Z-1.521 F30.000
G1 X-9.937 Y74.860 Z-1.531 F30.000
G1 X-10.016 Y74.847 Z-1.539 F30.000
G1 X-10.090 Y74.876 Z-1.548 F30.000
G1 X-10.140 Y74.937 Z-1.556 F30.000
G1 X-10.153 Y75.016 Z-1.564 F30.000
G1 X-10.124 Y75.090 Z-1.573 F30.000
G1 X-10.063 Y75.140 Z-1.581 F30.000
G1 X-9.972 Y75.151 Z-1.590 F30.000
G1 X-9.891 Y75.109 Z-1.600 F30.000
G1 X-9.848 Y75.021 Z-1.609 F30.000
G1 X-9.865 Y74.926 Z-1.621 F30.000
G1 X-9.937 Y74.860 Z-1.631 F30.000
G1 X-10.016 Y74.847 Z-1.639 F30.000
G1 X-10.090 Y74.876 Z-1.648 F30.000
G1 X-10.140 Y74.937 Z-1.656 F30.000
G1 X-10.153 Y75.016 Z-1.664 F30.000
G1 X-10.124 Y75.090 Z-1.673 F30.000
G1 X-10.063 Y75.140 Z-1.681 F30.000
G1 X-9.972 Y75.151 Z-1.690 F30.000
G1 X-9.891 Y75.109 Z-1.700 F30.000
G1 X-9.848 Y75.021 Z-1.709 F30.000
G1 X-9.865 Y74.926 Z-1.721 F30.000
G1 X-9.937 Y74.860 Z-1.731 F30.000
G1 X-10.016 Y74.847 Z-1.739 F30.000
G1 X-10.090 Y74.876 Z-1.748 F30.000
G1 X-10.140 Y74.937 Z-1.756 F30.000
G1 X-10.153 Y75.016 Z-1.764 F30.000
G1 X-10.124 Y75.090 Z-1.773 F30.000
G1 X-10.063 Y75.140 Z-1.781 F30.000
G1 X-9.972 Y75.151 Z-1.790 F30.000
G1 X-9.891 Y75.109 Z-1.800 F30.000
G1 X-9.848 Y75.021 Z-1.809 F30.000
G1 X-9.865 Y74.926 Z-1.821 F30.000
G1 X-9.937 Y74.860 Z-1.831 F30.000
G1 X-10.016 Y74.847 Z-1.839 F30.000
G1 X-10.090 Y74.876 Z-1.848 F30.000
G1 X-10.140 Y74.937 Z-1.856 F30.000
G1 X-10.153 Y75.016 Z-1.864 F30.000
G1 X-10.124 Y75.090 Z-1.873 F30.000
G1 X-10.063 Y75.140 Z-1.881 F30.000
G1 X-9.972 Y75.151 Z-1.890 F30.000
G1 X-9.891 Y75.109 Z-1.900 F30.000
G1 X-9.848 Y75.021 Z-1.909 F30.000
G1 X-9.865 Y74.926 Z-1.921 F30.000
G1 X-9.937 Y74.860 Z-1.931 F30.000
G1 X-10.016 Y74.847 Z-1.939 F30.000
G1 X-10.090 Y74.876 Z-1.948 F30.000
G1 X-10.140 Y74.937 Z-1.956 F30.000
G1 X-10.153 Y75.016 Z-1.964 F30.000
G1 X-10.124 Y75.090 Z-1.973 F30.000
G1 X-10.063 Y75.140 Z-1.981 F30.000
G1 X-9.972 Y75.151 Z-1.990 F30.000
G1 X-9.891 Y75.109 Z-2.000 F30.000
G1 X-9.848 Y75.021 Z-2.009 F30.000
G1 X-9.865 Y74.926 Z-2.021 F30.000
G1 X-9.937 Y74.860 Z-2.031 F30.000
G1 X-10.016 Y74.847 Z-2.039 F30.000
G1 X-10.090 Y74.876 Z-2.048 F30.000
G1 X-10.140 Y74.937 Z-2.056 F30.000
G1 X-10.153 Y75.016 Z-2.064 F30.000
G1 X-10.124 Y75.090 Z-2.073 F30.000
G1 X-10.063 Y75.140 Z-2.081 F30.000
G1 X-9.972 Y75.151 Z-2.090 F30.000
G1 X-9.891 Y75.109 Z-2.100 F30.000
G2 X-9.937 Y74.860 Z-2.100 I-0.109 J-0.109 K0.000 F60.000
G2 X-10.140 Y74.937 Z-2.100 I-0.063 J0.140 K0.000 F60.000
G2 X-10.063 Y75.140 Z-2.100 I0.140 J0.063 K0.000 F60.000
G2 X-9.891 Y75.109 Z-2.100 I0.063 J-0.140 K0.000 F60.000
G0 X-9.891 Y75.109 Z5.000
(Finish operation: RampEntryDressup004)
(Begin operation: RampEntryDressup005)
(Path: RampEntryDressup005)
G0 X0.000 Y0.000 Z5.000
G0 X10.109 Y75.109 Z5.000
G0 X10.109 Y75.109 Z0.200
G1 X10.152 Y75.021 Z0.171 F30.000
G1 X10.135 Y74.926 Z0.136 F30.000
G1 X10.063 Y74.860 Z0.108 F30.000
G1 X9.984 Y74.847 Z0.084 F30.000
G1 X9.910 Y74.875 Z0.056 F30.000
G1 X9.860 Y74.937 Z0.033 F30.000
G1 X9.847 Y75.016 Z0.009 F30.000
G1 X9.875 Y75.090 Z-0.019 F30.000
G1 X9.937 Y75.140 Z-0.042 F30.000
G1 X10.028 Y75.151 Z-0.071 F30.000
G1 X10.109 Y75.109 Z-0.100 F30.000
G1 X10.152 Y75.021 Z-0.109 F30.000
G1 X10.135 Y74.926 Z-0.121 F30.000
G1 X10.063 Y74.860 Z-0.131 F30.000
G1 X9.984 Y74.847 Z-0.139 F30.000
G1 X9.910 Y74.876 Z-0.148 F30.000
G1 X9.860 Y74.937 Z-0.156 F30.000
G1 X9.847 Y75.016 Z-0.164 F30.000
G1 X9.876 Y75.090 Z-0.173 F30.000
G1 X9.937 Y75.140 Z-0.181 F30.000
G1 X10.028 Y75.151 Z-0.190 F30.000
G1 X10.109 Y75.109 Z-0.200 F30.000
G1 X10.152 Y75.021 Z-0.209 F30.000
G1 X10.135 Y74.926 Z-0.221 F30.000
G1 X10.063 Y74.860 Z-0.231 F30.000
G1 X9.984 Y74.847 Z-0.239 F30.000
G1 X9.910 Y74.876 Z-0.248 F30.000
G1 X9.860 Y74.937 Z-0.256 F30.000
G1 X9.847 Y75.016 Z-0.264 F30.000
G1 X9.876 Y75.090 Z-0.273 F30.000
G1 X9.937 Y75.140 Z-0.281 F30.000
G1 X10.028 Y75.151 Z-0.290 F30.000
G1 X10.109 Y75.109 Z-0.300 F30.000
G1 X10.152 Y75.021 Z-0.309 F30.000
G1 X10.135 Y74.926 Z-0.321 F30.000
G1 X10.063 Y74.860 Z-0.331 F30.000
G1 X9.984 Y74.847 Z-0.339 F30.000
G1 X9.910 Y74.876 Z-0.348 F30.000
G1 X9.860 Y74.937 Z-0.356 F30.000
G1 X9.847 Y75.016 Z-0.364 F30.000
G1 X9.876 Y75.090 Z-0.373 F30.000
G1 X9.937 Y75.140 Z-0.381 F30.000
G1 X10.028 Y75.151 Z-0.390 F30.000
G1 X10.109 Y75.109 Z-0.400 F30.000
G1 X10.152 Y75.021 Z-0.409 F30.000
G1 X10.135 Y74.926 Z-0.421 F30.000
G1 X10.063 Y74.860 Z-0.431 F30.000
G1 X9.984 Y74.847 Z-0.439 F30.000
G1 X9.910 Y74.876 Z-0.448 F30.000
G1 X9.860 Y74.937 Z-0.456 F30.000
G1 X9.847 Y75.016 Z-0.464 F30.000
G1 X9.876 Y75.090 Z-0.473 F30.000
G1 X9.937 Y75.140 Z-0.481 F30.000
G1 X10.028 Y75.151 Z-0.490 F30.000
G1 X10.109 Y75.109 Z-0.500 F30.000
G1 X10.152 Y75.021 Z-0.509 F30.000
G1 X10.135 Y74.926 Z-0.521 F30.000
G1 X10.063 Y74.860 Z-0.531 F30.000
G1 X9.984 Y74.847 Z-0.539 F30.000
G1 X9.910 Y74.876 Z-0.548 F30.000
G1 X9.860 Y74.937 Z-0.556 F30.000
G1 X9.847 Y75.016 Z-0.564 F30.000
G1 X9.876 Y75.090 Z-0.573 F30.000
G1 X9.937 Y75.140 Z-0.581 F30.000
G1 X10.028 Y75.151 Z-0.590 F30.000
G1 X10.109 Y75.109 Z-0.600 F30.000
G1 X10.152 Y75.021 Z-0.609 F30.000
G1 X10.135 Y74.926 Z-0.621 F30.000
G1 X10.063 Y74.860 Z-0.631 F30.000
G1 X9.984 Y74.847 Z-0.639 F30.000
G1 X9.910 Y74.876 Z-0.648 F30.000
G1 X9.860 Y74.937 Z-0.656 F30.000
G1 X9.847 Y75.016 Z-0.664 F30.000
G1 X9.876 Y75.090 Z-0.673 F30.000
G1 X9.937 Y75.140 Z-0.681 F30.000
G1 X10.028 Y75.151 Z-0.690 F30.000
G1 X10.109 Y75.109 Z-0.700 F30.000
G1 X10.152 Y75.021 Z-0.709 F30.000
G1 X10.135 Y74.926 Z-0.721 F30.000
G1 X10.063 Y74.860 Z-0.731 F30.000
G1 X9.984 Y74.847 Z-0.739 F30.000
G1 X9.910 Y74.876 Z-0.748 F30.000
G1 X9.860 Y74.937 Z-0.756 F30.000
G1 X9.847 Y75.016 Z-0.764 F30.000
G1 X9.876 Y75.090 Z-0.773 F30.000
G1 X9.937 Y75.140 Z-0.781 F30.000
G1 X10.028 Y75.151 Z-0.790 F30.000
G1 X10.109 Y75.109 Z-0.800 F30.000
G1 X10.152 Y75.021 Z-0.809 F30.000
G1 X10.135 Y74.926 Z-0.821 F30.000
G1 X10.063 Y74.860 Z-0.831 F30.000
G1 X9.984 Y74.847 Z-0.839 F30.000
G1 X9.910 Y74.876 Z-0.848 F30.000
G1 X9.860 Y74.937 Z-0.856 F30.000
G1 X9.847 Y75.016 Z-0.864 F30.000
G1 X9.876 Y75.090 Z-0.873 F30.000
G1 X9.937 Y75.140 Z-0.881 F30.000
G1 X10.028 Y75.151 Z-0.890 F30.000
G1 X10.109 Y75.109 Z-0.900 F30.000
G1 X10.152 Y75.021 Z-0.909 F30.000
G1 X10.135 Y74.926 Z-0.921 F30.000
G1 X10.063 Y74.860 Z-0.931 F30.000
G1 X9.984 Y74.847 Z-0.939 F30.000
G1 X9.910 Y74.876 Z-0.948 F30.000
G1 X9.860 Y74.937 Z-0.956 F30.000
G1 X9.847 Y75.016 Z-0.964 F30.000
G1 X9.876 Y75.090 Z-0.973 F30.000
G1 X9.937 Y75.140 Z-0.981 F30.000
G1 X10.028 Y75.151 Z-0.990 F30.000
G1 X10.109 Y75.109 Z-1.000 F30.000
G1 X10.152 Y75.021 Z-1.009 F30.000
G1 X10.135 Y74.926 Z-1.021 F30.000
G1 X10.063 Y74.860 Z-1.031 F30.000
G1 X9.984 Y74.847 Z-1.039 F30.000
G1 X9.910 Y74.876 Z-1.048 F30.000
G1 X9.860 Y74.937 Z-1.056 F30.000
G1 X9.847 Y75.016 Z-1.064 F30.000
G1 X9.876 Y75.090 Z-1.073 F30.000
G1 X9.937 Y75.140 Z-1.081 F30.000
G1 X10.028 Y75.151 Z-1.090 F30.000
G1 X10.109 Y75.109 Z-1.100 F30.000
G1 X10.152 Y75.021 Z-1.109 F30.000
G1 X10.135 Y74.926 Z-1.121 F30.000
G1 X10.063 Y74.860 Z-1.131 F30.000
G1 X9.984 Y74.847 Z-1.139 F30.000
G1 X9.910 Y74.876 Z-1.148 F30.000
G1 X9.860 Y74.937 Z-1.156 F30.000
G1 X9.847 Y75.016 Z-1.164 F30.000
G1 X9.876 Y75.090 Z-1.173 F30.000
G1 X9.937 Y75.140 Z-1.181 F30.000
G1 X10.028 Y75.151 Z-1.190 F30.000
G1 X10.109 Y75.109 Z-1.200 F30.000
G1 X10.152 Y75.021 Z-1.209 F30.000
G1 X10.135 Y74.926 Z-1.221 F30.000
G1 X10.063 Y74.860 Z-1.231 F30.000
G1 X9.984 Y74.847 Z-1.239 F30.000
G1 X9.910 Y74.876 Z-1.248 F30.000
G1 X9.860 Y74.937 Z-1.256 F30.000
G1 X9.847 Y75.016 Z-1.264 F30.000
G1 X9.876 Y75.090 Z-1.273 F30.000
G1 X9.937 Y75.140 Z-1.281 F30.000
G1 X10.028 Y75.151 Z-1.290 F30.000
G1 X10.109 Y75.109 Z-1.300 F30.000
G1 X10.152 Y75.021 Z-1.309 F30.000
G1 X10.135 Y74.926 Z-1.321 F30.000
G1 X10.063 Y74.860 Z-1.331 F30.000
G1 X9.984 Y74.847 Z-1.339 F30.000
G1 X9.910 Y74.876 Z-1.348 F30.000
G1 X9.860 Y74.937 Z-1.356 F30.000
G1 X9.847 Y75.016 Z-1.364 F30.000
G1 X9.876 Y75.090 Z-1.373 F30.000
G1 X9.937 Y75.140 Z-1.381 F30.000
G1 X10.028 Y75.151 Z-1.390 F30.000
G1 X10.109 Y75.109 Z-1.400 F30.000
G1 X10.152 Y75.021 Z-1.409 F30.000
G1 X10.135 Y74.926 Z-1.421 F30.000
G1 X10.063 Y74.860 Z-1.431 F30.000
G1 X9.984 Y74.847 Z-1.439 F30.000
G1 X9.910 Y74.876 Z-1.448 F30.000
G1 X9.860 Y74.937 Z-1.456 F30.000
G1 X9.847 Y75.016 Z-1.464 F30.000
G1 X9.876 Y75.090 Z-1.473 F30.000
G1 X9.937 Y75.140 Z-1.481 F30.000
G1 X10.028 Y75.151 Z-1.490 F30.000
G1 X10.109 Y75.109 Z-1.500 F30.000
G1 X10.152 Y75.021 Z-1.509 F30.000
G1 X10.135 Y74.926 Z-1.521 F30.000
G1 X10.063 Y74.860 Z-1.531 F30.000
G1 X9.984 Y74.847 Z-1.539 F30.000
G1 X9.910 Y74.876 Z-1.548 F30.000
G1 X9.860 Y74.937 Z-1.556 F30.000
G1 X9.847 Y75.016 Z-1.564 F30.000
G1 X9.876 Y75.090 Z-1.573 F30.000
G1 X9.937 Y75.140 Z-1.581 F30.000
G1 X10.028 Y75.151 Z-1.590 F30.000
G1 X10.109 Y75.109 Z-1.600 F30.000
G1 X10.152 Y75.021 Z-1.609 F30.000
G1 X10.135 Y74.926 Z-1.621 F30.000
G1 X10.063 Y74.860 Z-1.631 F30.000
G1 X9.984 Y74.847 Z-1.639 F30.000
G1 X9.910 Y74.876 Z-1.648 F30.000
G1 X9.860 Y74.937 Z-1.656 F30.000
G1 X9.847 Y75.016 Z-1.664 F30.000
G1 X9.876 Y75.090 Z-1.673 F30.000
G1 X9.937 Y75.140 Z-1.681 F30.000
G1 X10.028 Y75.151 Z-1.690 F30.000
G1 X10.109 Y75.109 Z-1.700 F30.000
G1 X10.152 Y75.021 Z-1.709 F30.000
G1 X10.135 Y74.926 Z-1.721 F30.000
G1 X10.063 Y74.860 Z-1.731 F30.000
G1 X9.984 Y74.847 Z-1.739 F30.000
G1 X9.910 Y74.876 Z-1.748 F30.000
G1 X9.860 Y74.937 Z-1.756 F30.000
G1 X9.847 Y75.016 Z-1.764 F30.000
G1 X9.876 Y75.090 Z-1.773 F30.000
G1 X9.937 Y75.140 Z-1.781 F30.000
G1 X10.028 Y75.151 Z-1.790 F30.000
G1 X10.109 Y75.109 Z-1.800 F30.000
G1 X10.152 Y75.021 Z-1.809 F30.000
G1 X10.135 Y74.926 Z-1.821 F30.000
G1 X10.063 Y74.860 Z-1.831 F30.000
G1 X9.984 Y74.847 Z-1.839 F30.000
G1 X9.910 Y74.876 Z-1.848 F30.000
G1 X9.860 Y74.937 Z-1.856 F30.000
G1 X9.847 Y75.016 Z-1.864 F30.000
G1 X9.876 Y75.090 Z-1.873 F30.000
G1 X9.937 Y75.140 Z-1.881 F30.000
G1 X10.028 Y75.151 Z-1.890 F30.000
G1 X10.109 Y75.109 Z-1.900 F30.000
G1 X10.152 Y75.021 Z-1.909 F30.000
G1 X10.135 Y74.926 Z-1.921 F30.000
G1 X10.063 Y74.860 Z-1.931 F30.000
G1 X9.984 Y74.847 Z-1.939 F30.000
G1 X9.910 Y74.876 Z-1.948 F30.000
G1 X9.860 Y74.937 Z-1.956 F30.000
G1 X9.847 Y75.016 Z-1.964 F30.000
G1 X9.876 Y75.090 Z-1.973 F30.000
G1 X9.937 Y75.140 Z-1.981 F30.000
G1 X10.028 Y75.151 Z-1.990 F30.000
G1 X10.109 Y75.109 Z-2.000 F30.000
G1 X10.152 Y75.021 Z-2.009 F30.000
G1 X10.135 Y74.926 Z-2.021 F30.000
G1 X10.063 Y74.860 Z-2.031 F30.000
G1 X9.984 Y74.847 Z-2.039 F30.000
G1 X9.910 Y74.876 Z-2.048 F30.000
G1 X9.860 Y74.937 Z-2.056 F30.000
G1 X9.847 Y75.016 Z-2.064 F30.000
G1 X9.876 Y75.090 Z-2.073 F30.000
G1 X9.937 Y75.140 Z-2.081 F30.000
G1 X10.028 Y75.151 Z-2.090 F30.000
G1 X10.109 Y75.109 Z-2.100 F30.000
G2 X10.063 Y74.860 Z-2.100 I-0.109 J-0.109 K0.000 F60.000
G2 X9.860 Y74.937 Z-2.100 I-0.063 J0.140 K0.000 F60.000
G2 X9.937 Y75.140 Z-2.100 I0.140 J0.063 K0.000 F60.000
G2 X10.109 Y75.109 Z-2.100 I0.063 J-0.140 K0.000 F60.000
G0 X10.109 Y75.109 Z5.000
(Finish operation: RampEntryDressup005)
(Begin operation: RampEntryDressup006)
(Path: RampEntryDressup006)
G0 X0.000 Y0.000 Z5.000
G0 X-1.088 Y-30.003 Z5.000
G0 X-1.088 Y-30.003 Z0.200
G1 X-1.088 Y-39.827 Z0.119 F60.000
G1 X-9.412 Y-39.827 Z0.050 F60.000
G1 X-9.412 Y-30.003 Z-0.031 F60.000
G1 X-1.088 Y-30.003 Z-0.100 F60.000
G1 X-1.088 Y-39.827 Z-0.127 F60.000
G1 X-9.412 Y-39.827 Z-0.150 F60.000
G1 X-9.412 Y-30.003 Z-0.177 F60.000
G1 X-1.088 Y-30.003 Z-0.200 F60.000
G1 X-1.088 Y-39.827 Z-0.227 F60.000
G1 X-9.412 Y-39.827 Z-0.250 F60.000
G1 X-9.412 Y-30.003 Z-0.277 F60.000
G1 X-1.088 Y-30.003 Z-0.300 F60.000
G1 X-1.088 Y-39.827 Z-0.327 F60.000
G1 X-9.412 Y-39.827 Z-0.350 F60.000
G1 X-9.412 Y-30.003 Z-0.377 F60.000
G1 X-1.088 Y-30.003 Z-0.400 F60.000
G1 X-1.088 Y-39.827 Z-0.427 F60.000
G1 X-9.412 Y-39.827 Z-0.450 F60.000
G1 X-9.412 Y-30.003 Z-0.477 F60.000
G1 X-1.088 Y-30.003 Z-0.500 F60.000
G1 X-1.088 Y-39.827 Z-0.527 F60.000
G1 X-9.412 Y-39.827 Z-0.550 F60.000
G1 X-9.412 Y-30.003 Z-0.577 F60.000
G1 X-1.088 Y-30.003 Z-0.600 F60.000
G1 X-1.088 Y-39.827 Z-0.627 F60.000
G1 X-9.412 Y-39.827 Z-0.650 F60.000
G1 X-9.412 Y-30.003 Z-0.677 F60.000
G1 X-1.088 Y-30.003 Z-0.700 F60.000
G1 X-1.088 Y-39.827 Z-0.727 F60.000
G1 X-9.412 Y-39.827 Z-0.750 F60.000
G1 X-9.412 Y-30.003 Z-0.777 F60.000
G1 X-1.088 Y-30.003 Z-0.800 F60.000
G1 X-1.088 Y-39.827 Z-0.827 F60.000
G1 X-9.412 Y-39.827 Z-0.850 F60.000
G1 X-9.412 Y-30.003 Z-0.877 F60.000
G1 X-1.088 Y-30.003 Z-0.900 F60.000
G1 X-1.088 Y-39.827 Z-0.927 F60.000
G1 X-9.412 Y-39.827 Z-0.950 F60.000
G1 X-9.412 Y-30.003 Z-0.977 F60.000
G1 X-1.088 Y-30.003 Z-1.000 F60.000
G1 X-1.088 Y-39.827 Z-1.027 F60.000
G1 X-9.412 Y-39.827 Z-1.050 F60.000
G1 X-9.412 Y-30.003 Z-1.077 F60.000
G1 X-1.088 Y-30.003 Z-1.100 F60.000
G1 X-1.088 Y-39.827 Z-1.127 F60.000
G1 X-9.412 Y-39.827 Z-1.150 F60.000
G1 X-9.412 Y-30.003 Z-1.177 F60.000
G1 X-1.088 Y-30.003 Z-1.200 F60.000
G1 X-1.088 Y-39.827 Z-1.227 F60.000
G1 X-9.412 Y-39.827 Z-1.250 F60.000
G1 X-9.412 Y-30.003 Z-1.277 F60.000
G1 X-1.088 Y-30.003 Z-1.300 F60.000
G1 X-1.088 Y-39.827 Z-1.327 F60.000
G1 X-9.412 Y-39.827 Z-1.350 F60.000
G1 X-9.412 Y-30.003 Z-1.377 F60.000
G1 X-1.088 Y-30.003 Z-1.400 F60.000
G1 X-1.088 Y-39.827 Z-1.427 F60.000
G1 X-9.412 Y-39.827 Z-1.450 F60.000
G1 X-9.412 Y-30.003 Z-1.477 F60.000
G1 X-1.088 Y-30.003 Z-1.500 F60.000
G1 X-1.088 Y-39.827 Z-1.527 F60.000
G1 X-9.412 Y-39.827 Z-1.550 F60.000
G1 X-9.412 Y-30.003 Z-1.577 F60.000
G1 X-1.088 Y-30.003 Z-1.600 F60.000
G1 X-1.088 Y-39.827 Z-1.627 F60.000
G1 X-9.412 Y-39.827 Z-1.650 F60.000
G1 X-9.412 Y-30.003 Z-1.677 F60.000
G1 X-1.088 Y-30.003 Z-1.700 F60.000
G1 X-1.088 Y-39.827 Z-1.727 F60.000
G1 X-9.412 Y-39.827 Z-1.750 F60.000
G1 X-9.412 Y-30.003 Z-1.777 F60.000
G1 X-1.088 Y-30.003 Z-1.800 F60.000
G1 X-1.088 Y-39.827 Z-1.827 F60.000
G1 X-9.412 Y-39.827 Z-1.850 F60.000
G1 X-9.412 Y-30.003 Z-1.877 F60.000
G1 X-1.088 Y-30.003 Z-1.900 F60.000
G1 X-1.088 Y-39.827 Z-1.927 F60.000
G1 X-9.412 Y-39.827 Z-1.950 F60.000
G1 X-9.412 Y-30.003 Z-1.977 F60.000
G1 X-1.088 Y-30.003 Z-2.000 F60.000
G1 X-1.088 Y-39.827 Z-2.027 F60.000
G1 X-9.412 Y-39.827 Z-2.050 F60.000
G1 X-9.412 Y-30.003 Z-2.077 F60.000
G1 X-1.088 Y-30.003 Z-2.100 F60.000
G1 X-1.088 Y-39.827 Z-2.100 F60.000
G1 X-9.412 Y-39.827 Z-2.100 F60.000
G1 X-9.412 Y-30.003 Z-2.100 F60.000
G1 X-1.088 Y-30.003 Z-2.100 F60.000
G0 X-1.088 Y-30.003 Z5.000
(Finish operation: RampEntryDressup006)
(Begin operation: RampEntryDressup007)
(Path: RampEntryDressup007)
G0 X0.000 Y0.000 Z5.000
G0 X-1.088 Y42.797 Z5.000
G0 X-1.088 Y42.797 Z0.200
G1 X-1.087 Y35.973 Z0.135 F60.000
G1 X-9.912 Y35.973 Z0.050 F60.000
G1 X-9.912 Y42.797 Z-0.015 F60.000
G1 X-1.088 Y42.797 Z-0.100 F60.000
G1 X-1.087 Y35.973 Z-0.122 F60.000
G1 X-9.912 Y35.973 Z-0.150 F60.000
G1 X-9.912 Y42.797 Z-0.172 F60.000
G1 X-1.088 Y42.797 Z-0.200 F60.000
G1 X-1.087 Y35.973 Z-0.222 F60.000
G1 X-9.912 Y35.973 Z-0.250 F60.000
G1 X-9.912 Y42.797 Z-0.272 F60.000
G1 X-1.088 Y42.797 Z-0.300 F60.000
G1 X-1.087 Y35.973 Z-0.322 F60.000
G1 X-9.912 Y35.973 Z-0.350 F60.000
G1 X-9.912 Y42.797 Z-0.372 F60.000
G1 X-1.088 Y42.797 Z-0.400 F60.000
G1 X-1.087 Y35.973 Z-0.422 F60.000
G1 X-9.912 Y35.973 Z-0.450 F60.000
G1 X-9.912 Y42.797 Z-0.472 F60.000
G1 X-1.088 Y42.797 Z-0.500 F60.000
G1 X-1.087 Y35.973 Z-0.522 F60.000
G1 X-9.912 Y35.973 Z-0.550 F60.000
G1 X-9.912 Y42.797 Z-0.572 F60.000
G1 X-1.088 Y42.797 Z-0.600 F60.000
G1 X-1.087 Y35.973 Z-0.622 F60.000
G1 X-9.912 Y35.973 Z-0.650 F60.000
G1 X-9.912 Y42.797 Z-0.672 F60.000
G1 X-1.088 Y42.797 Z-0.700 F60.000
G1 X-1.087 Y35.973 Z-0.722 F60.000
G1 X-9.912 Y35.973 Z-0.750 F60.000
G1 X-9.912 Y42.797 Z-0.772 F60.000
G1 X-1.088 Y42.797 Z-0.800 F60.000
G1 X-1.087 Y35.973 Z-0.822 F60.000
G1 X-9.912 Y35.973 Z-0.850 F60.000
G1 X-9.912 Y42.797 Z-0.872 F60.000
G1 X-1.088 Y42.797 Z-0.900 F60.000
G1 X-1.087 Y35.973 Z-0.922 F60.000
G1 X-9.912 Y35.973 Z-0.950 F60.000
G1 X-9.912 Y42.797 Z-0.972 F60.000
G1 X-1.088 Y42.797 Z-1.000 F60.000
G1 X-1.087 Y35.973 Z-1.022 F60.000
G1 X-9.912 Y35.973 Z-1.050 F60.000
G1 X-9.912 Y42.797 Z-1.072 F60.000
G1 X-1.088 Y42.797 Z-1.100 F60.000
G1 X-1.087 Y35.973 Z-1.122 F60.000
G1 X-9.912 Y35.973 Z-1.150 F60.000
G1 X-9.912 Y42.797 Z-1.172 F60.000
G1 X-1.088 Y42.797 Z-1.200 F60.000
G1 X-1.087 Y35.973 Z-1.222 F60.000
G1 X-9.912 Y35.973 Z-1.250 F60.000
G1 X-9.912 Y42.797 Z-1.272 F60.000
G1 X-1.088 Y42.797 Z-1.300 F60.000
G1 X-1.087 Y35.973 Z-1.322 F60.000
G1 X-9.912 Y35.973 Z-1.350 F60.000
G1 X-9.912 Y42.797 Z-1.372 F60.000
G1 X-1.088 Y42.797 Z-1.400 F60.000
G1 X-1.087 Y35.973 Z-1.422 F60.000
G1 X-9.912 Y35.973 Z-1.450 F60.000
G1 X-9.912 Y42.797 Z-1.472 F60.000
G1 X-1.088 Y42.797 Z-1.500 F60.000
G1 X-1.087 Y35.973 Z-1.522 F60.000
G1 X-9.912 Y35.973 Z-1.550 F60.000
G1 X-9.912 Y42.797 Z-1.572 F60.000
G1 X-1.088 Y42.797 Z-1.600 F60.000
G1 X-1.087 Y35.973 Z-1.622 F60.000
G1 X-9.912 Y35.973 Z-1.650 F60.000
G1 X-9.912 Y42.797 Z-1.672 F60.000
G1 X-1.088 Y42.797 Z-1.700 F60.000
G1 X-1.087 Y35.973 Z-1.722 F60.000
G1 X-9.912 Y35.973 Z-1.750 F60.000
G1 X-9.912 Y42.797 Z-1.772 F60.000
G1 X-1.088 Y42.797 Z-1.800 F60.000
G1 X-1.087 Y35.973 Z-1.822 F60.000
G1 X-9.912 Y35.973 Z-1.850 F60.000
G1 X-9.912 Y42.797 Z-1.872 F60.000
G1 X-1.088 Y42.797 Z-1.900 F60.000
G1 X-1.087 Y35.973 Z-1.922 F60.000
G1 X-9.912 Y35.973 Z-1.950 F60.000
G1 X-9.912 Y42.797 Z-1.972 F60.000
G1 X-1.088 Y42.797 Z-2.000 F60.000
G1 X-1.087 Y35.973 Z-2.022 F60.000
G1 X-9.912 Y35.973 Z-2.050 F60.000
G1 X-9.912 Y42.797 Z-2.072 F60.000
G1 X-1.088 Y42.797 Z-2.100 F60.000
G1 X-1.087 Y35.973 Z-2.100 F60.000
G1 X-9.912 Y35.973 Z-2.100 F60.000
G1 X-9.912 Y42.797 Z-2.100 F60.000
G1 X-1.088 Y42.797 Z-2.100 F60.000
G0 X-1.088 Y42.797 Z5.000
(Finish operation: RampEntryDressup007)
(Begin operation: RampEntryDressup008)
(Path: RampEntryDressup008)
G0 X0.000 Y0.000 Z5.000
G0 X-4.367 Y10.233 Z5.000
G0 X-4.367 Y10.233 Z0.200
G1 X-4.303 Y10.043 Z0.199 F60.000
G1 X-4.262 Y9.847 Z0.198 F60.000
G1 X-4.217 Y8.966 Z0.194 F60.000
G1 X-4.238 Y8.085 Z0.190 F60.000
G1 X-4.198 Y7.732 Z0.189 F60.000
G1 X-4.080 Y7.396 Z0.187 F60.000
G1 X-3.891 Y7.095 Z0.186 F60.000
G1 X-3.640 Y6.844 Z0.184 F60.000
G1 X-3.339 Y6.655 Z0.182 F60.000
G1 X-3.003 Y6.537 Z0.181 F60.000
G1 X-2.296 Y6.478 Z0.178 F60.000
G1 X-1.588 Y6.497 Z0.175 F60.000
G1 X-1.588 Y-11.927 Z0.094 F60.000
G1 X-2.650 Y-11.927 Z0.089 F60.000
G1 X-2.967 Y-11.959 Z0.088 F60.000
G1 X-3.271 Y-12.054 Z0.086 F60.000
G1 X-3.550 Y-12.208 Z0.085 F60.000
G1 X-3.793 Y-12.414 Z0.083 F60.000
G1 X-3.990 Y-12.664 Z0.082 F60.000
G1 X-4.133 Y-12.949 Z0.080 F60.000
G1 X-4.216 Y-13.256 Z0.079 F60.000
G1 X-4.236 Y-13.574 Z0.078 F60.000
G1 X-4.217 Y-14.250 Z0.075 F60.000
G1 X-4.235 Y-14.926 Z0.072 F60.000
G1 X-4.258 Y-15.291 Z0.070 F60.000
G1 X-4.355 Y-15.643 Z0.069 F60.000
G1 X-4.522 Y-15.967 Z0.067 F60.000
G1 X-4.751 Y-16.251 Z0.065 F60.000
G1 X-5.034 Y-16.483 Z0.064 F60.000
G1 X-5.358 Y-16.652 Z0.062 F60.000
G1 X-5.695 Y-16.746 Z0.061 F60.000
G1 X-6.044 Y-16.773 Z0.059 F60.000
G1 X-6.391 Y-16.729 Z0.058 F60.000
G1 X-6.723 Y-16.617 Z0.056 F60.000
G1 X-7.026 Y-16.442 Z0.054 F60.000
G1 X-7.289 Y-16.211 Z0.053 F60.000
G1 X-7.500 Y-15.932 Z0.051 F60.000
G1 X-7.652 Y-15.616 Z0.049 F60.000
G1 X-7.738 Y-15.277 Z0.048 F60.000
G1 X-7.783 Y-14.396 Z0.044 F60.000
G1 X-7.762 Y-13.515 Z0.040 F60.000
G1 X-7.802 Y-13.162 Z0.039 F60.000
G1 X-7.920 Y-12.826 Z0.037 F60.000
G1 X-8.109 Y-12.525 Z0.036 F60.000
G1 X-8.360 Y-12.274 Z0.034 F60.000
G1 X-8.661 Y-12.085 Z0.032 F60.000
G1 X-8.997 Y-11.967 Z0.031 F60.000
G1 X-9.704 Y-11.908 Z0.028 F60.000
G1 X-10.412 Y-11.927 Z0.025 F60.000
G1 X-10.412 Y6.497 Z-0.056 F60.000
G1 X-9.350 Y6.497 Z-0.061 F60.000
G1 X-9.033 Y6.529 Z-0.062 F60.000
G1 X-8.729 Y6.624 Z-0.064 F60.000
G1 X-8.450 Y6.778 Z-0.065 F60.000
G1 X-8.207 Y6.984 Z-0.067 F60.000
G1 X-8.010 Y7.234 Z-0.068 F60.000
G1 X-7.867 Y7.519 Z-0.070 F60.000
G1 X-7.784 Y7.826 Z-0.071 F60.000
G1 X-7.764 Y8.144 Z-0.072 F60.000
G1 X-7.783 Y8.820 Z-0.075 F60.000
G1 X-7.765 Y9.496 Z-0.078 F60.000
G1 X-7.746 Y9.849 Z-0.079 F60.000
G1 X-7.657 Y10.191 Z-0.080 F60.000
G1 X-7.503 Y10.508 Z-0.081 F60.000
G1 X-7.288 Y10.788 Z-0.083 F60.000
G1 X-7.021 Y11.020 Z-0.085 F60.000
G1 X-6.714 Y11.194 Z-0.087 F60.000
G1 X-6.378 Y11.303 Z-0.089 F60.000
G1 X-6.027 Y11.343 Z-0.091 F60.000
G1 X-5.675 Y11.312 Z-0.093 F60.000
G1 X-5.336 Y11.211 Z-0.095 F60.000
G1 X-5.025 Y11.046 Z-0.097 F60.000
G1 X-4.752 Y10.821 Z-0.098 F60.000
G1 X-4.530 Y10.547 Z-0.099 F60.000
G1 X-4.367 Y10.233 Z-0.100 F60.000
G1 X-4.303 Y10.043 Z-0.100 F60.000
G1 X-4.262 Y9.847 Z-0.101 F60.000
G1 X-4.217 Y8.966 Z-0.102 F60.000
G1 X-4.238 Y8.085 Z-0.103 F60.000
G1 X-4.198 Y7.732 Z-0.104 F60.000
G1 X-4.080 Y7.396 Z-0.104 F60.000
G1 X-3.891 Y7.095 Z-0.105 F60.000
G1 X-3.640 Y6.844 Z-0.105 F60.000
G1 X-3.339 Y6.655 Z-0.106 F60.000
G1 X-3.003 Y6.537 Z-0.106 F60.000
G1 X-2.296 Y6.478 Z-0.107 F60.000
G1 X-1.588 Y6.497 Z-0.108 F60.000
G1 X-1.588 Y-11.927 Z-0.135 F60.000
G1 X-2.650 Y-11.927 Z-0.137 F60.000
G1 X-2.967 Y-11.959 Z-0.137 F60.000
G1 X-3.271 Y-12.054 Z-0.138 F60.000
G1 X-3.550 Y-12.208 Z-0.138 F60.000
G1 X-3.793 Y-12.414 Z-0.139 F60.000
G1 X-3.990 Y-12.664 Z-0.139 F60.000
G1 X-4.133 Y-12.949 Z-0.140 F60.000
G1 X-4.216 Y-13.256 Z-0.140 F60.000
G1 X-4.236 Y-13.574 Z-0.141 F60.000
G1 X-4.217 Y-14.250 Z-0.142 F60.000
G1 X-4.235 Y-14.926 Z-0.143 F60.000
G1 X-4.258 Y-15.291 Z-0.143 F60.000
G1 X-4.355 Y-15.643 Z-0.144 F60.000
G1 X-4.522 Y-15.967 Z-0.144 F60.000
G1 X-4.751 Y-16.251 Z-0.145 F60.000
G1 X-5.034 Y-16.483 Z-0.145 F60.000
G1 X-5.358 Y-16.652 Z-0.146 F60.000
G1 X-5.695 Y-16.746 Z-0.146 F60.000
G1 X-6.044 Y-16.773 Z-0.147 F60.000
G1 X-6.391 Y-16.729 Z-0.147 F60.000
G1 X-6.723 Y-16.617 Z-0.148 F60.000
G1 X-7.026 Y-16.442 Z-0.149 F60.000
G1 X-7.289 Y-16.211 Z-0.149 F60.000
G1 X-7.500 Y-15.932 Z-0.150 F60.000
G1 X-7.652 Y-15.616 Z-0.150 F60.000
G1 X-7.738 Y-15.277 Z-0.151 F60.000
G1 X-7.783 Y-14.396 Z-0.152 F60.000
G1 X-7.762 Y-13.515 Z-0.153 F60.000
G1 X-7.802 Y-13.162 Z-0.154 F60.000
G1 X-7.920 Y-12.826 Z-0.154 F60.000
G1 X-8.109 Y-12.525 Z-0.155 F60.000
G1 X-8.360 Y-12.274 Z-0.155 F60.000
G1 X-8.661 Y-12.085 Z-0.156 F60.000
G1 X-8.997 Y-11.967 Z-0.156 F60.000
G1 X-9.704 Y-11.908 Z-0.157 F60.000
G1 X-10.412 Y-11.927 Z-0.158 F60.000
G1 X-10.412 Y6.497 Z-0.185 F60.000
G1 X-9.350 Y6.497 Z-0.187 F60.000
G1 X-9.033 Y6.529 Z-0.187 F60.000
G1 X-8.729 Y6.624 Z-0.188 F60.000
G1 X-8.450 Y6.778 Z-0.188 F60.000
G1 X-8.207 Y6.984 Z-0.189 F60.000
G1 X-8.010 Y7.234 Z-0.189 F60.000
G1 X-7.867 Y7.519 Z-0.190 F60.000
G1 X-7.784 Y7.826 Z-0.190 F60.000
G1 X-7.764 Y8.144 Z-0.191 F60.000
G1 X-7.783 Y8.820 Z-0.192 F60.000
G1 X-7.765 Y9.496 Z-0.193 F60.000
G1 X-7.746 Y9.849 Z-0.193 F60.000
G1 X-7.658 Y10.191 Z-0.193 F60.000
G1 X-7.503 Y10.508 Z-0.194 F60.000
G1 X-7.288 Y10.788 Z-0.194 F60.000
G1 X-7.021 Y11.020 Z-0.195 F60.000
G1 X-6.714 Y11.194 Z-0.196 F60.000
G1 X-6.378 Y11.303 Z-0.196 F60.000
G1 X-6.027 Y11.343 Z-0.197 F60.000
G1 X-5.675 Y11.312 Z-0.198 F60.000
G1 X-5.336 Y11.211 Z-0.198 F60.000
G1 X-5.025 Y11.046 Z-0.199 F60.000
G1 X-4.752 Y10.821 Z-0.199 F60.000
G1 X-4.530 Y10.547 Z-0.200 F60.000
G1 X-4.367 Y10.233 Z-0.200 F60.000
G1 X-4.303 Y10.043 Z-0.200 F60.000
G1 X-4.262 Y9.847 Z-0.201 F60.000
G1 X-4.217 Y8.966 Z-0.202 F60.000
G1 X-4.238 Y8.085 Z-0.203 F60.000
G1 X-4.198 Y7.732 Z-0.204 F60.000
G1 X-4.080 Y7.396 Z-0.204 F60.000
G1 X-3.891 Y7.095 Z-0.205 F60.000
G1 X-3.640 Y6.844 Z-0.205 F60.000
G1 X-3.339 Y6.655 Z-0.206 F60.000
G1 X-3.003 Y6.537 Z-0.206 F60.000
G1 X-2.296 Y6.478 Z-0.207 F60.000
G1 X-1.588 Y6.497 Z-0.208 F60.000
G1 X-1.588 Y-11.927 Z-0.235 F60.000
G1 X-2.650 Y-11.927 Z-0.237 F60.000
G1 X-2.967 Y-11.959 Z-0.237 F60.000
G1 X-3.271 Y-12.054 Z-0.238 F60.000
G1 X-3.550 Y-12.208 Z-0.238 F60.000
G1 X-3.793 Y-12.414 Z-0.239 F60.000
G1 X-3.990 Y-12.664 Z-0.239 F60.000
G1 X-4.133 Y-12.949 Z-0.240 F60.000
G1 X-4.216 Y-13.256 Z-0.240 F60.000
G1 X-4.236 Y-13.574 Z-0.241 F60.000
G1 X-4.217 Y-14.250 Z-0.242 F60.000
G1 X-4.235 Y-14.926 Z-0.243 F60.000
G1 X-4.258 Y-15.291 Z-0.243 F60.000
G1 X-4.355 Y-15.643 Z-0.244 F60.000
G1 X-4.522 Y-15.967 Z-0.244 F60.000
G1 X-4.751 Y-16.251 Z-0.245 F60.000
G1 X-5.034 Y-16.483 Z-0.245 F60.000
G1 X-5.358 Y-16.652 Z-0.246 F60.000
G1 X-5.695 Y-16.746 Z-0.246 F60.000
G1 X-6.044 Y-16.773 Z-0.247 F60.000
G1 X-6.391 Y-16.729 Z-0.247 F60.000
G1 X-6.723 Y-16.617 Z-0.248 F60.000
G1 X-7.026 Y-16.442 Z-0.249 F60.000
G1 X-7.289 Y-16.211 Z-0.249 F60.000
G1 X-7.500 Y-15.932 Z-0.250 F60.000
G1 X-7.652 Y-15.616 Z-0.250 F60.000
G1 X-7.738 Y-15.277 Z-0.251 F60.000
G1 X-7.783 Y-14.396 Z-0.252 F60.000
G1 X-7.762 Y-13.515 Z-0.253 F60.000
G1 X-7.802 Y-13.162 Z-0.254 F60.000
G1 X-7.920 Y-12.826 Z-0.254 F60.000
G1 X-8.109 Y-12.525 Z-0.255 F60.000
G1 X-8.360 Y-12.274 Z-0.255 F60.000
G1 X-8.661 Y-12.085 Z-0.256 F60.000
G1 X-8.997 Y-11.967 Z-0.256 F60.000
G1 X-9.704 Y-11.908 Z-0.257 F60.000
G1 X-10.412 Y-11.927 Z-0.258 F60.000
G1 X-10.412 Y6.497 Z-0.285 F60.000
G1 X-9.350 Y6.497 Z-0.287 F60.000
G1 X-9.033 Y6.529 Z-0.287 F60.000
G1 X-8.729 Y6.624 Z-0.288 F60.000
G1 X-8.450 Y6.778 Z-0.288 F60.000
G1 X-8.207 Y6.984 Z-0.289 F60.000
G1 X-8.010 Y7.234 Z-0.289 F60.000
G1 X-7.867 Y7.519 Z-0.290 F60.000
G1 X-7.784 Y7.826 Z-0.290 F60.000
G1 X-7.764 Y8.144 Z-0.291 F60.000
G1 X-7.783 Y8.820 Z-0.292 F60.000
G1 X-7.765 Y9.496 Z-0.293 F60.000
G1 X-7.746 Y9.849 Z-0.293 F60.000
G1 X-7.658 Y10.191 Z-0.293 F60.000
G1 X-7.503 Y10.508 Z-0.294 F60.000
G1 X-7.288 Y10.788 Z-0.294 F60.000
G1 X-7.021 Y11.020 Z-0.295 F60.000
G1 X-6.714 Y11.194 Z-0.296 F60.000
G1 X-6.378 Y11.303 Z-0.296 F60.000
G1 X-6.027 Y11.343 Z-0.297 F60.000
G1 X-5.675 Y11.312 Z-0.298 F60.000
G1 X-5.336 Y11.211 Z-0.298 F60.000
G1 X-5.025 Y11.046 Z-0.299 F60.000
G1 X-4.752 Y10.821 Z-0.299 F60.000
G1 X-4.530 Y10.547 Z-0.300 F60.000
G1 X-4.367 Y10.233 Z-0.300 F60.000
G1 X-4.303 Y10.043 Z-0.300 F60.000
G1 X-4.262 Y9.847 Z-0.301 F60.000
G1 X-4.217 Y8.966 Z-0.302 F60.000
G1 X-4.238 Y8.085 Z-0.303 F60.000
G1 X-4.198 Y7.732 Z-0.304 F60.000
G1 X-4.080 Y7.396 Z-0.304 F60.000
G1 X-3.891 Y7.095 Z-0.305 F60.000
G1 X-3.640 Y6.844 Z-0.305 F60.000
G1 X-3.339 Y6.655 Z-0.306 F60.000
G1 X-3.003 Y6.537 Z-0.306 F60.000
G1 X-2.296 Y6.478 Z-0.307 F60.000
G1 X-1.588 Y6.497 Z-0.308 F60.000
G1 X-1.588 Y-11.927 Z-0.335 F60.000
G1 X-2.650 Y-11.927 Z-0.337 F60.000
G1 X-2.967 Y-11.959 Z-0.337 F60.000
G1 X-3.271 Y-12.054 Z-0.338 F60.000
G1 X-3.550 Y-12.208 Z-0.338 F60.000
G1 X-3.793 Y-12.414 Z-0.339 F60.000
G1 X-3.990 Y-12.664 Z-0.339 F60.000
G1 X-4.133 Y-12.949 Z-0.340 F60.000
G1 X-4.216 Y-13.256 Z-0.340 F60.000
G1 X-4.236 Y-13.574 Z-0.341 F60.000
G1 X-4.217 Y-14.250 Z-0.342 F60.000
G1 X-4.235 Y-14.926 Z-0.343 F60.000
G1 X-4.258 Y-15.291 Z-0.343 F60.000
G1 X-4.355 Y-15.643 Z-0.344 F60.000
G1 X-4.522 Y-15.967 Z-0.344 F60.000
G1 X-4.751 Y-16.251 Z-0.345 F60.000
G1 X-5.034 Y-16.483 Z-0.345 F60.000
G1 X-5.358 Y-16.652 Z-0.346 F60.000
G1 X-5.695 Y-16.746 Z-0.346 F60.000
G1 X-6.044 Y-16.773 Z-0.347 F60.000
G1 X-6.391 Y-16.729 Z-0.347 F60.000
G1 X-6.723 Y-16.617 Z-0.348 F60.000
G1 X-7.026 Y-16.442 Z-0.349 F60.000
G1 X-7.289 Y-16.211 Z-0.349 F60.000
G1 X-7.500 Y-15.932 Z-0.350 F60.000
G1 X-7.652 Y-15.616 Z-0.350 F60.000
G1 X-7.738 Y-15.277 Z-0.351 F60.000
G1 X-7.783 Y-14.396 Z-0.352 F60.000
G1 X-7.762 Y-13.515 Z-0.353 F60.000
G1 X-7.802 Y-13.162 Z-0.354 F60.000
G1 X-7.920 Y-12.826 Z-0.354 F60.000
G1 X-8.109 Y-12.525 Z-0.355 F60.000
G1 X-8.360 Y-12.274 Z-0.355 F60.000
G1 X-8.661 Y-12.085 Z-0.356 F60.000
G1 X-8.997 Y-11.967 Z-0.356 F60.000
G1 X-9.704 Y-11.908 Z-0.357 F60.000
G1 X-10.412 Y-11.927 Z-0.358 F60.000
G1 X-10.412 Y6.497 Z-0.385 F60.000
G1 X-9.350 Y6.497 Z-0.387 F60.000
G1 X-9.033 Y6.529 Z-0.387 F60.000
G1 X-8.729 Y6.624 Z-0.388 F60.000
G1 X-8.450 Y6.778 Z-0.388 F60.000
G1 X-8.207 Y6.984 Z-0.389 F60.000
G1 X-8.010 Y7.234 Z-0.389 F60.000
G1 X-7.867 Y7.519 Z-0.390 F60.000
G1 X-7.784 Y7.826 Z-0.390 F60.000
G1 X-7.764 Y8.144 Z-0.391 F60.000
G1 X-7.783 Y8.820 Z-0.392 F60.000
G1 X-7.765 Y9.496 Z-0.393 F60.000
G1 X-7.746 Y9.849 Z-0.393 F60.000
G1 X-7.658 Y10.191 Z-0.393 F60.000
G1 X-7.503 Y10.508 Z-0.394 F60.000
G1 X-7.288 Y10.788 Z-0.394 F60.000
G1 X-7.021 Y11.020 Z-0.395 F60.000
G1 X-6.714 Y11.194 Z-0.396 F60.000
G1 X-6.378 Y11.303 Z-0.396 F60.000
G1 X-6.027 Y11.343 Z-0.397 F60.000
G1 X-5.675 Y11.312 Z-0.398 F60.000
G1 X-5.336 Y11.211 Z-0.398 F60.000
G1 X-5.025 Y11.046 Z-0.399 F60.000
G1 X-4.752 Y10.821 Z-0.399 F60.000
G1 X-4.530 Y10.547 Z-0.400 F60.000
G1 X-4.367 Y10.233 Z-0.400 F60.000
G1 X-4.303 Y10.043 Z-0.400 F60.000
G1 X-4.262 Y9.847 Z-0.401 F60.000
G1 X-4.217 Y8.966 Z-0.402 F60.000
G1 X-4.238 Y8.085 Z-0.403 F60.000
G1 X-4.198 Y7.732 Z-0.404 F60.000
G1 X-4.080 Y7.396 Z-0.404 F60.000
G1 X-3.891 Y7.095 Z-0.405 F60.000
G1 X-3.640 Y6.844 Z-0.405 F60.000
G1 X-3.339 Y6.655 Z-0.406 F60.000
G1 X-3.003 Y6.537 Z-0.406 F60.000
G1 X-2.296 Y6.478 Z-0.407 F60.000
G1 X-1.588 Y6.497 Z-0.408 F60.000
G1 X-1.588 Y-11.927 Z-0.435 F60.000
G1 X-2.650 Y-11.927 Z-0.437 F60.000
G1 X-2.967 Y-11.959 Z-0.437 F60.000
G1 X-3.271 Y-12.054 Z-0.438 F60.000
G1 X-3.550 Y-12.208 Z-0.438 F60.000
G1 X-3.793 Y-12.414 Z-0.439 F60.000
G1 X-3.990 Y-12.664 Z-0.439 F60.000
G1 X-4.133 Y-12.949 Z-0.440 F60.000
G1 X-4.216 Y-13.256 Z-0.440 F60.000
G1 X-4.236 Y-13.574 Z-0.441 F60.000
G1 X-4.217 Y-14.250 Z-0.442 F60.000
G1 X-4.235 Y-14.926 Z-0.443 F60.000
G1 X-4.258 Y-15.291 Z-0.443 F60.000
G1 X-4.355 Y-15.643 Z-0.444 F60.000
G1 X-4.522 Y-15.967 Z-0.444 F60.000
G1 X-4.751 Y-16.251 Z-0.445 F60.000
G1 X-5.034 Y-16.483 Z-0.445 F60.000
G1 X-5.358 Y-16.652 Z-0.446 F60.000
G1 X-5.695 Y-16.746 Z-0.446 F60.000
G1 X-6.044 Y-16.773 Z-0.447 F60.000
G1 X-6.391 Y-16.729 Z-0.447 F60.000
G1 X-6.723 Y-16.617 Z-0.448 F60.000
G1 X-7.026 Y-16.442 Z-0.449 F60.000
G1 X-7.289 Y-16.211 Z-0.449 F60.000
G1 X-7.500 Y-15.932 Z-0.450 F60.000
G1 X-7.652 Y-15.616 Z-0.450 F60.000
G1 X-7.738 Y-15.277 Z-0.451 F60.000
G1 X-7.783 Y-14.396 Z-0.452 F60.000
G1 X-7.762 Y-13.515 Z-0.453 F60.000
G1 X-7.802 Y-13.162 Z-0.454 F60.000
G1 X-7.920 Y-12.826 Z-0.454 F60.000
G1 X-8.109 Y-12.525 Z-0.455 F60.000
G1 X-8.360 Y-12.274 Z-0.455 F60.000
G1 X-8.661 Y-12.085 Z-0.456 F60.000
G1 X-8.997 Y-11.967 Z-0.456 F60.000
G1 X-9.704 Y-11.908 Z-0.457 F60.000
G1 X-10.412 Y-11.927 Z-0.458 F60.000
G1 X-10.412 Y6.497 Z-0.485 F60.000
G1 X-9.350 Y6.497 Z-0.487 F60.000
G1 X-9.033 Y6.529 Z-0.487 F60.000
G1 X-8.729 Y6.624 Z-0.488 F60.000
G1 X-8.450 Y6.778 Z-0.488 F60.000
G1 X-8.207 Y6.984 Z-0.489 F60.000
G1 X-8.010 Y7.234 Z-0.489 F60.000
G1 X-7.867 Y7.519 Z-0.490 F60.000
G1 X-7.784 Y7.826 Z-0.490 F60.000
G1 X-7.764 Y8.144 Z-0.491 F60.000
G1 X-7.783 Y8.820 Z-0.492 F60.000
G1 X-7.765 Y9.496 Z-0.493 F60.000
G1 X-7.746 Y9.849 Z-0.493 F60.000
G1 X-7.658 Y10.191 Z-0.493 F60.000
G1 X-7.503 Y10.508 Z-0.494 F60.000
G1 X-7.288 Y10.788 Z-0.494 F60.000
G1 X-7.021 Y11.020 Z-0.495 F60.000
G1 X-6.714 Y11.194 Z-0.496 F60.000
G1 X-6.378 Y11.303 Z-0.496 F60.000
G1 X-6.027 Y11.343 Z-0.497 F60.000
G1 X-5.675 Y11.312 Z-0.498 F60.000
G1 X-5.336 Y11.211 Z-0.498 F60.000
G1 X-5.025 Y11.046 Z-0.499 F60.000
G1 X-4.752 Y10.821 Z-0.499 F60.000
G1 X-4.530 Y10.547 Z-0.500 F60.000
G1 X-4.367 Y10.233 Z-0.500 F60.000
G1 X-4.303 Y10.043 Z-0.500 F60.000
G1 X-4.262 Y9.847 Z-0.501 F60.000
G1 X-4.217 Y8.966 Z-0.502 F60.000
G1 X-4.238 Y8.085 Z-0.503 F60.000
G1 X-4.198 Y7.732 Z-0.504 F60.000
G1 X-4.080 Y7.396 Z-0.504 F60.000
G1 X-3.891 Y7.095 Z-0.505 F60.000
G1 X-3.640 Y6.844 Z-0.505 F60.000
G1 X-3.339 Y6.655 Z-0.506 F60.000
G1 X-3.003 Y6.537 Z-0.506 F60.000
G1 X-2.296 Y6.478 Z-0.507 F60.000
G1 X-1.588 Y6.497 Z-0.508 F60.000
G1 X-1.588 Y-11.927 Z-0.535 F60.000
G1 X-2.650 Y-11.927 Z-0.537 F60.000
G1 X-2.967 Y-11.959 Z-0.537 F60.000
G1 X-3.271 Y-12.054 Z-0.538 F60.000
G1 X-3.550 Y-12.208 Z-0.538 F60.000
G1 X-3.793 Y-12.414 Z-0.539 F60.000
G1 X-3.990 Y-12.664 Z-0.539 F60.000
G1 X-4.133 Y-12.949 Z-0.540 F60.000
G1 X-4.216 Y-13.256 Z-0.540 F60.000
G1 X-4.236 Y-13.574 Z-0.541 F60.000
G1 X-4.217 Y-14.250 Z-0.542 F60.000
G1 X-4.235 Y-14.926 Z-0.543 F60.000
G1 X-4.258 Y-15.291 Z-0.543 F60.000
G1 X-4.355 Y-15.643 Z-0.544 F60.000
G1 X-4.522 Y-15.967 Z-0.544 F60.000
G1 X-4.751 Y-16.251 Z-0.545 F60.000
G1 X-5.034 Y-16.483 Z-0.545 F60.000
G1 X-5.358 Y-16.652 Z-0.546 F60.000
G1 X-5.695 Y-16.746 Z-0.546 F60.000
G1 X-6.044 Y-16.773 Z-0.547 F60.000
G1 X-6.391 Y-16.729 Z-0.547 F60.000
G1 X-6.723 Y-16.617 Z-0.548 F60.000
G1 X-7.026 Y-16.442 Z-0.549 F60.000
G1 X-7.289 Y-16.211 Z-0.549 F60.000
G1 X-7.500 Y-15.932 Z-0.550 F60.000
G1 X-7.652 Y-15.616 Z-0.550 F60.000
G1 X-7.738 Y-15.277 Z-0.551 F60.000
G1 X-7.783 Y-14.396 Z-0.552 F60.000
G1 X-7.762 Y-13.515 Z-0.553 F60.000
G1 X-7.802 Y-13.162 Z-0.554 F60.000
G1 X-7.920 Y-12.826 Z-0.554 F60.000
G1 X-8.109 Y-12.525 Z-0.555 F60.000
G1 X-8.360 Y-12.274 Z-0.555 F60.000
G1 X-8.661 Y-12.085 Z-0.556 F60.000
G1 X-8.997 Y-11.967 Z-0.556 F60.000
G1 X-9.704 Y-11.908 Z-0.557 F60.000
G1 X-10.412 Y-11.927 Z-0.558 F60.000
G1 X-10.412 Y6.497 Z-0.585 F60.000
G1 X-9.350 Y6.497 Z-0.587 F60.000
G1 X-9.033 Y6.529 Z-0.587 F60.000
G1 X-8.729 Y6.624 Z-0.588 F60.000
G1 X-8.450 Y6.778 Z-0.588 F60.000
G1 X-8.207 Y6.984 Z-0.589 F60.000
G1 X-8.010 Y7.234 Z-0.589 F60.000
G1 X-7.867 Y7.519 Z-0.590 F60.000
G1 X-7.784 Y7.826 Z-0.590 F60.000
G1 X-7.764 Y8.144 Z-0.591 F60.000
G1 X-7.783 Y8.820 Z-0.592 F60.000
G1 X-7.765 Y9.496 Z-0.593 F60.000
G1 X-7.746 Y9.849 Z-0.593 F60.000
G1 X-7.658 Y10.191 Z-0.593 F60.000
G1 X-7.503 Y10.508 Z-0.594 F60.000
G1 X-7.288 Y10.788 Z-0.594 F60.000
G1 X-7.021 Y11.020 Z-0.595 F60.000
G1 X-6.714 Y11.194 Z-0.596 F60.000
G1 X-6.378 Y11.303 Z-0.596 F60.000
G1 X-6.027 Y11.343 Z-0.597 F60.000
G1 X-5.675 Y11.312 Z-0.598 F60.000
G1 X-5.336 Y11.211 Z-0.598 F60.000
G1 X-5.025 Y11.046 Z-0.599 F60.000
G1 X-4.752 Y10.821 Z-0.599 F60.000
G1 X-4.530 Y10.547 Z-0.600 F60.000
G1 X-4.367 Y10.233 Z-0.600 F60.000
G1 X-4.303 Y10.043 Z-0.600 F60.000
G1 X-4.262 Y9.847 Z-0.601 F60.000
G1 X-4.217 Y8.966 Z-0.602 F60.000
G1 X-4.238 Y8.085 Z-0.603 F60.000
G1 X-4.198 Y7.732 Z-0.604 F60.000
G1 X-4.080 Y7.396 Z-0.604 F60.000
G1 X-3.891 Y7.095 Z-0.605 F60.000
G1 X-3.640 Y6.844 Z-0.605 F60.000
G1 X-3.339 Y6.655 Z-0.606 F60.000
G1 X-3.003 Y6.537 Z-0.606 F60.000
G1 X-2.296 Y6.478 Z-0.607 F60.000
G1 X-1.588 Y6.497 Z-0.608 F60.000
G1 X-1.588 Y-11.927 Z-0.635 F60.000
G1 X-2.650 Y-11.927 Z-0.637 F60.000
G1 X-2.967 Y-11.959 Z-0.637 F60.000
G1 X-3.271 Y-12.054 Z-0.638 F60.000
G1 X-3.550 Y-12.208 Z-0.638 F60.000
G1 X-3.793 Y-12.414 Z-0.639 F60.000
G1 X-3.990 Y-12.664 Z-0.639 F60.000
G1 X-4.133 Y-12.949 Z-0.640 F60.000
G1 X-4.216 Y-13.256 Z-0.640 F60.000
G1 X-4.236 Y-13.574 Z-0.641 F60.000
G1 X-4.217 Y-14.250 Z-0.642 F60.000
G1 X-4.235 Y-14.926 Z-0.643 F60.000
G1 X-4.258 Y-15.291 Z-0.643 F60.000
G1 X-4.355 Y-15.643 Z-0.644 F60.000
G1 X-4.522 Y-15.967 Z-0.644 F60.000
G1 X-4.751 Y-16.251 Z-0.645 F60.000
G1 X-5.034 Y-16.483 Z-0.645 F60.000
G1 X-5.358 Y-16.652 Z-0.646 F60.000
G1 X-5.695 Y-16.746 Z-0.646 F60.000
G1 X-6.044 Y-16.773 Z-0.647 F60.000
G1 X-6.391 Y-16.729 Z-0.647 F60.000
G1 X-6.723 Y-16.617 Z-0.648 F60.000
G1 X-7.026 Y-16.442 Z-0.649 F60.000
G1 X-7.289 Y-16.211 Z-0.649 F60.000
G1 X-7.500 Y-15.932 Z-0.650 F60.000
G1 X-7.652 Y-15.616 Z-0.650 F60.000
G1 X-7.738 Y-15.277 Z-0.651 F60.000
G1 X-7.783 Y-14.396 Z-0.652 F60.000
G1 X-7.762 Y-13.515 Z-0.653 F60.000
G1 X-7.802 Y-13.162 Z-0.654 F60.000
G1 X-7.920 Y-12.826 Z-0.654 F60.000
G1 X-8.109 Y-12.525 Z-0.655 F60.000
G1 X-8.360 Y-12.274 Z-0.655 F60.000
G1 X-8.661 Y-12.085 Z-0.656 F60.000
G1 X-8.997 Y-11.967 Z-0.656 F60.000
G1 X-9.704 Y-11.908 Z-0.657 F60.000
G1 X-10.412 Y-11.927 Z-0.658 F60.000
G1 X-10.412 Y6.497 Z-0.685 F60.000
G1 X-9.350 Y6.497 Z-0.687 F60.000
G1 X-9.033 Y6.529 Z-0.687 F60.000
G1 X-8.729 Y6.624 Z-0.688 F60.000
G1 X-8.450 Y6.778 Z-0.688 F60.000
G1 X-8.207 Y6.984 Z-0.689 F60.000
G1 X-8.010 Y7.234 Z-0.689 F60.000
G1 X-7.867 Y7.519 Z-0.690 F60.000
G1 X-7.784 Y7.826 Z-0.690 F60.000
G1 X-7.764 Y8.144 Z-0.691 F60.000
G1 X-7.783 Y8.820 Z-0.692 F60.000
G1 X-7.765 Y9.496 Z-0.693 F60.000
G1 X-7.746 Y9.849 Z-0.693 F60.000
G1 X-7.658 Y10.191 Z-0.693 F60.000
G1 X-7.503 Y10.508 Z-0.694 F60.000
G1 X-7.288 Y10.788 Z-0.694 F60.000
G1 X-7.021 Y11.020 Z-0.695 F60.000
G1 X-6.714 Y11.194 Z-0.696 F60.000
G1 X-6.378 Y11.303 Z-0.696 F60.000
G1 X-6.027 Y11.343 Z-0.697 F60.000
G1 X-5.675 Y11.312 Z-0.698 F60.000
G1 X-5.336 Y11.211 Z-0.698 F60.000
G1 X-5.025 Y11.046 Z-0.699 F60.000
G1 X-4.752 Y10.821 Z-0.699 F60.000
G1 X-4.530 Y10.547 Z-0.700 F60.000
G1 X-4.367 Y10.233 Z-0.700 F60.000
G1 X-4.303 Y10.043 Z-0.700 F60.000
G1 X-4.262 Y9.847 Z-0.701 F60.000
G1 X-4.217 Y8.966 Z-0.702 F60.000
G1 X-4.238 Y8.085 Z-0.703 F60.000
G1 X-4.198 Y7.732 Z-0.704 F60.000
G1 X-4.080 Y7.396 Z-0.704 F60.000
G1 X-3.891 Y7.095 Z-0.705 F60.000
G1 X-3.640 Y6.844 Z-0.705 F60.000
G1 X-3.339 Y6.655 Z-0.706 F60.000
G1 X-3.003 Y6.537 Z-0.706 F60.000
G1 X-2.296 Y6.478 Z-0.707 F60.000
G1 X-1.588 Y6.497 Z-0.708 F60.000
G1 X-1.588 Y-11.927 Z-0.735 F60.000
G1 X-2.650 Y-11.927 Z-0.737 F60.000
G1 X-2.967 Y-11.959 Z-0.737 F60.000
G1 X-3.271 Y-12.054 Z-0.738 F60.000
G1 X-3.550 Y-12.208 Z-0.738 F60.000
G1 X-3.793 Y-12.414 Z-0.739 F60.000
G1 X-3.990 Y-12.664 Z-0.739 F60.000
G1 X-4.133 Y-12.949 Z-0.740 F60.000
G1 X-4.216 Y-13.256 Z-0.740 F60.000
G1 X-4.236 Y-13.574 Z-0.741 F60.000
G1 X-4.217 Y-14.250 Z-0.742 F60.000
G1 X-4.235 Y-14.926 Z-0.743 F60.000
G1 X-4.258 Y-15.291 Z-0.743 F60.000
G1 X-4.355 Y-15.643 Z-0.744 F60.000
G1 X-4.522 Y-15.967 Z-0.744 F60.000
G1 X-4.751 Y-16.251 Z-0.745 F60.000
G1 X-5.034 Y-16.483 Z-0.745 F60.000
G1 X-5.358 Y-16.652 Z-0.746 F60.000
G1 X-5.695 Y-16.746 Z-0.746 F60.000
G1 X-6.044 Y-16.773 Z-0.747 F60.000
G1 X-6.391 Y-16.729 Z-0.747 F60.000
G1 X-6.723 Y-16.617 Z-0.748 F60.000
G1 X-7.026 Y-16.442 Z-0.749 F60.000
G1 X-7.289 Y-16.211 Z-0.749 F60.000
G1 X-7.500 Y-15.932 Z-0.750 F60.000
G1 X-7.652 Y-15.616 Z-0.750 F60.000
G1 X-7.738 Y-15.277 Z-0.751 F60.000
G1 X-7.783 Y-14.396 Z-0.752 F60.000
G1 X-7.762 Y-13.515 Z-0.753 F60.000
G1 X-7.802 Y-13.162 Z-0.754 F60.000
G1 X-7.920 Y-12.826 Z-0.754 F60.000
G1 X-8.109 Y-12.525 Z-0.755 F60.000
G1 X-8.360 Y-12.274 Z-0.755 F60.000
G1 X-8.661 Y-12.085 Z-0.756 F60.000
G1 X-8.997 Y-11.967 Z-0.756 F60.000
G1 X-9.704 Y-11.908 Z-0.757 F60.000
G1 X-10.412 Y-11.927 Z-0.758 F60.000
G1 X-10.412 Y6.497 Z-0.785 F60.000
G1 X-9.350 Y6.497 Z-0.787 F60.000
G1 X-9.033 Y6.529 Z-0.787 F60.000
G1 X-8.729 Y6.624 Z-0.788 F60.000
G1 X-8.450 Y6.778 Z-0.788 F60.000
G1 X-8.207 Y6.984 Z-0.789 F60.000
G1 X-8.010 Y7.234 Z-0.789 F60.000
G1 X-7.867 Y7.519 Z-0.790 F60.000
G1 X-7.784 Y7.826 Z-0.790 F60.000
G1 X-7.764 Y8.144 Z-0.791 F60.000
G1 X-7.783 Y8.820 Z-0.792 F60.000
G1 X-7.765 Y9.496 Z-0.793 F60.000
G1 X-7.746 Y9.849 Z-0.793 F60.000
G1 X-7.658 Y10.191 Z-0.793 F60.000
G1 X-7.503 Y10.508 Z-0.794 F60.000
G1 X-7.288 Y10.788 Z-0.794 F60.000
G1 X-7.021 Y11.020 Z-0.795 F60.000
G1 X-6.714 Y11.194 Z-0.796 F60.000
G1 X-6.378 Y11.303 Z-0.796 F60.000
G1 X-6.027 Y11.343 Z-0.797 F60.000
G1 X-5.675 Y11.312 Z-0.798 F60.000
G1 X-5.336 Y11.211 Z-0.798 F60.000
G1 X-5.025 Y11.046 Z-0.799 F60.000
G1 X-4.752 Y10.821 Z-0.799 F60.000
G1 X-4.530 Y10.547 Z-0.800 F60.000
G1 X-4.367 Y10.233 Z-0.800 F60.000
G1 X-4.303 Y10.043 Z-0.800 F60.000
G1 X-4.262 Y9.847 Z-0.801 F60.000
G1 X-4.217 Y8.966 Z-0.802 F60.000
G1 X-4.238 Y8.085 Z-0.803 F60.000
G1 X-4.198 Y7.732 Z-0.804 F60.000
G1 X-4.080 Y7.396 Z-0.804 F60.000
G1 X-3.891 Y7.095 Z-0.805 F60.000
G1 X-3.640 Y6.844 Z-0.805 F60.000
G1 X-3.339 Y6.655 Z-0.806 F60.000
G1 X-3.003 Y6.537 Z-0.806 F60.000
G1 X-2.296 Y6.478 Z-0.807 F60.000
G1 X-1.588 Y6.497 Z-0.808 F60.000
G1 X-1.588 Y-11.927 Z-0.835 F60.000
G1 X-2.650 Y-11.927 Z-0.837 F60.000
G1 X-2.967 Y-11.959 Z-0.837 F60.000
G1 X-3.271 Y-12.054 Z-0.838 F60.000
G1 X-3.550 Y-12.208 Z-0.838 F60.000
G1 X-3.793 Y-12.414 Z-0.839 F60.000
G1 X-3.990 Y-12.664 Z-0.839 F60.000
G1 X-4.133 Y-12.949 Z-0.840 F60.000
G1 X-4.216 Y-13.256 Z-0.840 F60.000
G1 X-4.236 Y-13.574 Z-0.841 F60.000
G1 X-4.217 Y-14.250 Z-0.842 F60.000
G1 X-4.235 Y-14.926 Z-0.843 F60.000
G1 X-4.258 Y-15.291 Z-0.843 F60.000
G1 X-4.355 Y-15.643 Z-0.844 F60.000
G1 X-4.522 Y-15.967 Z-0.844 F60.000
G1 X-4.751 Y-16.251 Z-0.845 F60.000
G1 X-5.034 Y-16.483 Z-0.845 F60.000
G1 X-5.358 Y-16.652 Z-0.846 F60.000
G1 X-5.695 Y-16.746 Z-0.846 F60.000
G1 X-6.044 Y-16.773 Z-0.847 F60.000
G1 X-6.391 Y-16.729 Z-0.847 F60.000
G1 X-6.723 Y-16.617 Z-0.848 F60.000
G1 X-7.026 Y-16.442 Z-0.849 F60.000
G1 X-7.289 Y-16.211 Z-0.849 F60.000
G1 X-7.500 Y-15.932 Z-0.850 F60.000
G1 X-7.652 Y-15.616 Z-0.850 F60.000
G1 X-7.738 Y-15.277 Z-0.851 F60.000
G1 X-7.783 Y-14.396 Z-0.852 F60.000
G1 X-7.762 Y-13.515 Z-0.853 F60.000
G1 X-7.802 Y-13.162 Z-0.854 F60.000
G1 X-7.920 Y-12.826 Z-0.854 F60.000
G1 X-8.109 Y-12.525 Z-0.855 F60.000
G1 X-8.360 Y-12.274 Z-0.855 F60.000
G1 X-8.661 Y-12.085 Z-0.856 F60.000
G1 X-8.997 Y-11.967 Z-0.856 F60.000
G1 X-9.704 Y-11.908 Z-0.857 F60.000
G1 X-10.412 Y-11.927 Z-0.858 F60.000
G1 X-10.412 Y6.497 Z-0.885 F60.000
G1 X-9.350 Y6.497 Z-0.887 F60.000
G1 X-9.033 Y6.529 Z-0.887 F60.000
G1 X-8.729 Y6.624 Z-0.888 F60.000
G1 X-8.450 Y6.778 Z-0.888 F60.000
G1 X-8.207 Y6.984 Z-0.889 F60.000
G1 X-8.010 Y7.234 Z-0.889 F60.000
G1 X-7.867 Y7.519 Z-0.890 F60.000
G1 X-7.784 Y7.826 Z-0.890 F60.000
G1 X-7.764 Y8.144 Z-0.891 F60.000
G1 X-7.783 Y8.820 Z-0.892 F60.000
G1 X-7.765 Y9.496 Z-0.893 F60.000
G1 X-7.746 Y9.849 Z-0.893 F60.000
G1 X-7.658 Y10.191 Z-0.893 F60.000
G1 X-7.503 Y10.508 Z-0.894 F60.000
G1 X-7.288 Y10.788 Z-0.894 F60.000
G1 X-7.021 Y11.020 Z-0.895 F60.000
G1 X-6.714 Y11.194 Z-0.896 F60.000
G1 X-6.378 Y11.303 Z-0.896 F60.000
G1 X-6.027 Y11.343 Z-0.897 F60.000
G1 X-5.675 Y11.312 Z-0.898 F60.000
G1 X-5.336 Y11.211 Z-0.898 F60.000
G1 X-5.025 Y11.046 Z-0.899 F60.000
G1 X-4.752 Y10.821 Z-0.899 F60.000
G1 X-4.530 Y10.547 Z-0.900 F60.000
G1 X-4.367 Y10.233 Z-0.900 F60.000
G1 X-4.303 Y10.043 Z-0.900 F60.000
G1 X-4.262 Y9.847 Z-0.901 F60.000
G1 X-4.217 Y8.966 Z-0.902 F60.000
G1 X-4.238 Y8.085 Z-0.903 F60.000
G1 X-4.198 Y7.732 Z-0.904 F60.000
G1 X-4.080 Y7.396 Z-0.904 F60.000
G1 X-3.891 Y7.095 Z-0.905 F60.000
G1 X-3.640 Y6.844 Z-0.905 F60.000
G1 X-3.339 Y6.655 Z-0.906 F60.000
G1 X-3.003 Y6.537 Z-0.906 F60.000
G1 X-2.296 Y6.478 Z-0.907 F60.000
G1 X-1.588 Y6.497 Z-0.908 F60.000
G1 X-1.588 Y-11.927 Z-0.935 F60.000
G1 X-2.650 Y-11.927 Z-0.937 F60.000
G1 X-2.967 Y-11.959 Z-0.937 F60.000
G1 X-3.271 Y-12.054 Z-0.938 F60.000
G1 X-3.550 Y-12.208 Z-0.938 F60.000
G1 X-3.793 Y-12.414 Z-0.939 F60.000
G1 X-3.990 Y-12.664 Z-0.939 F60.000
G1 X-4.133 Y-12.949 Z-0.940 F60.000
G1 X-4.216 Y-13.256 Z-0.940 F60.000
G1 X-4.236 Y-13.574 Z-0.941 F60.000
G1 X-4.217 Y-14.250 Z-0.942 F60.000
G1 X-4.235 Y-14.926 Z-0.943 F60.000
G1 X-4.258 Y-15.291 Z-0.943 F60.000
G1 X-4.355 Y-15.643 Z-0.944 F60.000
G1 X-4.522 Y-15.967 Z-0.944 F60.000
G1 X-4.751 Y-16.251 Z-0.945 F60.000
G1 X-5.034 Y-16.483 Z-0.945 F60.000
G1 X-5.358 Y-16.652 Z-0.946 F60.000
G1 X-5.695 Y-16.746 Z-0.946 F60.000
G1 X-6.044 Y-16.773 Z-0.947 F60.000
G1 X-6.391 Y-16.729 Z-0.947 F60.000
G1 X-6.723 Y-16.617 Z-0.948 F60.000
G1 X-7.026 Y-16.442 Z-0.949 F60.000
G1 X-7.289 Y-16.211 Z-0.949 F60.000
G1 X-7.500 Y-15.932 Z-0.950 F60.000
G1 X-7.652 Y-15.616 Z-0.950 F60.000
G1 X-7.738 Y-15.277 Z-0.951 F60.000
G1 X-7.783 Y-14.396 Z-0.952 F60.000
G1 X-7.762 Y-13.515 Z-0.953 F60.000
G1 X-7.802 Y-13.162 Z-0.954 F60.000
G1 X-7.920 Y-12.826 Z-0.954 F60.000
G1 X-8.109 Y-12.525 Z-0.955 F60.000
G1 X-8.360 Y-12.274 Z-0.955 F60.000
G1 X-8.661 Y-12.085 Z-0.956 F60.000
G1 X-8.997 Y-11.967 Z-0.956 F60.000
G1 X-9.704 Y-11.908 Z-0.957 F60.000
G1 X-10.412 Y-11.927 Z-0.958 F60.000
G1 X-10.412 Y6.497 Z-0.985 F60.000
G1 X-9.350 Y6.497 Z-0.987 F60.000
G1 X-9.033 Y6.529 Z-0.987 F60.000
G1 X-8.729 Y6.624 Z-0.988 F60.000
G1 X-8.450 Y6.778 Z-0.988 F60.000
G1 X-8.207 Y6.984 Z-0.989 F60.000
G1 X-8.010 Y7.234 Z-0.989 F60.000
G1 X-7.867 Y7.519 Z-0.990 F60.000
G1 X-7.784 Y7.826 Z-0.990 F60.000
G1 X-7.764 Y8.144 Z-0.991 F60.000
G1 X-7.783 Y8.820 Z-0.992 F60.000
G1 X-7.765 Y9.496 Z-0.993 F60.000
G1 X-7.746 Y9.849 Z-0.993 F60.000
G1 X-7.658 Y10.191 Z-0.993 F60.000
G1 X-7.503 Y10.508 Z-0.994 F60.000
G1 X-7.288 Y10.788 Z-0.994 F60.000
G1 X-7.021 Y11.020 Z-0.995 F60.000
G1 X-6.714 Y11.194 Z-0.996 F60.000
G1 X-6.378 Y11.303 Z-0.996 F60.000
G1 X-6.027 Y11.343 Z-0.997 F60.000
G1 X-5.675 Y11.312 Z-0.998 F60.000
G1 X-5.336 Y11.211 Z-0.998 F60.000
G1 X-5.025 Y11.046 Z-0.999 F60.000
G1 X-4.752 Y10.821 Z-0.999 F60.000
G1 X-4.530 Y10.547 Z-1.000 F60.000
G1 X-4.367 Y10.233 Z-1.000 F60.000
G1 X-4.303 Y10.043 Z-1.000 F60.000
G1 X-4.262 Y9.847 Z-1.001 F60.000
G1 X-4.217 Y8.966 Z-1.002 F60.000
G1 X-4.238 Y8.085 Z-1.003 F60.000
G1 X-4.198 Y7.732 Z-1.004 F60.000
G1 X-4.080 Y7.396 Z-1.004 F60.000
G1 X-3.891 Y7.095 Z-1.005 F60.000
G1 X-3.640 Y6.844 Z-1.005 F60.000
G1 X-3.339 Y6.655 Z-1.006 F60.000
G1 X-3.003 Y6.537 Z-1.006 F60.000
G1 X-2.296 Y6.478 Z-1.007 F60.000
G1 X-1.588 Y6.497 Z-1.008 F60.000
G1 X-1.588 Y-11.927 Z-1.035 F60.000
G1 X-2.650 Y-11.927 Z-1.037 F60.000
G1 X-2.967 Y-11.959 Z-1.037 F60.000
G1 X-3.271 Y-12.054 Z-1.038 F60.000
G1 X-3.550 Y-12.208 Z-1.038 F60.000
G1 X-3.793 Y-12.414 Z-1.039 F60.000
G1 X-3.990 Y-12.664 Z-1.039 F60.000
G1 X-4.133 Y-12.949 Z-1.040 F60.000
G1 X-4.216 Y-13.256 Z-1.040 F60.000
G1 X-4.236 Y-13.574 Z-1.041 F60.000
G1 X-4.217 Y-14.250 Z-1.042 F60.000
G1 X-4.235 Y-14.926 Z-1.043 F60.000
G1 X-4.258 Y-15.291 Z-1.043 F60.000
G1 X-4.355 Y-15.643 Z-1.044 F60.000
G1 X-4.522 Y-15.967 Z-1.044 F60.000
G1 X-4.751 Y-16.251 Z-1.045 F60.000
G1 X-5.034 Y-16.483 Z-1.045 F60.000
G1 X-5.358 Y-16.652 Z-1.046 F60.000
G1 X-5.695 Y-16.746 Z-1.046 F60.000
G1 X-6.044 Y-16.773 Z-1.047 F60.000
G1 X-6.391 Y-16.729 Z-1.047 F60.000
G1 X-6.723 Y-16.617 Z-1.048 F60.000
G1 X-7.026 Y-16.442 Z-1.049 F60.000
G1 X-7.289 Y-16.211 Z-1.049 F60.000
G1 X-7.500 Y-15.932 Z-1.050 F60.000
G1 X-7.652 Y-15.616 Z-1.050 F60.000
G1 X-7.738 Y-15.277 Z-1.051 F60.000
G1 X-7.783 Y-14.396 Z-1.052 F60.000
G1 X-7.762 Y-13.515 Z-1.053 F60.000
G1 X-7.802 Y-13.162 Z-1.054 F60.000
G1 X-7.920 Y-12.826 Z-1.054 F60.000
G1 X-8.109 Y-12.525 Z-1.055 F60.000
G1 X-8.360 Y-12.274 Z-1.055 F60.000
G1 X-8.661 Y-12.085 Z-1.056 F60.000
G1 X-8.997 Y-11.967 Z-1.056 F60.000
G1 X-9.704 Y-11.908 Z-1.057 F60.000
G1 X-10.412 Y-11.927 Z-1.058 F60.000
G1 X-10.412 Y6.497 Z-1.085 F60.000
G1 X-9.350 Y6.497 Z-1.087 F60.000
G1 X-9.033 Y6.529 Z-1.087 F60.000
G1 X-8.729 Y6.624 Z-1.088 F60.000
G1 X-8.450 Y6.778 Z-1.088 F60.000
G1 X-8.207 Y6.984 Z-1.089 F60.000
G1 X-8.010 Y7.234 Z-1.089 F60.000
G1 X-7.867 Y7.519 Z-1.090 F60.000
G1 X-7.784 Y7.826 Z-1.090 F60.000
G1 X-7.764 Y8.144 Z-1.091 F60.000
G1 X-7.783 Y8.820 Z-1.092 F60.000
G1 X-7.765 Y9.496 Z-1.093 F60.000
G1 X-7.746 Y9.849 Z-1.093 F60.000
G1 X-7.658 Y10.191 Z-1.093 F60.000
G1 X-7.503 Y10.508 Z-1.094 F60.000
G1 X-7.288 Y10.788 Z-1.094 F60.000
G1 X-7.021 Y11.020 Z-1.095 F60.000
G1 X-6.714 Y11.194 Z-1.096 F60.000
G1 X-6.378 Y11.303 Z-1.096 F60.000
G1 X-6.027 Y11.343 Z-1.097 F60.000
G1 X-5.675 Y11.312 Z-1.098 F60.000
G1 X-5.336 Y11.211 Z-1.098 F60.000
G1 X-5.025 Y11.046 Z-1.099 F60.000
G1 X-4.752 Y10.821 Z-1.099 F60.000
G1 X-4.530 Y10.547 Z-1.100 F60.000
G1 X-4.367 Y10.233 Z-1.100 F60.000
G1 X-4.303 Y10.043 Z-1.100 F60.000
G1 X-4.262 Y9.847 Z-1.101 F60.000
G1 X-4.217 Y8.966 Z-1.102 F60.000
G1 X-4.238 Y8.085 Z-1.103 F60.000
G1 X-4.198 Y7.732 Z-1.104 F60.000
G1 X-4.080 Y7.396 Z-1.104 F60.000
G1 X-3.891 Y7.095 Z-1.105 F60.000
G1 X-3.640 Y6.844 Z-1.105 F60.000
G1 X-3.339 Y6.655 Z-1.106 F60.000
G1 X-3.003 Y6.537 Z-1.106 F60.000
G1 X-2.296 Y6.478 Z-1.107 F60.000
G1 X-1.588 Y6.497 Z-1.108 F60.000
G1 X-1.588 Y-11.927 Z-1.135 F60.000
G1 X-2.650 Y-11.927 Z-1.137 F60.000
G1 X-2.967 Y-11.959 Z-1.137 F60.000
G1 X-3.271 Y-12.054 Z-1.138 F60.000
G1 X-3.550 Y-12.208 Z-1.138 F60.000
G1 X-3.793 Y-12.414 Z-1.139 F60.000
G1 X-3.990 Y-12.664 Z-1.139 F60.000
G1 X-4.133 Y-12.949 Z-1.140 F60.000
G1 X-4.216 Y-13.256 Z-1.140 F60.000
G1 X-4.236 Y-13.574 Z-1.141 F60.000
G1 X-4.217 Y-14.250 Z-1.142 F60.000
G1 X-4.235 Y-14.926 Z-1.143 F60.000
G1 X-4.258 Y-15.291 Z-1.143 F60.000
G1 X-4.355 Y-15.643 Z-1.144 F60.000
G1 X-4.522 Y-15.967 Z-1.144 F60.000
G1 X-4.751 Y-16.251 Z-1.145 F60.000
G1 X-5.034 Y-16.483 Z-1.145 F60.000
G1 X-5.358 Y-16.652 Z-1.146 F60.000
G1 X-5.695 Y-16.746 Z-1.146 F60.000
G1 X-6.044 Y-16.773 Z-1.147 F60.000
G1 X-6.391 Y-16.729 Z-1.147 F60.000
G1 X-6.723 Y-16.617 Z-1.148 F60.000
G1 X-7.026 Y-16.442 Z-1.149 F60.000
G1 X-7.289 Y-16.211 Z-1.149 F60.000
G1 X-7.500 Y-15.932 Z-1.150 F60.000
G1 X-7.652 Y-15.616 Z-1.150 F60.000
G1 X-7.738 Y-15.277 Z-1.151 F60.000
G1 X-7.783 Y-14.396 Z-1.152 F60.000
G1 X-7.762 Y-13.515 Z-1.153 F60.000
G1 X-7.802 Y-13.162 Z-1.154 F60.000
G1 X-7.920 Y-12.826 Z-1.154 F60.000
G1 X-8.109 Y-12.525 Z-1.155 F60.000
G1 X-8.360 Y-12.274 Z-1.155 F60.000
G1 X-8.661 Y-12.085 Z-1.156 F60.000
G1 X-8.997 Y-11.967 Z-1.156 F60.000
G1 X-9.704 Y-11.908 Z-1.157 F60.000
G1 X-10.412 Y-11.927 Z-1.158 F60.000
G1 X-10.412 Y6.497 Z-1.185 F60.000
G1 X-9.350 Y6.497 Z-1.187 F60.000
G1 X-9.033 Y6.529 Z-1.187 F60.000
G1 X-8.729 Y6.624 Z-1.188 F60.000
G1 X-8.450 Y6.778 Z-1.188 F60.000
G1 X-8.207 Y6.984 Z-1.189 F60.000
G1 X-8.010 Y7.234 Z-1.189 F60.000
G1 X-7.867 Y7.519 Z-1.190 F60.000
G1 X-7.784 Y7.826 Z-1.190 F60.000
G1 X-7.764 Y8.144 Z-1.191 F60.000
G1 X-7.783 Y8.820 Z-1.192 F60.000
G1 X-7.765 Y9.496 Z-1.193 F60.000
G1 X-7.746 Y9.849 Z-1.193 F60.000
G1 X-7.658 Y10.191 Z-1.193 F60.000
G1 X-7.503 Y10.508 Z-1.194 F60.000
G1 X-7.288 Y10.788 Z-1.194 F60.000
G1 X-7.021 Y11.020 Z-1.195 F60.000
G1 X-6.714 Y11.194 Z-1.196 F60.000
G1 X-6.378 Y11.303 Z-1.196 F60.000
G1 X-6.027 Y11.343 Z-1.197 F60.000
G1 X-5.675 Y11.312 Z-1.198 F60.000
G1 X-5.336 Y11.211 Z-1.198 F60.000
G1 X-5.025 Y11.046 Z-1.199 F60.000
G1 X-4.752 Y10.821 Z-1.199 F60.000
G1 X-4.530 Y10.547 Z-1.200 F60.000
G1 X-4.367 Y10.233 Z-1.200 F60.000
G1 X-4.303 Y10.043 Z-1.200 F60.000
G1 X-4.262 Y9.847 Z-1.201 F60.000
G1 X-4.217 Y8.966 Z-1.202 F60.000
G1 X-4.238 Y8.085 Z-1.203 F60.000
G1 X-4.198 Y7.732 Z-1.204 F60.000
G1 X-4.080 Y7.396 Z-1.204 F60.000
G1 X-3.891 Y7.095 Z-1.205 F60.000
G1 X-3.640 Y6.844 Z-1.205 F60.000
G1 X-3.339 Y6.655 Z-1.206 F60.000
G1 X-3.003 Y6.537 Z-1.206 F60.000
G1 X-2.296 Y6.478 Z-1.207 F60.000
G1 X-1.588 Y6.497 Z-1.208 F60.000
G1 X-1.588 Y-11.927 Z-1.235 F60.000
G1 X-2.650 Y-11.927 Z-1.237 F60.000
G1 X-2.967 Y-11.959 Z-1.237 F60.000
G1 X-3.271 Y-12.054 Z-1.238 F60.000
G1 X-3.550 Y-12.208 Z-1.238 F60.000
G1 X-3.793 Y-12.414 Z-1.239 F60.000
G1 X-3.990 Y-12.664 Z-1.239 F60.000
G1 X-4.133 Y-12.949 Z-1.240 F60.000
G1 X-4.216 Y-13.256 Z-1.240 F60.000
G1 X-4.236 Y-13.574 Z-1.241 F60.000
G1 X-4.217 Y-14.250 Z-1.242 F60.000
G1 X-4.235 Y-14.926 Z-1.243 F60.000
G1 X-4.258 Y-15.291 Z-1.243 F60.000
G1 X-4.355 Y-15.643 Z-1.244 F60.000
G1 X-4.522 Y-15.967 Z-1.244 F60.000
G1 X-4.751 Y-16.251 Z-1.245 F60.000
G1 X-5.034 Y-16.483 Z-1.245 F60.000
G1 X-5.358 Y-16.652 Z-1.246 F60.000
G1 X-5.695 Y-16.746 Z-1.246 F60.000
G1 X-6.044 Y-16.773 Z-1.247 F60.000
G1 X-6.391 Y-16.729 Z-1.247 F60.000
G1 X-6.723 Y-16.617 Z-1.248 F60.000
G1 X-7.026 Y-16.442 Z-1.249 F60.000
G1 X-7.289 Y-16.211 Z-1.249 F60.000
G1 X-7.500 Y-15.932 Z-1.250 F60.000
G1 X-7.652 Y-15.616 Z-1.250 F60.000
G1 X-7.738 Y-15.277 Z-1.251 F60.000
G1 X-7.783 Y-14.396 Z-1.252 F60.000
G1 X-7.762 Y-13.515 Z-1.253 F60.000
G1 X-7.802 Y-13.162 Z-1.254 F60.000
G1 X-7.920 Y-12.826 Z-1.254 F60.000
G1 X-8.109 Y-12.525 Z-1.255 F60.000
G1 X-8.360 Y-12.274 Z-1.255 F60.000
G1 X-8.661 Y-12.085 Z-1.256 F60.000
G1 X-8.997 Y-11.967 Z-1.256 F60.000
G1 X-9.704 Y-11.908 Z-1.257 F60.000
G1 X-10.412 Y-11.927 Z-1.258 F60.000
G1 X-10.412 Y6.497 Z-1.285 F60.000
G1 X-9.350 Y6.497 Z-1.287 F60.000
G1 X-9.033 Y6.529 Z-1.287 F60.000
G1 X-8.729 Y6.624 Z-1.288 F60.000
G1 X-8.450 Y6.778 Z-1.288 F60.000
G1 X-8.207 Y6.984 Z-1.289 F60.000
G1 X-8.010 Y7.234 Z-1.289 F60.000
G1 X-7.867 Y7.519 Z-1.290 F60.000
G1 X-7.784 Y7.826 Z-1.290 F60.000
G1 X-7.764 Y8.144 Z-1.291 F60.000
G1 X-7.783 Y8.820 Z-1.292 F60.000
G1 X-7.765 Y9.496 Z-1.293 F60.000
G1 X-7.746 Y9.849 Z-1.293 F60.000
G1 X-7.658 Y10.191 Z-1.293 F60.000
G1 X-7.503 Y10.508 Z-1.294 F60.000
G1 X-7.288 Y10.788 Z-1.294 F60.000
G1 X-7.021 Y11.020 Z-1.295 F60.000
G1 X-6.714 Y11.194 Z-1.296 F60.000
G1 X-6.378 Y11.303 Z-1.296 F60.000
G1 X-6.027 Y11.343 Z-1.297 F60.000
G1 X-5.675 Y11.312 Z-1.298 F60.000
G1 X-5.336 Y11.211 Z-1.298 F60.000
G1 X-5.025 Y11.046 Z-1.299 F60.000
G1 X-4.752 Y10.821 Z-1.299 F60.000
G1 X-4.530 Y10.547 Z-1.300 F60.000
G1 X-4.367 Y10.233 Z-1.300 F60.000
G1 X-4.303 Y10.043 Z-1.300 F60.000
G1 X-4.262 Y9.847 Z-1.301 F60.000
G1 X-4.217 Y8.966 Z-1.302 F60.000
G1 X-4.238 Y8.085 Z-1.303 F60.000
G1 X-4.198 Y7.732 Z-1.304 F60.000
G1 X-4.080 Y7.396 Z-1.304 F60.000
G1 X-3.891 Y7.095 Z-1.305 F60.000
G1 X-3.640 Y6.844 Z-1.305 F60.000
G1 X-3.339 Y6.655 Z-1.306 F60.000
G1 X-3.003 Y6.537 Z-1.306 F60.000
G1 X-2.296 Y6.478 Z-1.307 F60.000
G1 X-1.588 Y6.497 Z-1.308 F60.000
G1 X-1.588 Y-11.927 Z-1.335 F60.000
G1 X-2.650 Y-11.927 Z-1.337 F60.000
G1 X-2.967 Y-11.959 Z-1.337 F60.000
G1 X-3.271 Y-12.054 Z-1.338 F60.000
G1 X-3.550 Y-12.208 Z-1.338 F60.000
G1 X-3.793 Y-12.414 Z-1.339 F60.000
G1 X-3.990 Y-12.664 Z-1.339 F60.000
G1 X-4.133 Y-12.949 Z-1.340 F60.000
G1 X-4.216 Y-13.256 Z-1.340 F60.000
G1 X-4.236 Y-13.574 Z-1.341 F60.000
G1 X-4.217 Y-14.250 Z-1.342 F60.000
G1 X-4.235 Y-14.926 Z-1.343 F60.000
G1 X-4.258 Y-15.291 Z-1.343 F60.000
G1 X-4.355 Y-15.643 Z-1.344 F60.000
G1 X-4.522 Y-15.967 Z-1.344 F60.000
G1 X-4.751 Y-16.251 Z-1.345 F60.000
G1 X-5.034 Y-16.483 Z-1.345 F60.000
G1 X-5.358 Y-16.652 Z-1.346 F60.000
G1 X-5.695 Y-16.746 Z-1.346 F60.000
G1 X-6.044 Y-16.773 Z-1.347 F60.000
G1 X-6.391 Y-16.729 Z-1.347 F60.000
G1 X-6.723 Y-16.617 Z-1.348 F60.000
G1 X-7.026 Y-16.442 Z-1.349 F60.000
G1 X-7.289 Y-16.211 Z-1.349 F60.000
G1 X-7.500 Y-15.932 Z-1.350 F60.000
G1 X-7.652 Y-15.616 Z-1.350 F60.000
G1 X-7.738 Y-15.277 Z-1.351 F60.000
G1 X-7.783 Y-14.396 Z-1.352 F60.000
G1 X-7.762 Y-13.515 Z-1.353 F60.000
G1 X-7.802 Y-13.162 Z-1.354 F60.000
G1 X-7.920 Y-12.826 Z-1.354 F60.000
G1 X-8.109 Y-12.525 Z-1.355 F60.000
G1 X-8.360 Y-12.274 Z-1.355 F60.000
G1 X-8.661 Y-12.085 Z-1.356 F60.000
G1 X-8.997 Y-11.967 Z-1.356 F60.000
G1 X-9.704 Y-11.908 Z-1.357 F60.000
G1 X-10.412 Y-11.927 Z-1.358 F60.000
G1 X-10.412 Y6.497 Z-1.385 F60.000
G1 X-9.350 Y6.497 Z-1.387 F60.000
G1 X-9.033 Y6.529 Z-1.387 F60.000
G1 X-8.729 Y6.624 Z-1.388 F60.000
G1 X-8.450 Y6.778 Z-1.388 F60.000
G1 X-8.207 Y6.984 Z-1.389 F60.000
G1 X-8.010 Y7.234 Z-1.389 F60.000
G1 X-7.867 Y7.519 Z-1.390 F60.000
G1 X-7.784 Y7.826 Z-1.390 F60.000
G1 X-7.764 Y8.144 Z-1.391 F60.000
G1 X-7.783 Y8.820 Z-1.392 F60.000
G1 X-7.765 Y9.496 Z-1.393 F60.000
G1 X-7.746 Y9.849 Z-1.393 F60.000
G1 X-7.658 Y10.191 Z-1.393 F60.000
G1 X-7.503 Y10.508 Z-1.394 F60.000
G1 X-7.288 Y10.788 Z-1.394 F60.000
G1 X-7.021 Y11.020 Z-1.395 F60.000
G1 X-6.714 Y11.194 Z-1.396 F60.000
G1 X-6.378 Y11.303 Z-1.396 F60.000
G1 X-6.027 Y11.343 Z-1.397 F60.000
G1 X-5.675 Y11.312 Z-1.398 F60.000
G1 X-5.336 Y11.211 Z-1.398 F60.000
G1 X-5.025 Y11.046 Z-1.399 F60.000
G1 X-4.752 Y10.821 Z-1.399 F60.000
G1 X-4.530 Y10.547 Z-1.400 F60.000
G1 X-4.367 Y10.233 Z-1.400 F60.000
G1 X-4.303 Y10.043 Z-1.400 F60.000
G1 X-4.262 Y9.847 Z-1.401 F60.000
G1 X-4.217 Y8.966 Z-1.402 F60.000
G1 X-4.238 Y8.085 Z-1.403 F60.000
G1 X-4.198 Y7.732 Z-1.404 F60.000
G1 X-4.080 Y7.396 Z-1.404 F60.000
G1 X-3.891 Y7.095 Z-1.405 F60.000
G1 X-3.640 Y6.844 Z-1.405 F60.000
G1 X-3.339 Y6.655 Z-1.406 F60.000
G1 X-3.003 Y6.537 Z-1.406 F60.000
G1 X-2.296 Y6.478 Z-1.407 F60.000
G1 X-1.588 Y6.497 Z-1.408 F60.000
G1 X-1.588 Y-11.927 Z-1.435 F60.000
G1 X-2.650 Y-11.927 Z-1.437 F60.000
G1 X-2.967 Y-11.959 Z-1.437 F60.000
G1 X-3.271 Y-12.054 Z-1.438 F60.000
G1 X-3.550 Y-12.208 Z-1.438 F60.000
G1 X-3.793 Y-12.414 Z-1.439 F60.000
G1 X-3.990 Y-12.664 Z-1.439 F60.000
G1 X-4.133 Y-12.949 Z-1.440 F60.000
G1 X-4.216 Y-13.256 Z-1.440 F60.000
G1 X-4.236 Y-13.574 Z-1.441 F60.000
G1 X-4.217 Y-14.250 Z-1.442 F60.000
G1 X-4.235 Y-14.926 Z-1.443 F60.000
G1 X-4.258 Y-15.291 Z-1.443 F60.000
G1 X-4.355 Y-15.643 Z-1.444 F60.000
G1 X-4.522 Y-15.967 Z-1.444 F60.000
G1 X-4.751 Y-16.251 Z-1.445 F60.000
G1 X-5.034 Y-16.483 Z-1.445 F60.000
G1 X-5.358 Y-16.652 Z-1.446 F60.000
G1 X-5.695 Y-16.746 Z-1.446 F60.000
G1 X-6.044 Y-16.773 Z-1.447 F60.000
G1 X-6.391 Y-16.729 Z-1.447 F60.000
G1 X-6.723 Y-16.617 Z-1.448 F60.000
G1 X-7.026 Y-16.442 Z-1.449 F60.000
G1 X-7.289 Y-16.211 Z-1.449 F60.000
G1 X-7.500 Y-15.932 Z-1.450 F60.000
G1 X-7.652 Y-15.616 Z-1.450 F60.000
G1 X-7.738 Y-15.277 Z-1.451 F60.000
G1 X-7.783 Y-14.396 Z-1.452 F60.000
G1 X-7.762 Y-13.515 Z-1.453 F60.000
G1 X-7.802 Y-13.162 Z-1.454 F60.000
G1 X-7.920 Y-12.826 Z-1.454 F60.000
G1 X-8.109 Y-12.525 Z-1.455 F60.000
G1 X-8.360 Y-12.274 Z-1.455 F60.000
G1 X-8.661 Y-12.085 Z-1.456 F60.000
G1 X-8.997 Y-11.967 Z-1.456 F60.000
G1 X-9.704 Y-11.908 Z-1.457 F60.000
G1 X-10.412 Y-11.927 Z-1.458 F60.000
G1 X-10.412 Y6.497 Z-1.485 F60.000
G1 X-9.350 Y6.497 Z-1.487 F60.000
G1 X-9.033 Y6.529 Z-1.487 F60.000
G1 X-8.729 Y6.624 Z-1.488 F60.000
G1 X-8.450 Y6.778 Z-1.488 F60.000
G1 X-8.207 Y6.984 Z-1.489 F60.000
G1 X-8.010 Y7.234 Z-1.489 F60.000
G1 X-7.867 Y7.519 Z-1.490 F60.000
G1 X-7.784 Y7.826 Z-1.490 F60.000
G1 X-7.764 Y8.144 Z-1.491 F60.000
G1 X-7.783 Y8.820 Z-1.492 F60.000
G1 X-7.765 Y9.496 Z-1.493 F60.000
G1 X-7.746 Y9.849 Z-1.493 F60.000
G1 X-7.658 Y10.191 Z-1.493 F60.000
G1 X-7.503 Y10.508 Z-1.494 F60.000
G1 X-7.288 Y10.788 Z-1.494 F60.000
G1 X-7.021 Y11.020 Z-1.495 F60.000
G1 X-6.714 Y11.194 Z-1.496 F60.000
G1 X-6.378 Y11.303 Z-1.496 F60.000
G1 X-6.027 Y11.343 Z-1.497 F60.000
G1 X-5.675 Y11.312 Z-1.498 F60.000
G1 X-5.336 Y11.211 Z-1.498 F60.000
G1 X-5.025 Y11.046 Z-1.499 F60.000
G1 X-4.752 Y10.821 Z-1.499 F60.000
G1 X-4.530 Y10.547 Z-1.500 F60.000
G1 X-4.367 Y10.233 Z-1.500 F60.000
G1 X-4.303 Y10.043 Z-1.500 F60.000
G1 X-4.262 Y9.847 Z-1.501 F60.000
G1 X-4.217 Y8.966 Z-1.502 F60.000
G1 X-4.238 Y8.085 Z-1.503 F60.000
G1 X-4.198 Y7.732 Z-1.504 F60.000
G1 X-4.080 Y7.396 Z-1.504 F60.000
G1 X-3.891 Y7.095 Z-1.505 F60.000
G1 X-3.640 Y6.844 Z-1.505 F60.000
G1 X-3.339 Y6.655 Z-1.506 F60.000
G1 X-3.003 Y6.537 Z-1.506 F60.000
G1 X-2.296 Y6.478 Z-1.507 F60.000
G1 X-1.588 Y6.497 Z-1.508 F60.000
G1 X-1.588 Y-11.927 Z-1.535 F60.000
G1 X-2.650 Y-11.927 Z-1.537 F60.000
G1 X-2.967 Y-11.959 Z-1.537 F60.000
G1 X-3.271 Y-12.054 Z-1.538 F60.000
G1 X-3.550 Y-12.208 Z-1.538 F60.000
G1 X-3.793 Y-12.414 Z-1.539 F60.000
G1 X-3.990 Y-12.664 Z-1.539 F60.000
G1 X-4.133 Y-12.949 Z-1.540 F60.000
G1 X-4.216 Y-13.256 Z-1.540 F60.000
G1 X-4.236 Y-13.574 Z-1.541 F60.000
G1 X-4.217 Y-14.250 Z-1.542 F60.000
G1 X-4.235 Y-14.926 Z-1.543 F60.000
G1 X-4.258 Y-15.291 Z-1.543 F60.000
G1 X-4.355 Y-15.643 Z-1.544 F60.000
G1 X-4.522 Y-15.967 Z-1.544 F60.000
G1 X-4.751 Y-16.251 Z-1.545 F60.000
G1 X-5.034 Y-16.483 Z-1.545 F60.000
G1 X-5.358 Y-16.652 Z-1.546 F60.000
G1 X-5.695 Y-16.746 Z-1.546 F60.000
G1 X-6.044 Y-16.773 Z-1.547 F60.000
G1 X-6.391 Y-16.729 Z-1.547 F60.000
G1 X-6.723 Y-16.617 Z-1.548 F60.000
G1 X-7.026 Y-16.442 Z-1.549 F60.000
G1 X-7.289 Y-16.211 Z-1.549 F60.000
G1 X-7.500 Y-15.932 Z-1.550 F60.000
G1 X-7.652 Y-15.616 Z-1.550 F60.000
G1 X-7.738 Y-15.277 Z-1.551 F60.000
G1 X-7.783 Y-14.396 Z-1.552 F60.000
G1 X-7.762 Y-13.515 Z-1.553 F60.000
G1 X-7.802 Y-13.162 Z-1.554 F60.000
G1 X-7.920 Y-12.826 Z-1.554 F60.000
G1 X-8.109 Y-12.525 Z-1.555 F60.000
G1 X-8.360 Y-12.274 Z-1.555 F60.000
G1 X-8.661 Y-12.085 Z-1.556 F60.000
G1 X-8.997 Y-11.967 Z-1.556 F60.000
G1 X-9.704 Y-11.908 Z-1.557 F60.000
G1 X-10.412 Y-11.927 Z-1.558 F60.000
G1 X-10.412 Y6.497 Z-1.585 F60.000
G1 X-9.350 Y6.497 Z-1.587 F60.000
G1 X-9.033 Y6.529 Z-1.587 F60.000
G1 X-8.729 Y6.624 Z-1.588 F60.000
G1 X-8.450 Y6.778 Z-1.588 F60.000
G1 X-8.207 Y6.984 Z-1.589 F60.000
G1 X-8.010 Y7.234 Z-1.589 F60.000
G1 X-7.867 Y7.519 Z-1.590 F60.000
G1 X-7.784 Y7.826 Z-1.590 F60.000
G1 X-7.764 Y8.144 Z-1.591 F60.000
G1 X-7.783 Y8.820 Z-1.592 F60.000
G1 X-7.765 Y9.496 Z-1.593 F60.000
G1 X-7.746 Y9.849 Z-1.593 F60.000
G1 X-7.658 Y10.191 Z-1.593 F60.000
G1 X-7.503 Y10.508 Z-1.594 F60.000
G1 X-7.288 Y10.788 Z-1.594 F60.000
G1 X-7.021 Y11.020 Z-1.595 F60.000
G1 X-6.714 Y11.194 Z-1.596 F60.000
G1 X-6.378 Y11.303 Z-1.596 F60.000
G1 X-6.027 Y11.343 Z-1.597 F60.000
G1 X-5.675 Y11.312 Z-1.598 F60.000
G1 X-5.336 Y11.211 Z-1.598 F60.000
G1 X-5.025 Y11.046 Z-1.599 F60.000
G1 X-4.752 Y10.821 Z-1.599 F60.000
G1 X-4.530 Y10.547 Z-1.600 F60.000
G1 X-4.367 Y10.233 Z-1.600 F60.000
G1 X-4.303 Y10.043 Z-1.600 F60.000
G1 X-4.262 Y9.847 Z-1.601 F60.000
G1 X-4.217 Y8.966 Z-1.602 F60.000
G1 X-4.238 Y8.085 Z-1.603 F60.000
G1 X-4.198 Y7.732 Z-1.604 F60.000
G1 X-4.080 Y7.396 Z-1.604 F60.000
G1 X-3.891 Y7.095 Z-1.605 F60.000
G1 X-3.640 Y6.844 Z-1.605 F60.000
G1 X-3.339 Y6.655 Z-1.606 F60.000
G1 X-3.003 Y6.537 Z-1.606 F60.000
G1 X-2.296 Y6.478 Z-1.607 F60.000
G1 X-1.588 Y6.497 Z-1.608 F60.000
G1 X-1.588 Y-11.927 Z-1.635 F60.000
G1 X-2.650 Y-11.927 Z-1.637 F60.000
G1 X-2.967 Y-11.959 Z-1.637 F60.000
G1 X-3.271 Y-12.054 Z-1.638 F60.000
G1 X-3.550 Y-12.208 Z-1.638 F60.000
G1 X-3.793 Y-12.414 Z-1.639 F60.000
G1 X-3.990 Y-12.664 Z-1.639 F60.000
G1 X-4.133 Y-12.949 Z-1.640 F60.000
G1 X-4.216 Y-13.256 Z-1.640 F60.000
G1 X-4.236 Y-13.574 Z-1.641 F60.000
G1 X-4.217 Y-14.250 Z-1.642 F60.000
G1 X-4.235 Y-14.926 Z-1.643 F60.000
G1 X-4.258 Y-15.291 Z-1.643 F60.000
G1 X-4.355 Y-15.643 Z-1.644 F60.000
G1 X-4.522 Y-15.967 Z-1.644 F60.000
G1 X-4.751 Y-16.251 Z-1.645 F60.000
G1 X-5.034 Y-16.483 Z-1.645 F60.000
G1 X-5.358 Y-16.652 Z-1.646 F60.000
G1 X-5.695 Y-16.746 Z-1.646 F60.000
G1 X-6.044 Y-16.773 Z-1.647 F60.000
G1 X-6.391 Y-16.729 Z-1.647 F60.000
G1 X-6.723 Y-16.617 Z-1.648 F60.000
G1 X-7.026 Y-16.442 Z-1.649 F60.000
G1 X-7.289 Y-16.211 Z-1.649 F60.000
G1 X-7.500 Y-15.932 Z-1.650 F60.000
G1 X-7.652 Y-15.616 Z-1.650 F60.000
G1 X-7.738 Y-15.277 Z-1.651 F60.000
G1 X-7.783 Y-14.396 Z-1.652 F60.000
G1 X-7.762 Y-13.515 Z-1.653 F60.000
G1 X-7.802 Y-13.162 Z-1.654 F60.000
G1 X-7.920 Y-12.826 Z-1.654 F60.000
G1 X-8.109 Y-12.525 Z-1.655 F60.000
G1 X-8.360 Y-12.274 Z-1.655 F60.000
G1 X-8.661 Y-12.085 Z-1.656 F60.000
G1 X-8.997 Y-11.967 Z-1.656 F60.000
G1 X-9.704 Y-11.908 Z-1.657 F60.000
G1 X-10.412 Y-11.927 Z-1.658 F60.000
G1 X-10.412 Y6.497 Z-1.685 F60.000
G1 X-9.350 Y6.497 Z-1.687 F60.000
G1 X-9.033 Y6.529 Z-1.687 F60.000
G1 X-8.729 Y6.624 Z-1.688 F60.000
G1 X-8.450 Y6.778 Z-1.688 F60.000
G1 X-8.207 Y6.984 Z-1.689 F60.000
G1 X-8.010 Y7.234 Z-1.689 F60.000
G1 X-7.867 Y7.519 Z-1.690 F60.000
G1 X-7.784 Y7.826 Z-1.690 F60.000
G1 X-7.764 Y8.144 Z-1.691 F60.000
G1 X-7.783 Y8.820 Z-1.692 F60.000
G1 X-7.765 Y9.496 Z-1.693 F60.000
G1 X-7.746 Y9.849 Z-1.693 F60.000
G1 X-7.658 Y10.191 Z-1.693 F60.000
G1 X-7.503 Y10.508 Z-1.694 F60.000
G1 X-7.288 Y10.788 Z-1.694 F60.000
G1 X-7.021 Y11.020 Z-1.695 F60.000
G1 X-6.714 Y11.194 Z-1.696 F60.000
G1 X-6.378 Y11.303 Z-1.696 F60.000
G1 X-6.027 Y11.343 Z-1.697 F60.000
G1 X-5.675 Y11.312 Z-1.698 F60.000
G1 X-5.336 Y11.211 Z-1.698 F60.000
G1 X-5.025 Y11.046 Z-1.699 F60.000
G1 X-4.752 Y10.821 Z-1.699 F60.000
G1 X-4.530 Y10.547 Z-1.700 F60.000
G1 X-4.367 Y10.233 Z-1.700 F60.000
G1 X-4.303 Y10.043 Z-1.700 F60.000
G1 X-4.262 Y9.847 Z-1.701 F60.000
G1 X-4.217 Y8.966 Z-1.702 F60.000
G1 X-4.238 Y8.085 Z-1.703 F60.000
G1 X-4.198 Y7.732 Z-1.704 F60.000
G1 X-4.080 Y7.396 Z-1.704 F60.000
G1 X-3.891 Y7.095 Z-1.705 F60.000
G1 X-3.640 Y6.844 Z-1.705 F60.000
G1 X-3.339 Y6.655 Z-1.706 F60.000
G1 X-3.003 Y6.537 Z-1.706 F60.000
G1 X-2.296 Y6.478 Z-1.707 F60.000
G1 X-1.588 Y6.497 Z-1.708 F60.000
G1 X-1.588 Y-11.927 Z-1.735 F60.000
G1 X-2.650 Y-11.927 Z-1.737 F60.000
G1 X-2.967 Y-11.959 Z-1.737 F60.000
G1 X-3.271 Y-12.054 Z-1.738 F60.000
G1 X-3.550 Y-12.208 Z-1.738 F60.000
G1 X-3.793 Y-12.414 Z-1.739 F60.000
G1 X-3.990 Y-12.664 Z-1.739 F60.000
G1 X-4.133 Y-12.949 Z-1.740 F60.000
G1 X-4.216 Y-13.256 Z-1.740 F60.000
G1 X-4.236 Y-13.574 Z-1.741 F60.000
G1 X-4.217 Y-14.250 Z-1.742 F60.000
G1 X-4.235 Y-14.926 Z-1.743 F60.000
G1 X-4.258 Y-15.291 Z-1.743 F60.000
G1 X-4.355 Y-15.643 Z-1.744 F60.000
G1 X-4.522 Y-15.967 Z-1.744 F60.000
G1 X-4.751 Y-16.251 Z-1.745 F60.000
G1 X-5.034 Y-16.483 Z-1.745 F60.000
G1 X-5.358 Y-16.652 Z-1.746 F60.000
G1 X-5.695 Y-16.746 Z-1.746 F60.000
G1 X-6.044 Y-16.773 Z-1.747 F60.000
G1 X-6.391 Y-16.729 Z-1.747 F60.000
G1 X-6.723 Y-16.617 Z-1.748 F60.000
G1 X-7.026 Y-16.442 Z-1.749 F60.000
G1 X-7.289 Y-16.211 Z-1.749 F60.000
G1 X-7.500 Y-15.932 Z-1.750 F60.000
G1 X-7.652 Y-15.616 Z-1.750 F60.000
G1 X-7.738 Y-15.277 Z-1.751 F60.000
G1 X-7.783 Y-14.396 Z-1.752 F60.000
G1 X-7.762 Y-13.515 Z-1.753 F60.000
G1 X-7.802 Y-13.162 Z-1.754 F60.000
G1 X-7.920 Y-12.826 Z-1.754 F60.000
G1 X-8.109 Y-12.525 Z-1.755 F60.000
G1 X-8.360 Y-12.274 Z-1.755 F60.000
G1 X-8.661 Y-12.085 Z-1.756 F60.000
G1 X-8.997 Y-11.967 Z-1.756 F60.000
G1 X-9.704 Y-11.908 Z-1.757 F60.000
G1 X-10.412 Y-11.927 Z-1.758 F60.000
G1 X-10.412 Y6.497 Z-1.785 F60.000
G1 X-9.350 Y6.497 Z-1.787 F60.000
G1 X-9.033 Y6.529 Z-1.787 F60.000
G1 X-8.729 Y6.624 Z-1.788 F60.000
G1 X-8.450 Y6.778 Z-1.788 F60.000
G1 X-8.207 Y6.984 Z-1.789 F60.000
G1 X-8.010 Y7.234 Z-1.789 F60.000
G1 X-7.867 Y7.519 Z-1.790 F60.000
G1 X-7.784 Y7.826 Z-1.790 F60.000
G1 X-7.764 Y8.144 Z-1.791 F60.000
G1 X-7.783 Y8.820 Z-1.792 F60.000
G1 X-7.765 Y9.496 Z-1.793 F60.000
G1 X-7.746 Y9.849 Z-1.793 F60.000
G1 X-7.658 Y10.191 Z-1.793 F60.000
G1 X-7.503 Y10.508 Z-1.794 F60.000
G1 X-7.288 Y10.788 Z-1.794 F60.000
G1 X-7.021 Y11.020 Z-1.795 F60.000
G1 X-6.714 Y11.194 Z-1.796 F60.000
G1 X-6.378 Y11.303 Z-1.796 F60.000
G1 X-6.027 Y11.343 Z-1.797 F60.000
G1 X-5.675 Y11.312 Z-1.798 F60.000
G1 X-5.336 Y11.211 Z-1.798 F60.000
G1 X-5.025 Y11.046 Z-1.799 F60.000
G1 X-4.752 Y10.821 Z-1.799 F60.000
G1 X-4.530 Y10.547 Z-1.800 F60.000
G1 X-4.367 Y10.233 Z-1.800 F60.000
G1 X-4.303 Y10.043 Z-1.800 F60.000
G1 X-4.262 Y9.847 Z-1.801 F60.000
G1 X-4.217 Y8.966 Z-1.802 F60.000
G1 X-4.238 Y8.085 Z-1.803 F60.000
G1 X-4.198 Y7.732 Z-1.804 F60.000
G1 X-4.080 Y7.396 Z-1.804 F60.000
G1 X-3.891 Y7.095 Z-1.805 F60.000
G1 X-3.640 Y6.844 Z-1.805 F60.000
G1 X-3.339 Y6.655 Z-1.806 F60.000
G1 X-3.003 Y6.537 Z-1.806 F60.000
G1 X-2.296 Y6.478 Z-1.807 F60.000
G1 X-1.588 Y6.497 Z-1.808 F60.000
G1 X-1.588 Y-11.927 Z-1.835 F60.000
G1 X-2.650 Y-11.927 Z-1.837 F60.000
G1 X-2.967 Y-11.959 Z-1.837 F60.000
G1 X-3.271 Y-12.054 Z-1.838 F60.000
G1 X-3.550 Y-12.208 Z-1.838 F60.000
G1 X-3.793 Y-12.414 Z-1.839 F60.000
G1 X-3.990 Y-12.664 Z-1.839 F60.000
G1 X-4.133 Y-12.949 Z-1.840 F60.000
G1 X-4.216 Y-13.256 Z-1.840 F60.000
G1 X-4.236 Y-13.574 Z-1.841 F60.000
G1 X-4.217 Y-14.250 Z-1.842 F60.000
G1 X-4.235 Y-14.926 Z-1.843 F60.000
G1 X-4.258 Y-15.291 Z-1.843 F60.000
G1 X-4.355 Y-15.643 Z-1.844 F60.000
G1 X-4.522 Y-15.967 Z-1.844 F60.000
G1 X-4.751 Y-16.251 Z-1.845 F60.000
G1 X-5.034 Y-16.483 Z-1.845 F60.000
G1 X-5.358 Y-16.652 Z-1.846 F60.000
G1 X-5.695 Y-16.746 Z-1.846 F60.000
G1 X-6.044 Y-16.773 Z-1.847 F60.000
G1 X-6.391 Y-16.729 Z-1.847 F60.000
G1 X-6.723 Y-16.617 Z-1.848 F60.000
G1 X-7.026 Y-16.442 Z-1.849 F60.000
G1 X-7.289 Y-16.211 Z-1.849 F60.000
G1 X-7.500 Y-15.932 Z-1.850 F60.000
G1 X-7.652 Y-15.616 Z-1.850 F60.000
G1 X-7.738 Y-15.277 Z-1.851 F60.000
G1 X-7.783 Y-14.396 Z-1.852 F60.000
G1 X-7.762 Y-13.515 Z-1.853 F60.000
G1 X-7.802 Y-13.162 Z-1.854 F60.000
G1 X-7.920 Y-12.826 Z-1.854 F60.000
G1 X-8.109 Y-12.525 Z-1.855 F60.000
G1 X-8.360 Y-12.274 Z-1.855 F60.000
G1 X-8.661 Y-12.085 Z-1.856 F60.000
G1 X-8.997 Y-11.967 Z-1.856 F60.000
G1 X-9.704 Y-11.908 Z-1.857 F60.000
G1 X-10.412 Y-11.927 Z-1.858 F60.000
G1 X-10.412 Y6.497 Z-1.885 F60.000
G1 X-9.350 Y6.497 Z-1.887 F60.000
G1 X-9.033 Y6.529 Z-1.887 F60.000
G1 X-8.729 Y6.624 Z-1.888 F60.000
G1 X-8.450 Y6.778 Z-1.888 F60.000
G1 X-8.207 Y6.984 Z-1.889 F60.000
G1 X-8.010 Y7.234 Z-1.889 F60.000
G1 X-7.867 Y7.519 Z-1.890 F60.000
G1 X-7.784 Y7.826 Z-1.890 F60.000
G1 X-7.764 Y8.144 Z-1.891 F60.000
G1 X-7.783 Y8.820 Z-1.892 F60.000
G1 X-7.765 Y9.496 Z-1.893 F60.000
G1 X-7.746 Y9.849 Z-1.893 F60.000
G1 X-7.658 Y10.191 Z-1.893 F60.000
G1 X-7.503 Y10.508 Z-1.894 F60.000
G1 X-7.288 Y10.788 Z-1.894 F60.000
G1 X-7.021 Y11.020 Z-1.895 F60.000
G1 X-6.714 Y11.194 Z-1.896 F60.000
G1 X-6.378 Y11.303 Z-1.896 F60.000
G1 X-6.027 Y11.343 Z-1.897 F60.000
G1 X-5.675 Y11.312 Z-1.898 F60.000
G1 X-5.336 Y11.211 Z-1.898 F60.000
G1 X-5.025 Y11.046 Z-1.899 F60.000
G1 X-4.752 Y10.821 Z-1.899 F60.000
G1 X-4.530 Y10.547 Z-1.900 F60.000
G1 X-4.367 Y10.233 Z-1.900 F60.000
G1 X-4.303 Y10.043 Z-1.900 F60.000
G1 X-4.262 Y9.847 Z-1.901 F60.000
G1 X-4.217 Y8.966 Z-1.902 F60.000
G1 X-4.238 Y8.085 Z-1.903 F60.000
G1 X-4.198 Y7.732 Z-1.904 F60.000
G1 X-4.080 Y7.396 Z-1.904 F60.000
G1 X-3.891 Y7.095 Z-1.905 F60.000
G1 X-3.640 Y6.844 Z-1.905 F60.000
G1 X-3.339 Y6.655 Z-1.906 F60.000
G1 X-3.003 Y6.537 Z-1.906 F60.000
G1 X-2.296 Y6.478 Z-1.907 F60.000
G1 X-1.588 Y6.497 Z-1.908 F60.000
G1 X-1.588 Y-11.927 Z-1.935 F60.000
G1 X-2.650 Y-11.927 Z-1.937 F60.000
G1 X-2.967 Y-11.959 Z-1.937 F60.000
G1 X-3.271 Y-12.054 Z-1.938 F60.000
G1 X-3.550 Y-12.208 Z-1.938 F60.000
G1 X-3.793 Y-12.414 Z-1.939 F60.000
G1 X-3.990 Y-12.664 Z-1.939 F60.000
G1 X-4.133 Y-12.949 Z-1.940 F60.000
G1 X-4.216 Y-13.256 Z-1.940 F60.000
G1 X-4.236 Y-13.574 Z-1.941 F60.000
G1 X-4.217 Y-14.250 Z-1.942 F60.000
G1 X-4.235 Y-14.926 Z-1.943 F60.000
G1 X-4.258 Y-15.291 Z-1.943 F60.000
G1 X-4.355 Y-15.643 Z-1.944 F60.000
G1 X-4.522 Y-15.967 Z-1.944 F60.000
G1 X-4.751 Y-16.251 Z-1.945 F60.000
G1 X-5.034 Y-16.483 Z-1.945 F60.000
G1 X-5.358 Y-16.652 Z-1.946 F60.000
G1 X-5.695 Y-16.746 Z-1.946 F60.000
G1 X-6.044 Y-16.773 Z-1.947 F60.000
G1 X-6.391 Y-16.729 Z-1.947 F60.000
G1 X-6.723 Y-16.617 Z-1.948 F60.000
G1 X-7.026 Y-16.442 Z-1.949 F60.000
G1 X-7.289 Y-16.211 Z-1.949 F60.000
G1 X-7.500 Y-15.932 Z-1.950 F60.000
G1 X-7.652 Y-15.616 Z-1.950 F60.000
G1 X-7.738 Y-15.277 Z-1.951 F60.000
G1 X-7.783 Y-14.396 Z-1.952 F60.000
G1 X-7.762 Y-13.515 Z-1.953 F60.000
G1 X-7.802 Y-13.162 Z-1.954 F60.000
G1 X-7.920 Y-12.826 Z-1.954 F60.000
G1 X-8.109 Y-12.525 Z-1.955 F60.000
G1 X-8.360 Y-12.274 Z-1.955 F60.000
G1 X-8.661 Y-12.085 Z-1.956 F60.000
G1 X-8.997 Y-11.967 Z-1.956 F60.000
G1 X-9.704 Y-11.908 Z-1.957 F60.000
G1 X-10.412 Y-11.927 Z-1.958 F60.000
G1 X-10.412 Y6.497 Z-1.985 F60.000
G1 X-9.350 Y6.497 Z-1.987 F60.000
G1 X-9.033 Y6.529 Z-1.987 F60.000
G1 X-8.729 Y6.624 Z-1.988 F60.000
G1 X-8.450 Y6.778 Z-1.988 F60.000
G1 X-8.207 Y6.984 Z-1.989 F60.000
G1 X-8.010 Y7.234 Z-1.989 F60.000
G1 X-7.867 Y7.519 Z-1.990 F60.000
G1 X-7.784 Y7.826 Z-1.990 F60.000
G1 X-7.764 Y8.144 Z-1.991 F60.000
G1 X-7.783 Y8.820 Z-1.992 F60.000
G1 X-7.765 Y9.496 Z-1.993 F60.000
G1 X-7.746 Y9.849 Z-1.993 F60.000
G1 X-7.658 Y10.191 Z-1.993 F60.000
G1 X-7.503 Y10.508 Z-1.994 F60.000
G1 X-7.288 Y10.788 Z-1.994 F60.000
G1 X-7.021 Y11.020 Z-1.995 F60.000
G1 X-6.714 Y11.194 Z-1.996 F60.000
G1 X-6.378 Y11.303 Z-1.996 F60.000
G1 X-6.027 Y11.343 Z-1.997 F60.000
G1 X-5.675 Y11.312 Z-1.998 F60.000
G1 X-5.336 Y11.211 Z-1.998 F60.000
G1 X-5.025 Y11.046 Z-1.999 F60.000
G1 X-4.752 Y10.821 Z-1.999 F60.000
G1 X-4.530 Y10.547 Z-2.000 F60.000
G1 X-4.367 Y10.233 Z-2.000 F60.000
G1 X-4.303 Y10.043 Z-2.000 F60.000
G1 X-4.262 Y9.847 Z-2.001 F60.000
G1 X-4.217 Y8.966 Z-2.002 F60.000
G1 X-4.238 Y8.085 Z-2.003 F60.000
G1 X-4.198 Y7.732 Z-2.004 F60.000
G1 X-4.080 Y7.396 Z-2.004 F60.000
G1 X-3.891 Y7.095 Z-2.005 F60.000
G1 X-3.640 Y6.844 Z-2.005 F60.000
G1 X-3.339 Y6.655 Z-2.006 F60.000
G1 X-3.003 Y6.537 Z-2.006 F60.000
G1 X-2.296 Y6.478 Z-2.007 F60.000
G1 X-1.588 Y6.497 Z-2.008 F60.000
G1 X-1.588 Y-11.927 Z-2.035 F60.000
G1 X-2.650 Y-11.927 Z-2.037 F60.000
G1 X-2.967 Y-11.959 Z-2.037 F60.000
G1 X-3.271 Y-12.054 Z-2.038 F60.000
G1 X-3.550 Y-12.208 Z-2.038 F60.000
G1 X-3.793 Y-12.414 Z-2.039 F60.000
G1 X-3.990 Y-12.664 Z-2.039 F60.000
G1 X-4.133 Y-12.949 Z-2.040 F60.000
G1 X-4.216 Y-13.256 Z-2.040 F60.000
G1 X-4.236 Y-13.574 Z-2.041 F60.000
G1 X-4.217 Y-14.250 Z-2.042 F60.000
G1 X-4.235 Y-14.926 Z-2.043 F60.000
G1 X-4.258 Y-15.291 Z-2.043 F60.000
G1 X-4.355 Y-15.643 Z-2.044 F60.000
G1 X-4.522 Y-15.967 Z-2.044 F60.000
G1 X-4.751 Y-16.251 Z-2.045 F60.000
G1 X-5.034 Y-16.483 Z-2.045 F60.000
G1 X-5.358 Y-16.652 Z-2.046 F60.000
G1 X-5.695 Y-16.746 Z-2.046 F60.000
G1 X-6.044 Y-16.773 Z-2.047 F60.000
G1 X-6.391 Y-16.729 Z-2.047 F60.000
G1 X-6.723 Y-16.617 Z-2.048 F60.000
G1 X-7.026 Y-16.442 Z-2.049 F60.000
G1 X-7.289 Y-16.211 Z-2.049 F60.000
G1 X-7.500 Y-15.932 Z-2.050 F60.000
G1 X-7.652 Y-15.616 Z-2.050 F60.000
G1 X-7.738 Y-15.277 Z-2.051 F60.000
G1 X-7.783 Y-14.396 Z-2.052 F60.000
G1 X-7.762 Y-13.515 Z-2.053 F60.000
G1 X-7.802 Y-13.162 Z-2.054 F60.000
G1 X-7.920 Y-12.826 Z-2.054 F60.000
G1 X-8.109 Y-12.525 Z-2.055 F60.000
G1 X-8.360 Y-12.274 Z-2.055 F60.000
G1 X-8.661 Y-12.085 Z-2.056 F60.000
G1 X-8.997 Y-11.967 Z-2.056 F60.000
G1 X-9.704 Y-11.908 Z-2.057 F60.000
G1 X-10.412 Y-11.927 Z-2.058 F60.000
G1 X-10.412 Y6.497 Z-2.085 F60.000
G1 X-9.350 Y6.497 Z-2.087 F60.000
G1 X-9.033 Y6.529 Z-2.087 F60.000
G1 X-8.729 Y6.624 Z-2.088 F60.000
G1 X-8.450 Y6.778 Z-2.088 F60.000
G1 X-8.207 Y6.984 Z-2.089 F60.000
G1 X-8.010 Y7.234 Z-2.089 F60.000
G1 X-7.867 Y7.519 Z-2.090 F60.000
G1 X-7.784 Y7.826 Z-2.090 F60.000
G1 X-7.764 Y8.144 Z-2.091 F60.000
G1 X-7.783 Y8.820 Z-2.092 F60.000
G1 X-7.765 Y9.496 Z-2.093 F60.000
G1 X-7.746 Y9.849 Z-2.093 F60.000
G1 X-7.658 Y10.191 Z-2.093 F60.000
G1 X-7.503 Y10.508 Z-2.094 F60.000
G1 X-7.288 Y10.788 Z-2.094 F60.000
G1 X-7.021 Y11.020 Z-2.095 F60.000
G1 X-6.714 Y11.194 Z-2.096 F60.000
G1 X-6.378 Y11.303 Z-2.096 F60.000
G1 X-6.027 Y11.343 Z-2.097 F60.000
G1 X-5.675 Y11.312 Z-2.098 F60.000
G1 X-5.336 Y11.211 Z-2.098 F60.000
G1 X-5.025 Y11.046 Z-2.099 F60.000
G1 X-4.752 Y10.821 Z-2.099 F60.000
G1 X-4.530 Y10.547 Z-2.100 F60.000
G1 X-4.367 Y10.233 Z-2.100 F60.000
G2 X-4.262 Y9.847 Z-2.100 I-1.637 J-0.653 K0.000 F60.000
G2 X-4.238 Y8.085 Z-2.100 I-11.744 J-1.042 K0.000 F60.000
G3 X-3.003 Y6.537 Z-2.100 I1.587 J-0.000 K0.000 F60.000
G3 X-1.588 Y6.497 Z-2.100 I0.885 J6.263 K0.000 F60.000
G1 X-1.588 Y-11.927 Z-2.100 F60.000
G1 X-2.650 Y-11.927 Z-2.100 F60.000
G3 X-4.236 Y-13.574 Z-2.100 I-0.000 J-1.587 K0.000 F60.000
G2 X-4.235 Y-14.926 Z-2.100 I-12.036 J-0.686 K0.000 F60.000
G2 X-5.358 Y-16.652 Z-2.100 I-1.780 J-0.070 K0.000 F60.000
G2 X-7.738 Y-15.277 Z-2.100 I-0.642 J1.637 K0.000 F60.000
G2 X-7.762 Y-13.515 Z-2.100 I11.744 J1.042 K0.000 F60.000
G3 X-8.997 Y-11.967 Z-2.100 I-1.587 J0.000 K0.000 F60.000
G3 X-10.412 Y-11.927 Z-2.100 I-0.885 J-6.263 K0.000 F60.000
G1 X-10.412 Y6.497 Z-2.100 F60.000
G1 X-9.350 Y6.497 Z-2.100 F60.000
G3 X-7.764 Y8.144 Z-2.100 I0.000 J1.587 K0.000 F60.000
G2 X-7.765 Y9.496 Z-2.100 I12.036 J0.686 K0.000 F60.000
G2 X-4.367 Y10.233 Z-2.100 I1.761 J0.084 K0.000 F60.000
G0 X-4.367 Y10.233 Z5.000
(Finish operation: RampEntryDressup008)
(Begin postamble)
M5
G17 G90
M2
