(Exported by FreeCAD)
(Post Processor: grbl_post)
(Output Time:2022-05-19 13:36:46.130524)
(Begin preamble)
G17 G90
G21
(Begin operation: Fixture)
(Path: Fixture)
G54
(Finish operation: Fixture)
(Begin operation: TC: endmill_FC1D318)
(Path: TC: endmill_FC1D318)
(TC: endmill_FC1D318)
(Begin toolchange)
( M6 T1.0 )
M3 S10000.0
(Finish operation: TC: endmill_FC1D318)
(Begin operation: RampEntryDressup001)
(Path: RampEntryDressup001)
G0 X0.000 Y0.000 Z6.000
G0 X3.122 Y3.122 Z6.000
G0 X3.122 Y3.122 Z4.000
G1 X3.509 Y2.675 Z3.943 F300.000
G1 X3.833 Y2.182 Z3.876 F300.000
G1 X4.090 Y1.652 Z3.799 F300.000
G1 X4.274 Y1.094 Z3.714 F300.000
G1 X4.382 Y0.518 Z3.622 F300.000
G1 X4.413 Y-0.067 Z3.525 F300.000
G1 X4.366 Y-0.651 Z3.424 F300.000
G1 X4.242 Y-1.222 Z3.321 F300.000
G1 X4.043 Y-1.772 Z3.219 F300.000
G1 X3.773 Y-2.291 Z3.118 F300.000
G1 X3.435 Y-2.770 Z3.021 F300.000
G1 X3.037 Y-3.200 Z2.929 F300.000
G1 X2.584 Y-3.575 Z2.844 F300.000
G1 X2.085 Y-3.887 Z2.767 F300.000
G1 X1.548 Y-4.132 Z2.699 F300.000
G1 X0.982 Y-4.304 Z2.643 F300.000
G1 X0.405 Y-4.384 Z2.631 F300.000
G1 X-0.177 Y-4.391 Z2.603 F300.000
G1 X-0.755 Y-4.324 Z2.560 F300.000
G1 X-1.318 Y-4.185 Z2.501 F300.000
G1 X-1.857 Y-3.977 Z2.427 F300.000
G1 X-2.364 Y-3.702 Z2.341 F300.000
G1 X-2.830 Y-3.366 Z2.244 F300.000
G1 X-3.247 Y-2.973 Z2.136 F300.000
G1 X-3.608 Y-2.531 Z2.020 F300.000
G1 X-3.908 Y-2.046 Z1.898 F300.000
G1 X-4.141 Y-1.527 Z1.771 F300.000
G1 X-4.304 Y-0.982 Z1.643 F300.000
G1 X-4.394 Y-0.421 Z1.514 F300.000
G1 X-4.409 Y0.148 Z1.388 F300.000
G1 X-4.349 Y0.715 Z1.266 F300.000
G1 X-4.215 Y1.270 Z1.150 F300.000
G1 X-4.010 Y1.805 Z1.042 F300.000
G1 X-3.736 Y2.310 Z0.944 F300.000
G1 X-3.399 Y2.777 Z0.858 F300.000
G1 X-3.003 Y3.199 Z0.785 F300.000
G1 X-2.556 Y3.569 Z0.726 F300.000
G1 X-2.065 Y3.879 Z0.682 F300.000
G1 X-1.537 Y4.126 Z0.654 F300.000
G1 X-0.982 Y4.304 Z0.643 F300.000
G1 X-0.432 Y4.394 Z0.567 F300.000
G1 X0.125 Y4.413 Z0.487 F300.000
G1 X0.679 Y4.362 Z0.405 F300.000
G1 X1.222 Y4.242 Z0.321 F300.000
G1 X1.746 Y4.055 Z0.238 F300.000
G1 X2.242 Y3.803 Z0.156 F300.000
G1 X2.703 Y3.490 Z0.076 F300.000
G1 X3.122 Y3.122 Z-0.000 F300.000
G1 X3.509 Y2.679 Z-0.014 F300.000
G1 X3.834 Y2.189 Z-0.031 F300.000
G1 X4.091 Y1.660 Z-0.050 F300.000
G1 X4.275 Y1.102 Z-0.071 F300.000
G1 X4.384 Y0.525 Z-0.094 F300.000
G1 X4.414 Y-0.062 Z-0.119 F300.000
G1 X4.367 Y-0.648 Z-0.144 F300.000
G1 X4.242 Y-1.222 Z-0.170 F300.000
G1 X4.043 Y-1.775 Z-0.195 F300.000
G1 X3.771 Y-2.296 Z-0.221 F300.000
G1 X3.433 Y-2.776 Z-0.245 F300.000
G1 X3.033 Y-3.208 Z-0.268 F300.000
G1 X2.580 Y-3.582 Z-0.289 F300.000
G1 X2.081 Y-3.893 Z-0.309 F300.000
G1 X1.546 Y-4.135 Z-0.325 F300.000
G1 X0.982 Y-4.304 Z-0.339 F300.000
G1 X0.412 Y-4.395 Z-0.341 F300.000
G1 X-0.166 Y-4.411 Z-0.348 F300.000
G1 X-0.741 Y-4.351 Z-0.358 F300.000
G1 X-1.302 Y-4.217 Z-0.373 F300.000
G1 X-1.842 Y-4.011 Z-0.391 F300.000
G1 X-2.350 Y-3.736 Z-0.413 F300.000
G1 X-2.818 Y-3.398 Z-0.437 F300.000
G1 X-3.237 Y-3.001 Z-0.464 F300.000
G1 X-3.601 Y-2.553 Z-0.494 F300.000
G1 X-3.904 Y-2.062 Z-0.525 F300.000
G1 X-4.139 Y-1.535 Z-0.557 F300.000
G1 X-4.304 Y-0.982 Z-0.589 F300.000
G1 X-4.396 Y-0.413 Z-0.622 F300.000
G1 X-4.412 Y0.164 Z-0.654 F300.000
G1 X-4.352 Y0.738 Z-0.685 F300.000
G1 X-4.219 Y1.299 Z-0.714 F300.000
G1 X-4.013 Y1.839 Z-0.741 F300.000
G1 X-3.738 Y2.346 Z-0.766 F300.000
G1 X-3.400 Y2.814 Z-0.787 F300.000
G1 X-3.003 Y3.234 Z-0.806 F300.000
G1 X-2.555 Y3.599 Z-0.820 F300.000
G1 X-2.063 Y3.902 Z-0.831 F300.000
G1 X-1.536 Y4.138 Z-0.837 F300.000
G1 X-0.982 Y4.304 Z-0.839 F300.000
G1 X-0.433 Y4.394 Z-0.858 F300.000
G1 X0.124 Y4.413 Z-0.878 F300.000
G1 X0.678 Y4.363 Z-0.899 F300.000
G1 X1.222 Y4.242 Z-0.920 F300.000
G1 X1.747 Y4.055 Z-0.941 F300.000
G1 X2.243 Y3.803 Z-0.961 F300.000
G1 X2.704 Y3.490 Z-0.981 F300.000
G1 X3.122 Y3.122 Z-1.000 F300.000
G1 X3.509 Y2.679 Z-1.014 F300.000
G1 X3.834 Y2.189 Z-1.031 F300.000
G1 X4.091 Y1.660 Z-1.050 F300.000
G1 X4.275 Y1.102 Z-1.071 F300.000
G1 X4.384 Y0.525 Z-1.094 F300.000
G1 X4.414 Y-0.062 Z-1.119 F300.000
G1 X4.367 Y-0.648 Z-1.144 F300.000
G1 X4.242 Y-1.222 Z-1.170 F300.000
G1 X4.043 Y-1.775 Z-1.195 F300.000
G1 X3.771 Y-2.296 Z-1.221 F300.000
G1 X3.433 Y-2.776 Z-1.245 F300.000
G1 X3.033 Y-3.208 Z-1.268 F300.000
G1 X2.580 Y-3.582 Z-1.289 F300.000
G1 X2.081 Y-3.893 Z-1.309 F300.000
G1 X1.546 Y-4.135 Z-1.325 F300.000
G1 X0.982 Y-4.304 Z-1.339 F300.000
G1 X0.412 Y-4.395 Z-1.341 F300.000
G1 X-0.166 Y-4.411 Z-1.348 F300.000
G1 X-0.741 Y-4.351 Z-1.358 F300.000
G1 X-1.302 Y-4.217 Z-1.373 F300.000
G1 X-1.842 Y-4.011 Z-1.391 F300.000
G1 X-2.350 Y-3.736 Z-1.413 F300.000
G1 X-2.818 Y-3.398 Z-1.437 F300.000
G1 X-3.237 Y-3.001 Z-1.464 F300.000
G1 X-3.601 Y-2.553 Z-1.494 F300.000
G1 X-3.904 Y-2.062 Z-1.525 F300.000
G1 X-4.139 Y-1.535 Z-1.557 F300.000
G1 X-4.304 Y-0.982 Z-1.589 F300.000
G1 X-4.396 Y-0.413 Z-1.622 F300.000
G1 X-4.412 Y0.164 Z-1.654 F300.000
G1 X-4.352 Y0.738 Z-1.685 F300.000
G1 X-4.219 Y1.299 Z-1.714 F300.000
G1 X-4.013 Y1.839 Z-1.741 F300.000
G1 X-3.738 Y2.346 Z-1.766 F300.000
G1 X-3.400 Y2.814 Z-1.787 F300.000
G1 X-3.003 Y3.234 Z-1.806 F300.000
G1 X-2.555 Y3.599 Z-1.820 F300.000
G1 X-2.063 Y3.902 Z-1.831 F300.000
G1 X-1.536 Y4.138 Z-1.837 F300.000
G1 X-0.982 Y4.304 Z-1.839 F300.000
G1 X-0.433 Y4.394 Z-1.858 F300.000
G1 X0.124 Y4.413 Z-1.878 F300.000
G1 X0.678 Y4.363 Z-1.899 F300.000
G1 X1.222 Y4.242 Z-1.920 F300.000
G1 X1.747 Y4.055 Z-1.941 F300.000
G1 X2.243 Y3.803 Z-1.961 F300.000
G1 X2.704 Y3.490 Z-1.981 F300.000
G1 X3.122 Y3.122 Z-2.000 F300.000
G1 X3.509 Y2.679 Z-2.014 F300.000
G1 X3.834 Y2.189 Z-2.031 F300.000
G1 X4.091 Y1.660 Z-2.050 F300.000
G1 X4.275 Y1.102 Z-2.071 F300.000
G1 X4.384 Y0.525 Z-2.094 F300.000
G1 X4.414 Y-0.062 Z-2.119 F300.000
G1 X4.367 Y-0.648 Z-2.144 F300.000
G1 X4.242 Y-1.222 Z-2.170 F300.000
G1 X4.043 Y-1.775 Z-2.195 F300.000
G1 X3.771 Y-2.296 Z-2.221 F300.000
G1 X3.433 Y-2.776 Z-2.245 F300.000
G1 X3.033 Y-3.208 Z-2.268 F300.000
G1 X2.580 Y-3.582 Z-2.289 F300.000
G1 X2.081 Y-3.893 Z-2.309 F300.000
G1 X1.546 Y-4.135 Z-2.325 F300.000
G1 X0.982 Y-4.304 Z-2.339 F300.000
G1 X0.412 Y-4.395 Z-2.341 F300.000
G1 X-0.166 Y-4.411 Z-2.348 F300.000
G1 X-0.741 Y-4.351 Z-2.358 F300.000
G1 X-1.302 Y-4.217 Z-2.373 F300.000
G1 X-1.842 Y-4.011 Z-2.391 F300.000
G1 X-2.350 Y-3.736 Z-2.413 F300.000
G1 X-2.818 Y-3.398 Z-2.437 F300.000
G1 X-3.237 Y-3.001 Z-2.464 F300.000
G1 X-3.601 Y-2.553 Z-2.494 F300.000
G1 X-3.904 Y-2.062 Z-2.525 F300.000
G1 X-4.139 Y-1.535 Z-2.557 F300.000
G1 X-4.304 Y-0.982 Z-2.589 F300.000
G1 X-4.396 Y-0.413 Z-2.622 F300.000
G1 X-4.412 Y0.164 Z-2.654 F300.000
G1 X-4.352 Y0.738 Z-2.685 F300.000
G1 X-4.219 Y1.299 Z-2.714 F300.000
G1 X-4.013 Y1.839 Z-2.741 F300.000
G1 X-3.738 Y2.346 Z-2.766 F300.000
G1 X-3.400 Y2.814 Z-2.787 F300.000
G1 X-3.003 Y3.234 Z-2.806 F300.000
G1 X-2.555 Y3.599 Z-2.820 F300.000
G1 X-2.063 Y3.902 Z-2.831 F300.000
G1 X-1.536 Y4.138 Z-2.837 F300.000
G1 X-0.982 Y4.304 Z-2.839 F300.000
G1 X-0.433 Y4.394 Z-2.858 F300.000
G1 X0.124 Y4.413 Z-2.878 F300.000
G1 X0.678 Y4.363 Z-2.899 F300.000
G1 X1.222 Y4.242 Z-2.920 F300.000
G1 X1.747 Y4.055 Z-2.941 F300.000
G1 X2.243 Y3.803 Z-2.961 F300.000
G1 X2.704 Y3.490 Z-2.981 F300.000
G1 X3.122 Y3.122 Z-3.000 F300.000
G1 X3.509 Y2.679 Z-3.014 F300.000
G1 X3.834 Y2.189 Z-3.031 F300.000
G1 X4.091 Y1.660 Z-3.050 F300.000
G1 X4.275 Y1.102 Z-3.071 F300.000
G1 X4.384 Y0.525 Z-3.094 F300.000
G1 X4.414 Y-0.062 Z-3.119 F300.000
G1 X4.367 Y-0.648 Z-3.144 F300.000
G1 X4.242 Y-1.222 Z-3.170 F300.000
G1 X4.043 Y-1.775 Z-3.195 F300.000
G1 X3.771 Y-2.296 Z-3.221 F300.000
G1 X3.433 Y-2.776 Z-3.245 F300.000
G1 X3.033 Y-3.208 Z-3.268 F300.000
G1 X2.580 Y-3.582 Z-3.289 F300.000
G1 X2.081 Y-3.893 Z-3.309 F300.000
G1 X1.546 Y-4.135 Z-3.325 F300.000
G1 X0.982 Y-4.304 Z-3.339 F300.000
G1 X0.412 Y-4.395 Z-3.341 F300.000
G1 X-0.166 Y-4.411 Z-3.348 F300.000
G1 X-0.741 Y-4.351 Z-3.358 F300.000
G1 X-1.302 Y-4.217 Z-3.373 F300.000
G1 X-1.842 Y-4.011 Z-3.391 F300.000
G1 X-2.350 Y-3.736 Z-3.413 F300.000
G1 X-2.818 Y-3.398 Z-3.437 F300.000
G1 X-3.237 Y-3.001 Z-3.464 F300.000
G1 X-3.601 Y-2.553 Z-3.494 F300.000
G1 X-3.904 Y-2.062 Z-3.525 F300.000
G1 X-4.139 Y-1.535 Z-3.557 F300.000
G1 X-4.304 Y-0.982 Z-3.589 F300.000
G1 X-4.396 Y-0.413 Z-3.622 F300.000
G1 X-4.412 Y0.164 Z-3.654 F300.000
G1 X-4.352 Y0.738 Z-3.685 F300.000
G1 X-4.219 Y1.299 Z-3.714 F300.000
G1 X-4.013 Y1.839 Z-3.741 F300.000
G1 X-3.738 Y2.346 Z-3.766 F300.000
G1 X-3.400 Y2.814 Z-3.787 F300.000
G1 X-3.003 Y3.234 Z-3.806 F300.000
G1 X-2.555 Y3.599 Z-3.820 F300.000
G1 X-2.063 Y3.902 Z-3.831 F300.000
G1 X-1.536 Y4.138 Z-3.837 F300.000
G1 X-0.982 Y4.304 Z-3.839 F300.000
G1 X-0.433 Y4.394 Z-3.858 F300.000
G1 X0.124 Y4.413 Z-3.878 F300.000
G1 X0.678 Y4.363 Z-3.899 F300.000
G1 X1.222 Y4.242 Z-3.920 F300.000
G1 X1.747 Y4.055 Z-3.941 F300.000
G1 X2.243 Y3.803 Z-3.961 F300.000
G1 X2.704 Y3.490 Z-3.981 F300.000
G1 X3.122 Y3.122 Z-4.000 F300.000
G1 X3.509 Y2.679 Z-4.014 F300.000
G1 X3.834 Y2.189 Z-4.031 F300.000
G1 X4.091 Y1.660 Z-4.050 F300.000
G1 X4.275 Y1.102 Z-4.071 F300.000
G1 X4.384 Y0.525 Z-4.094 F300.000
G1 X4.414 Y-0.062 Z-4.119 F300.000
G1 X4.367 Y-0.648 Z-4.144 F300.000
G1 X4.242 Y-1.222 Z-4.170 F300.000
G1 X4.043 Y-1.775 Z-4.195 F300.000
G1 X3.771 Y-2.296 Z-4.221 F300.000
G1 X3.433 Y-2.776 Z-4.245 F300.000
G1 X3.033 Y-3.208 Z-4.268 F300.000
G1 X2.580 Y-3.582 Z-4.289 F300.000
G1 X2.081 Y-3.893 Z-4.309 F300.000
G1 X1.546 Y-4.135 Z-4.325 F300.000
G1 X0.982 Y-4.304 Z-4.339 F300.000
G1 X0.412 Y-4.395 Z-4.341 F300.000
G1 X-0.166 Y-4.411 Z-4.348 F300.000
G1 X-0.741 Y-4.351 Z-4.358 F300.000
G1 X-1.302 Y-4.217 Z-4.373 F300.000
G1 X-1.842 Y-4.011 Z-4.391 F300.000
G1 X-2.350 Y-3.736 Z-4.413 F300.000
G1 X-2.818 Y-3.398 Z-4.437 F300.000
G1 X-3.237 Y-3.001 Z-4.464 F300.000
G1 X-3.601 Y-2.553 Z-4.494 F300.000
G1 X-3.904 Y-2.062 Z-4.525 F300.000
G1 X-4.139 Y-1.535 Z-4.557 F300.000
G1 X-4.304 Y-0.982 Z-4.589 F300.000
G1 X-4.396 Y-0.413 Z-4.622 F300.000
G1 X-4.412 Y0.164 Z-4.654 F300.000
G1 X-4.352 Y0.738 Z-4.685 F300.000
G1 X-4.219 Y1.299 Z-4.714 F300.000
G1 X-4.013 Y1.839 Z-4.741 F300.000
G1 X-3.738 Y2.346 Z-4.766 F300.000
G1 X-3.400 Y2.814 Z-4.787 F300.000
G1 X-3.003 Y3.234 Z-4.806 F300.000
G1 X-2.555 Y3.599 Z-4.820 F300.000
G1 X-2.063 Y3.902 Z-4.831 F300.000
G1 X-1.536 Y4.138 Z-4.837 F300.000
G1 X-0.982 Y4.304 Z-4.839 F300.000
G1 X-0.433 Y4.394 Z-4.858 F300.000
G1 X0.124 Y4.413 Z-4.878 F300.000
G1 X0.678 Y4.363 Z-4.899 F300.000
G1 X1.222 Y4.242 Z-4.920 F300.000
G1 X1.747 Y4.055 Z-4.941 F300.000
G1 X2.243 Y3.803 Z-4.961 F300.000
G1 X2.704 Y3.490 Z-4.981 F300.000
G1 X3.122 Y3.122 Z-5.000 F300.000
G1 X3.509 Y2.679 Z-5.014 F300.000
G1 X3.834 Y2.189 Z-5.031 F300.000
G1 X4.091 Y1.660 Z-5.050 F300.000
G1 X4.275 Y1.102 Z-5.071 F300.000
G1 X4.384 Y0.525 Z-5.094 F300.000
G1 X4.414 Y-0.062 Z-5.119 F300.000
G1 X4.367 Y-0.648 Z-5.144 F300.000
G1 X4.242 Y-1.222 Z-5.170 F300.000
G1 X4.043 Y-1.775 Z-5.195 F300.000
G1 X3.771 Y-2.296 Z-5.221 F300.000
G1 X3.433 Y-2.776 Z-5.245 F300.000
G1 X3.033 Y-3.208 Z-5.268 F300.000
G1 X2.580 Y-3.582 Z-5.289 F300.000
G1 X2.081 Y-3.893 Z-5.309 F300.000
G1 X1.546 Y-4.135 Z-5.325 F300.000
G1 X0.982 Y-4.304 Z-5.339 F300.000
G1 X0.412 Y-4.395 Z-5.341 F300.000
G1 X-0.166 Y-4.411 Z-5.348 F300.000
G1 X-0.741 Y-4.351 Z-5.358 F300.000
G1 X-1.302 Y-4.217 Z-5.373 F300.000
G1 X-1.842 Y-4.011 Z-5.391 F300.000
G1 X-2.350 Y-3.736 Z-5.413 F300.000
G1 X-2.818 Y-3.398 Z-5.437 F300.000
G1 X-3.237 Y-3.001 Z-5.464 F300.000
G1 X-3.601 Y-2.553 Z-5.494 F300.000
G1 X-3.904 Y-2.062 Z-5.525 F300.000
G1 X-4.139 Y-1.535 Z-5.557 F300.000
G1 X-4.304 Y-0.982 Z-5.589 F300.000
G1 X-4.396 Y-0.413 Z-5.622 F300.000
G1 X-4.412 Y0.164 Z-5.654 F300.000
G1 X-4.352 Y0.738 Z-5.685 F300.000
G1 X-4.219 Y1.299 Z-5.714 F300.000
G1 X-4.013 Y1.839 Z-5.741 F300.000
G1 X-3.738 Y2.346 Z-5.766 F300.000
G1 X-3.400 Y2.814 Z-5.787 F300.000
G1 X-3.003 Y3.234 Z-5.806 F300.000
G1 X-2.555 Y3.599 Z-5.820 F300.000
G1 X-2.063 Y3.902 Z-5.831 F300.000
G1 X-1.536 Y4.138 Z-5.837 F300.000
G1 X-0.982 Y4.304 Z-5.839 F300.000
G1 X-0.433 Y4.394 Z-5.858 F300.000
G1 X0.124 Y4.413 Z-5.878 F300.000
G1 X0.678 Y4.363 Z-5.899 F300.000
G1 X1.222 Y4.242 Z-5.920 F300.000
G1 X1.747 Y4.055 Z-5.941 F300.000
G1 X2.243 Y3.803 Z-5.961 F300.000
G1 X2.704 Y3.490 Z-5.981 F300.000
G1 X3.122 Y3.122 Z-6.000 F300.000
G1 X3.509 Y2.679 Z-6.014 F300.000
G1 X3.834 Y2.189 Z-6.031 F300.000
G1 X4.091 Y1.660 Z-6.050 F300.000
G1 X4.275 Y1.102 Z-6.071 F300.000
G1 X4.384 Y0.525 Z-6.094 F300.000
G1 X4.414 Y-0.062 Z-6.119 F300.000
G1 X4.367 Y-0.648 Z-6.144 F300.000
G1 X4.242 Y-1.222 Z-6.170 F300.000
G1 X4.043 Y-1.775 Z-6.195 F300.000
G1 X3.771 Y-2.296 Z-6.221 F300.000
G1 X3.433 Y-2.776 Z-6.245 F300.000
G1 X3.033 Y-3.208 Z-6.268 F300.000
G1 X2.580 Y-3.582 Z-6.289 F300.000
G1 X2.081 Y-3.893 Z-6.309 F300.000
G1 X1.546 Y-4.135 Z-6.325 F300.000
G1 X0.982 Y-4.304 Z-6.339 F300.000
G1 X0.412 Y-4.395 Z-6.341 F300.000
G1 X-0.166 Y-4.411 Z-6.348 F300.000
G1 X-0.741 Y-4.351 Z-6.358 F300.000
G1 X-1.302 Y-4.217 Z-6.373 F300.000
G1 X-1.842 Y-4.011 Z-6.391 F300.000
G1 X-2.350 Y-3.736 Z-6.413 F300.000
G1 X-2.818 Y-3.398 Z-6.437 F300.000
G1 X-3.237 Y-3.001 Z-6.464 F300.000
G1 X-3.601 Y-2.553 Z-6.494 F300.000
G1 X-3.904 Y-2.062 Z-6.525 F300.000
G1 X-4.139 Y-1.535 Z-6.557 F300.000
G1 X-4.304 Y-0.982 Z-6.589 F300.000
G1 X-4.396 Y-0.413 Z-6.622 F300.000
G1 X-4.412 Y0.164 Z-6.654 F300.000
G1 X-4.352 Y0.738 Z-6.685 F300.000
G1 X-4.219 Y1.299 Z-6.714 F300.000
G1 X-4.013 Y1.839 Z-6.741 F300.000
G1 X-3.738 Y2.346 Z-6.766 F300.000
G1 X-3.400 Y2.814 Z-6.787 F300.000
G1 X-3.003 Y3.234 Z-6.806 F300.000
G1 X-2.555 Y3.599 Z-6.820 F300.000
G1 X-2.063 Y3.902 Z-6.831 F300.000
G1 X-1.536 Y4.138 Z-6.837 F300.000
G1 X-0.982 Y4.304 Z-6.839 F300.000
G1 X-0.433 Y4.394 Z-6.858 F300.000
G1 X0.124 Y4.413 Z-6.878 F300.000
G1 X0.678 Y4.363 Z-6.899 F300.000
G1 X1.222 Y4.242 Z-6.920 F300.000
G1 X1.747 Y4.055 Z-6.941 F300.000
G1 X2.243 Y3.803 Z-6.961 F300.000
G1 X2.704 Y3.490 Z-6.981 F300.000
G1 X3.122 Y3.122 Z-7.000 F300.000
G1 X3.509 Y2.679 Z-7.014 F300.000
G1 X3.834 Y2.189 Z-7.031 F300.000
G1 X4.091 Y1.660 Z-7.050 F300.000
G1 X4.275 Y1.102 Z-7.071 F300.000
G1 X4.384 Y0.525 Z-7.094 F300.000
G1 X4.414 Y-0.062 Z-7.119 F300.000
G1 X4.367 Y-0.648 Z-7.144 F300.000
G1 X4.242 Y-1.222 Z-7.170 F300.000
G1 X4.043 Y-1.775 Z-7.195 F300.000
G1 X3.771 Y-2.296 Z-7.221 F300.000
G1 X3.433 Y-2.776 Z-7.245 F300.000
G1 X3.033 Y-3.208 Z-7.268 F300.000
G1 X2.580 Y-3.582 Z-7.289 F300.000
G1 X2.081 Y-3.893 Z-7.309 F300.000
G1 X1.546 Y-4.135 Z-7.325 F300.000
G1 X0.982 Y-4.304 Z-7.339 F300.000
G1 X0.412 Y-4.395 Z-7.341 F300.000
G1 X-0.166 Y-4.411 Z-7.348 F300.000
G1 X-0.741 Y-4.351 Z-7.358 F300.000
G1 X-1.302 Y-4.217 Z-7.373 F300.000
G1 X-1.842 Y-4.011 Z-7.391 F300.000
G1 X-2.350 Y-3.736 Z-7.413 F300.000
G1 X-2.818 Y-3.398 Z-7.437 F300.000
G1 X-3.237 Y-3.001 Z-7.464 F300.000
G1 X-3.601 Y-2.553 Z-7.494 F300.000
G1 X-3.904 Y-2.062 Z-7.525 F300.000
G1 X-4.139 Y-1.535 Z-7.557 F300.000
G1 X-4.304 Y-0.982 Z-7.589 F300.000
G1 X-4.396 Y-0.413 Z-7.622 F300.000
G1 X-4.412 Y0.164 Z-7.654 F300.000
G1 X-4.352 Y0.738 Z-7.685 F300.000
G1 X-4.219 Y1.299 Z-7.714 F300.000
G1 X-4.013 Y1.839 Z-7.741 F300.000
G1 X-3.738 Y2.346 Z-7.766 F300.000
G1 X-3.400 Y2.814 Z-7.787 F300.000
G1 X-3.003 Y3.234 Z-7.806 F300.000
G1 X-2.555 Y3.599 Z-7.820 F300.000
G1 X-2.063 Y3.902 Z-7.831 F300.000
G1 X-1.536 Y4.138 Z-7.837 F300.000
G1 X-0.982 Y4.304 Z-7.839 F300.000
G1 X-0.433 Y4.394 Z-7.858 F300.000
G1 X0.124 Y4.413 Z-7.878 F300.000
G1 X0.678 Y4.363 Z-7.899 F300.000
G1 X1.222 Y4.242 Z-7.920 F300.000
G1 X1.747 Y4.055 Z-7.941 F300.000
G1 X2.243 Y3.803 Z-7.961 F300.000
G1 X2.704 Y3.490 Z-7.981 F300.000
G1 X3.122 Y3.122 Z-8.000 F300.000
G1 X3.509 Y2.679 Z-8.014 F300.000
G1 X3.834 Y2.189 Z-8.031 F300.000
G1 X4.091 Y1.660 Z-8.050 F300.000
G1 X4.275 Y1.102 Z-8.071 F300.000
G1 X4.384 Y0.525 Z-8.094 F300.000
G1 X4.414 Y-0.062 Z-8.119 F300.000
G1 X4.367 Y-0.648 Z-8.144 F300.000
G1 X4.242 Y-1.222 Z-8.170 F300.000
G1 X4.043 Y-1.775 Z-8.195 F300.000
G1 X3.771 Y-2.296 Z-8.221 F300.000
G1 X3.433 Y-2.776 Z-8.245 F300.000
G1 X3.033 Y-3.208 Z-8.268 F300.000
G1 X2.580 Y-3.582 Z-8.289 F300.000
G1 X2.081 Y-3.893 Z-8.309 F300.000
G1 X1.546 Y-4.135 Z-8.325 F300.000
G1 X0.982 Y-4.304 Z-8.339 F300.000
G1 X0.412 Y-4.395 Z-8.341 F300.000
G1 X-0.166 Y-4.411 Z-8.348 F300.000
G1 X-0.741 Y-4.351 Z-8.358 F300.000
G1 X-1.302 Y-4.217 Z-8.373 F300.000
G1 X-1.842 Y-4.011 Z-8.391 F300.000
G1 X-2.350 Y-3.736 Z-8.413 F300.000
G1 X-2.818 Y-3.398 Z-8.437 F300.000
G1 X-3.237 Y-3.001 Z-8.464 F300.000
G1 X-3.601 Y-2.553 Z-8.494 F300.000
G1 X-3.904 Y-2.062 Z-8.525 F300.000
G1 X-4.139 Y-1.535 Z-8.557 F300.000
G1 X-4.304 Y-0.982 Z-8.589 F300.000
G1 X-4.396 Y-0.413 Z-8.622 F300.000
G1 X-4.412 Y0.164 Z-8.654 F300.000
G1 X-4.352 Y0.738 Z-8.685 F300.000
G1 X-4.219 Y1.299 Z-8.714 F300.000
G1 X-4.013 Y1.839 Z-8.741 F300.000
G1 X-3.738 Y2.346 Z-8.766 F300.000
G1 X-3.400 Y2.814 Z-8.787 F300.000
G1 X-3.003 Y3.234 Z-8.806 F300.000
G1 X-2.555 Y3.599 Z-8.820 F300.000
G1 X-2.063 Y3.902 Z-8.831 F300.000
G1 X-1.536 Y4.138 Z-8.837 F300.000
G1 X-0.982 Y4.304 Z-8.839 F300.000
G1 X-0.433 Y4.394 Z-8.858 F300.000
G1 X0.124 Y4.413 Z-8.878 F300.000
G1 X0.678 Y4.363 Z-8.899 F300.000
G1 X1.222 Y4.242 Z-8.920 F300.000
G1 X1.747 Y4.055 Z-8.941 F300.000
G1 X2.243 Y3.803 Z-8.961 F300.000
G1 X2.704 Y3.490 Z-8.981 F300.000
G1 X3.122 Y3.122 Z-9.000 F300.000
G1 X3.509 Y2.679 Z-9.014 F300.000
G1 X3.834 Y2.189 Z-9.031 F300.000
G1 X4.091 Y1.660 Z-9.050 F300.000
G1 X4.275 Y1.102 Z-9.071 F300.000
G1 X4.384 Y0.525 Z-9.094 F300.000
G1 X4.414 Y-0.062 Z-9.119 F300.000
G1 X4.367 Y-0.648 Z-9.144 F300.000
G1 X4.242 Y-1.222 Z-9.170 F300.000
G1 X4.043 Y-1.775 Z-9.195 F300.000
G1 X3.771 Y-2.296 Z-9.221 F300.000
G1 X3.433 Y-2.776 Z-9.245 F300.000
G1 X3.033 Y-3.208 Z-9.268 F300.000
G1 X2.580 Y-3.582 Z-9.289 F300.000
G1 X2.081 Y-3.893 Z-9.309 F300.000
G1 X1.546 Y-4.135 Z-9.325 F300.000
G1 X0.982 Y-4.304 Z-9.339 F300.000
G1 X0.412 Y-4.395 Z-9.341 F300.000
G1 X-0.166 Y-4.411 Z-9.348 F300.000
G1 X-0.741 Y-4.351 Z-9.358 F300.000
G1 X-1.302 Y-4.217 Z-9.373 F300.000
G1 X-1.842 Y-4.011 Z-9.391 F300.000
G1 X-2.350 Y-3.736 Z-9.413 F300.000
G1 X-2.818 Y-3.398 Z-9.437 F300.000
G1 X-3.237 Y-3.001 Z-9.464 F300.000
G1 X-3.601 Y-2.553 Z-9.494 F300.000
G1 X-3.904 Y-2.062 Z-9.525 F300.000
G1 X-4.139 Y-1.535 Z-9.557 F300.000
G1 X-4.304 Y-0.982 Z-9.589 F300.000
G1 X-4.396 Y-0.413 Z-9.622 F300.000
G1 X-4.412 Y0.164 Z-9.654 F300.000
G1 X-4.352 Y0.738 Z-9.685 F300.000
G1 X-4.219 Y1.299 Z-9.714 F300.000
G1 X-4.013 Y1.839 Z-9.741 F300.000
G1 X-3.738 Y2.346 Z-9.766 F300.000
G1 X-3.400 Y2.814 Z-9.787 F300.000
G1 X-3.003 Y3.234 Z-9.806 F300.000
G1 X-2.555 Y3.599 Z-9.820 F300.000
G1 X-2.063 Y3.902 Z-9.831 F300.000
G1 X-1.536 Y4.138 Z-9.837 F300.000
G1 X-0.982 Y4.304 Z-9.839 F300.000
G1 X-0.433 Y4.394 Z-9.858 F300.000
G1 X0.124 Y4.413 Z-9.878 F300.000
G1 X0.678 Y4.363 Z-9.899 F300.000
G1 X1.222 Y4.242 Z-9.920 F300.000
G1 X1.747 Y4.055 Z-9.941 F300.000
G1 X2.243 Y3.803 Z-9.961 F300.000
G1 X2.704 Y3.490 Z-9.981 F300.000
G1 X3.122 Y3.122 Z-10.000 F300.000
G2 X0.982 Y-4.304 Z-10.000 I-3.122 J-3.122 K0.000 F300.000
G2 X-0.982 Y4.304 Z-10.000 I-0.982 J4.304 K0.000 F300.000
G2 X3.122 Y3.122 Z-10.000 I0.982 J-4.304 K0.000 F300.000
G0 X3.122 Y3.122 Z6.000
(Finish operation: RampEntryDressup001)
(Begin operation: SELECT_Pocket_Shape)
(Path: SELECT_Pocket_Shape)
(SELECT_Pocket_Shape)
G0 Z6.000
G0 X-21.043 Y-0.608
G0 Z4.000
G1 X-21.043 Y-0.608 Z0.000 F120.000
G1 X-21.043 Y-13.594 Z0.000 F300.000
G1 X-23.899 Y-13.594 Z0.000 F300.000
G1 X-23.899 Y-5.951 Z0.000 F300.000
G3 X-25.481 Y-4.368 Z0.000 I-1.583 J0.000 K-0.000 F300.000
G1 X-29.225 Y-4.368 Z0.000 F300.000
G3 X-30.808 Y-5.951 Z0.000 I-0.000 J-1.582 K-0.000 F300.000
G1 X-30.808 Y-12.666 Z-0.000 F300.000
G1 X-33.347 Y-12.666 Z-0.000 F300.000
G1 X-33.347 Y-5.951 Z-0.000 F300.000
G3 X-34.930 Y-4.368 Z-0.000 I-1.583 J0.000 K-0.000 F300.000
G1 X-38.979 Y-4.368 Z-0.000 F300.000
G3 X-40.561 Y-5.951 Z-0.000 I0.000 J-1.583 K-0.000 F300.000
G1 X-40.561 Y-13.899 Z-0.000 F300.000
G1 X-43.417 Y-13.899 Z-0.000 F300.000
G1 X-43.417 Y-0.608 Z-0.000 F300.000
G1 X-21.043 Y-0.608 Z0.000 F300.000
G0 Z6.000
G0 X-25.961 Z6.000
G0 X-25.961 Z4.000
G1 X-25.961 Y-0.608 Z0.000 F120.000
G1 X-29.860 Y-4.507 Z0.000 F300.000
G2 X-29.225 Y-4.368 Z0.000 I0.620 J-1.320 K0.000 F300.000
G1 X-25.481 Y-4.368 Z0.000 F300.000
G1 X-25.269 Y-4.392 Z0.000 F300.000
G1 X-21.485 Y-0.608 Z0.000 F300.000
G1 X-21.043 Y-0.608 Z0.000 F300.000
G1 X-21.043 Y-4.642 Z0.000 F300.000
G1 X-23.899 Y-7.498 Z0.000 F300.000
G1 X-23.899 Y-11.974 Z0.000 F300.000
G1 X-21.043 Y-9.118 Z0.000 F300.000
G1 X-21.043 Y-13.594 Z0.000 F300.000
G0 Z6.000
G0 X-33.347 Y-12.470 Z6.000
G0 X-33.347 Y-12.470 Z4.000
G1 X-33.347 Y-12.470 Z-0.000 F120.000
G1 X-33.347 Y-12.666 Z-0.000 F300.000
G1 X-30.808 Y-12.666 Z-0.000 F300.000
G1 X-30.808 Y-9.931 Z0.000 F300.000
G1 X-33.347 Y-12.470 Z-0.000 F300.000
G1 X-33.347 Y-7.994 Z-0.000 F300.000
G1 X-30.669 Y-5.316 Z0.000 F300.000
G2 X-29.860 Y-4.507 Z0.000 I1.387 J-0.577 K0.000 F300.000
G1 X-25.961 Y-0.608 Z0.000 F300.000
G1 X-30.437 Y-0.608 Z0.000 F300.000
G1 X-34.325 Y-4.496 Z-0.000 F300.000
G3 X-34.930 Y-4.368 Z-0.000 I-0.583 J-1.260 K-0.000 F300.000
G1 X-38.673 Y-4.368 Z-0.000 F300.000
G1 X-34.913 Y-0.608 Z0.000 F300.000
G0 Z6.000
G0 X-39.389 Z6.000
G0 X-39.389 Z4.000
G1 X-39.389 Y-0.608 Z-0.000 F120.000
G1 X-43.417 Y-0.608 Z-0.000 F300.000
G1 X-43.417 Y-4.637 Z-0.000 F300.000
G1 X-39.389 Y-0.608 Z-0.000 F300.000
G1 X-34.913 Y-0.608 Z0.000 F300.000
G1 X-38.673 Y-4.368 Z-0.000 F300.000
G3 X-39.665 Y-4.525 Z-0.000 I-0.153 J-2.252 K-0.000 F300.000
G3 X-40.561 Y-6.256 Z-0.000 I0.743 J-1.482 K0.000 F300.000
G1 X-43.417 Y-9.113 Z-0.000 F300.000
G1 X-43.417 Y-13.589 Z-0.000 F300.000
G1 X-40.561 Y-10.732 Z-0.000 F300.000
G1 X-40.561 Y-13.899 Z-0.000 F300.000
G1 X-43.417 Y-13.899 Z-0.000 F300.000
G1 X-43.417 Y-13.589 Z-0.000 F300.000
G1 X-43.417 Y-13.589 Z-1.000 F120.000
G1 X-43.417 Y-13.899 Z-1.000 F300.000
G1 X-40.561 Y-13.899 Z-1.000 F300.000
G1 X-40.561 Y-10.732 Z-1.000 F300.000
G1 X-43.417 Y-13.589 Z-1.000 F300.000
G1 X-43.417 Y-9.113 Z-1.000 F300.000
G1 X-40.561 Y-6.256 Z-1.000 F300.000
G2 X-39.665 Y-4.525 Z-1.000 I1.638 J0.250 K0.000 F300.000
G2 X-38.673 Y-4.368 Z-1.000 I0.839 J-2.095 K0.000 F300.000
G1 X-34.913 Y-0.608 Z-1.000 F300.000
G1 X-39.389 Y-0.608 Z-1.000 F300.000
G1 X-43.417 Y-4.637 Z-1.000 F300.000
G1 X-43.417 Y-0.608 Z-1.000 F300.000
G1 X-39.389 Y-0.608 Z-1.000 F300.000
G1 X-39.389 Y-0.608 Z-1.000 F120.000
G1 X-21.043 Y-0.608 Z-1.000 F300.000
G1 X-21.043 Y-13.594 Z-1.000 F300.000
G1 X-23.899 Y-13.594 Z-1.000 F300.000
G1 X-23.899 Y-5.951 Z-1.000 F300.000
G3 X-25.481 Y-4.368 Z-1.000 I-1.583 J0.000 K0.000 F300.000
G1 X-29.225 Y-4.368 Z-1.000 F300.000
G3 X-30.808 Y-5.951 Z-1.000 I-0.000 J-1.582 K0.000 F300.000
G1 X-30.808 Y-12.666 Z-1.000 F300.000
G1 X-33.347 Y-12.666 Z-1.000 F300.000
G1 X-33.347 Y-5.951 Z-1.000 F300.000
G3 X-34.930 Y-4.368 Z-1.000 I-1.583 J0.000 K0.000 F300.000
G1 X-38.979 Y-4.368 Z-1.000 F300.000
G3 X-40.561 Y-5.951 Z-1.000 I0.000 J-1.583 K0.000 F300.000
G1 X-40.561 Y-13.899 Z-1.000 F300.000
G1 X-43.417 Y-13.899 Z-1.000 F300.000
G1 X-43.417 Y-0.608 Z-1.000 F300.000
G1 X-39.389 Y-0.608 Z-1.000 F300.000
G0 Z6.000
G0 X-34.913 Z6.000
G0 X-34.913 Z4.000
G1 X-34.913 Y-0.608 Z-1.000 F120.000
G1 X-38.673 Y-4.368 Z-1.000 F300.000
G1 X-34.930 Y-4.368 Z-1.000 F300.000
G2 X-34.325 Y-4.496 Z-1.000 I0.022 J-1.388 K0.000 F300.000
G1 X-30.437 Y-0.608 Z-1.000 F300.000
G1 X-25.961 Y-0.608 Z-1.000 F300.000
G1 X-29.860 Y-4.507 Z-1.000 F300.000
G3 X-30.669 Y-5.316 Z-1.000 I0.577 J-1.387 K0.000 F300.000
G1 X-33.347 Y-7.994 Z-1.000 F300.000
G1 X-33.347 Y-12.470 Z-1.000 F300.000
G1 X-30.808 Y-9.931 Z-1.000 F300.000
G1 X-30.808 Y-12.666 Z-1.000 F300.000
G1 X-33.347 Y-12.666 Z-1.000 F300.000
G1 X-33.347 Y-12.470 Z-1.000 F300.000
G0 Z6.000
G0 X-21.043 Y-13.594 Z6.000
G0 X-21.043 Y-13.594 Z4.000
G1 X-21.043 Y-13.594 Z-1.000 F120.000
G1 X-21.043 Y-9.118 Z-1.000 F300.000
G1 X-23.899 Y-11.974 Z-1.000 F300.000
G1 X-23.899 Y-7.498 Z-1.000 F300.000
G1 X-21.043 Y-4.642 Z-1.000 F300.000
G1 X-21.043 Y-0.608 Z-1.000 F300.000
G1 X-21.485 Y-0.608 Z-1.000 F300.000
G1 X-25.269 Y-4.392 Z-1.000 F300.000
G1 X-25.481 Y-4.368 Z-1.000 F300.000
G1 X-29.225 Y-4.368 Z-1.000 F300.000
G3 X-29.860 Y-4.507 Z-1.000 I-0.014 J-1.459 K0.000 F300.000
G1 X-25.961 Y-0.608 Z-1.000 F300.000
G1 X-25.961 Y-0.608 Z-2.000 F120.000
G1 X-29.860 Y-4.507 Z-2.000 F300.000
G2 X-29.225 Y-4.368 Z-2.000 I0.620 J-1.320 K0.000 F300.000
G1 X-25.481 Y-4.368 Z-2.000 F300.000
G1 X-25.269 Y-4.392 Z-2.000 F300.000
G1 X-21.485 Y-0.608 Z-2.000 F300.000
G1 X-21.043 Y-0.608 Z-2.000 F300.000
G1 X-21.043 Y-4.642 Z-2.000 F300.000
G1 X-23.899 Y-7.498 Z-2.000 F300.000
G1 X-23.899 Y-11.974 Z-2.000 F300.000
G1 X-21.043 Y-9.118 Z-2.000 F300.000
G1 X-21.043 Y-13.594 Z-2.000 F300.000
G1 X-21.043 Y-13.594 Z-2.000 F120.000
G1 X-23.899 Y-13.594 Z-2.000 F300.000
G1 X-23.899 Y-5.951 Z-2.000 F300.000
G3 X-25.481 Y-4.368 Z-2.000 I-1.583 J0.000 K0.000 F300.000
G1 X-29.225 Y-4.368 Z-2.000 F300.000
G3 X-30.808 Y-5.951 Z-2.000 I-0.000 J-1.582 K0.000 F300.000
G1 X-30.808 Y-12.666 Z-2.000 F300.000
G1 X-33.347 Y-12.666 Z-2.000 F300.000
G1 X-33.347 Y-5.951 Z-2.000 F300.000
G3 X-34.930 Y-4.368 Z-2.000 I-1.583 J0.000 K0.000 F300.000
G1 X-38.979 Y-4.368 Z-2.000 F300.000
G3 X-40.561 Y-5.951 Z-2.000 I0.000 J-1.583 K0.000 F300.000
G1 X-40.561 Y-13.899 Z-2.000 F300.000
G1 X-43.417 Y-13.899 Z-2.000 F300.000
G1 X-43.417 Y-0.608 Z-2.000 F300.000
G1 X-21.043 Y-0.608 Z-2.000 F300.000
G1 X-21.043 Y-13.594 Z-2.000 F300.000
G0 Z6.000
G0 X-33.347 Y-12.470 Z6.000
G0 X-33.347 Y-12.470 Z4.000
G1 X-33.347 Y-12.470 Z-2.000 F120.000
G1 X-33.347 Y-12.666 Z-2.000 F300.000
G1 X-30.808 Y-12.666 Z-2.000 F300.000
G1 X-30.808 Y-9.931 Z-2.000 F300.000
G1 X-33.347 Y-12.470 Z-2.000 F300.000
G1 X-33.347 Y-7.994 Z-2.000 F300.000
G1 X-30.669 Y-5.316 Z-2.000 F300.000
G2 X-29.860 Y-4.507 Z-2.000 I1.387 J-0.577 K0.000 F300.000
G1 X-25.961 Y-0.608 Z-2.000 F300.000
G1 X-30.437 Y-0.608 Z-2.000 F300.000
G1 X-34.325 Y-4.496 Z-2.000 F300.000
G3 X-34.930 Y-4.368 Z-2.000 I-0.583 J-1.260 K0.000 F300.000
G1 X-38.673 Y-4.368 Z-2.000 F300.000
G1 X-34.913 Y-0.608 Z-2.000 F300.000
G0 Z6.000
G0 X-39.389 Z6.000
G0 X-39.389 Z4.000
G1 X-39.389 Y-0.608 Z-2.000 F120.000
G1 X-43.417 Y-0.608 Z-2.000 F300.000
G1 X-43.417 Y-4.637 Z-2.000 F300.000
G1 X-39.389 Y-0.608 Z-2.000 F300.000
G1 X-34.913 Y-0.608 Z-2.000 F300.000
G1 X-38.673 Y-4.368 Z-2.000 F300.000
G3 X-39.665 Y-4.525 Z-2.000 I-0.153 J-2.252 K0.000 F300.000
G3 X-40.561 Y-6.256 Z-2.000 I0.743 J-1.482 K0.000 F300.000
G1 X-43.417 Y-9.113 Z-2.000 F300.000
G1 X-43.417 Y-13.589 Z-2.000 F300.000
G1 X-40.561 Y-10.732 Z-2.000 F300.000
G1 X-40.561 Y-13.899 Z-2.000 F300.000
G1 X-43.417 Y-13.899 Z-2.000 F300.000
G1 X-43.417 Y-13.589 Z-2.000 F300.000
G1 X-43.417 Y-13.589 Z-3.000 F120.000
G1 X-43.417 Y-13.899 Z-3.000 F300.000
G1 X-40.561 Y-13.899 Z-3.000 F300.000
G1 X-40.561 Y-10.732 Z-3.000 F300.000
G1 X-43.417 Y-13.589 Z-3.000 F300.000
G1 X-43.417 Y-9.113 Z-3.000 F300.000
G1 X-40.561 Y-6.256 Z-3.000 F300.000
G2 X-39.665 Y-4.525 Z-3.000 I1.638 J0.250 K0.000 F300.000
G2 X-38.673 Y-4.368 Z-3.000 I0.839 J-2.095 K0.000 F300.000
G1 X-34.913 Y-0.608 Z-3.000 F300.000
G1 X-39.389 Y-0.608 Z-3.000 F300.000
G1 X-43.417 Y-4.637 Z-3.000 F300.000
G1 X-43.417 Y-0.608 Z-3.000 F300.000
G1 X-39.389 Y-0.608 Z-3.000 F300.000
G1 X-39.389 Y-0.608 Z-3.000 F120.000
G1 X-21.043 Y-0.608 Z-3.000 F300.000
G1 X-21.043 Y-13.594 Z-3.000 F300.000
G1 X-23.899 Y-13.594 Z-3.000 F300.000
G1 X-23.899 Y-5.951 Z-3.000 F300.000
G3 X-25.481 Y-4.368 Z-3.000 I-1.583 J0.000 K0.000 F300.000
G1 X-29.225 Y-4.368 Z-3.000 F300.000
G3 X-30.808 Y-5.951 Z-3.000 I-0.000 J-1.582 K0.000 F300.000
G1 X-30.808 Y-12.666 Z-3.000 F300.000
G1 X-33.347 Y-12.666 Z-3.000 F300.000
G1 X-33.347 Y-5.951 Z-3.000 F300.000
G3 X-34.930 Y-4.368 Z-3.000 I-1.583 J0.000 K0.000 F300.000
G1 X-38.979 Y-4.368 Z-3.000 F300.000
G3 X-40.561 Y-5.951 Z-3.000 I0.000 J-1.583 K0.000 F300.000
G1 X-40.561 Y-13.899 Z-3.000 F300.000
G1 X-43.417 Y-13.899 Z-3.000 F300.000
G1 X-43.417 Y-0.608 Z-3.000 F300.000
G1 X-39.389 Y-0.608 Z-3.000 F300.000
G0 Z6.000
G0 X-34.913 Z6.000
G0 X-34.913 Z4.000
G1 X-34.913 Y-0.608 Z-3.000 F120.000
G1 X-38.673 Y-4.368 Z-3.000 F300.000
G1 X-34.930 Y-4.368 Z-3.000 F300.000
G2 X-34.325 Y-4.496 Z-3.000 I0.022 J-1.388 K0.000 F300.000
G1 X-30.437 Y-0.608 Z-3.000 F300.000
G1 X-25.961 Y-0.608 Z-3.000 F300.000
G1 X-29.860 Y-4.507 Z-3.000 F300.000
G3 X-30.669 Y-5.316 Z-3.000 I0.577 J-1.387 K0.000 F300.000
G1 X-33.347 Y-7.994 Z-3.000 F300.000
G1 X-33.347 Y-12.470 Z-3.000 F300.000
G1 X-30.808 Y-9.931 Z-3.000 F300.000
G1 X-30.808 Y-12.666 Z-3.000 F300.000
G1 X-33.347 Y-12.666 Z-3.000 F300.000
G1 X-33.347 Y-12.470 Z-3.000 F300.000
G0 Z6.000
G0 X-21.043 Y-13.594 Z6.000
G0 X-21.043 Y-13.594 Z4.000
G1 X-21.043 Y-13.594 Z-3.000 F120.000
G1 X-21.043 Y-9.118 Z-3.000 F300.000
G1 X-23.899 Y-11.974 Z-3.000 F300.000
G1 X-23.899 Y-7.498 Z-3.000 F300.000
G1 X-21.043 Y-4.642 Z-3.000 F300.000
G1 X-21.043 Y-0.608 Z-3.000 F300.000
G1 X-21.485 Y-0.608 Z-3.000 F300.000
G1 X-25.269 Y-4.392 Z-3.000 F300.000
G1 X-25.481 Y-4.368 Z-3.000 F300.000
G1 X-29.225 Y-4.368 Z-3.000 F300.000
G3 X-29.860 Y-4.507 Z-3.000 I-0.014 J-1.459 K0.000 F300.000
G1 X-25.961 Y-0.608 Z-3.000 F300.000
G1 X-25.961 Y-0.608 Z-3.100 F120.000
G1 X-29.860 Y-4.507 Z-3.100 F300.000
G2 X-29.225 Y-4.368 Z-3.100 I0.620 J-1.320 K0.000 F300.000
G1 X-25.481 Y-4.368 Z-3.100 F300.000
G1 X-25.269 Y-4.392 Z-3.100 F300.000
G1 X-21.485 Y-0.608 Z-3.100 F300.000
G1 X-21.043 Y-0.608 Z-3.100 F300.000
G1 X-21.043 Y-4.642 Z-3.100 F300.000
G1 X-23.899 Y-7.498 Z-3.100 F300.000
G1 X-23.899 Y-11.974 Z-3.100 F300.000
G1 X-21.043 Y-9.118 Z-3.100 F300.000
G1 X-21.043 Y-13.594 Z-3.100 F300.000
G1 X-21.043 Y-13.594 Z-3.100 F120.000
G1 X-23.899 Y-13.594 Z-3.100 F300.000
G1 X-23.899 Y-5.951 Z-3.100 F300.000
G3 X-25.481 Y-4.368 Z-3.100 I-1.583 J0.000 K0.000 F300.000
G1 X-29.225 Y-4.368 Z-3.100 F300.000
G3 X-30.808 Y-5.951 Z-3.100 I-0.000 J-1.582 K0.000 F300.000
G1 X-30.808 Y-12.666 Z-3.100 F300.000
G1 X-33.347 Y-12.666 Z-3.100 F300.000
G1 X-33.347 Y-5.951 Z-3.100 F300.000
G3 X-34.930 Y-4.368 Z-3.100 I-1.583 J0.000 K0.000 F300.000
G1 X-38.979 Y-4.368 Z-3.100 F300.000
G3 X-40.561 Y-5.951 Z-3.100 I0.000 J-1.583 K0.000 F300.000
G1 X-40.561 Y-13.899 Z-3.100 F300.000
G1 X-43.417 Y-13.899 Z-3.100 F300.000
G1 X-43.417 Y-0.608 Z-3.100 F300.000
G1 X-21.043 Y-0.608 Z-3.100 F300.000
G1 X-21.043 Y-13.594 Z-3.100 F300.000
G0 Z6.000
G0 X-33.347 Y-12.470 Z6.000
G0 X-33.347 Y-12.470 Z4.000
G1 X-33.347 Y-12.470 Z-3.100 F120.000
G1 X-33.347 Y-12.666 Z-3.100 F300.000
G1 X-30.808 Y-12.666 Z-3.100 F300.000
G1 X-30.808 Y-9.931 Z-3.100 F300.000
G1 X-33.347 Y-12.470 Z-3.100 F300.000
G1 X-33.347 Y-7.994 Z-3.100 F300.000
G1 X-30.669 Y-5.316 Z-3.100 F300.000
G2 X-29.860 Y-4.507 Z-3.100 I1.387 J-0.577 K0.000 F300.000
G1 X-25.961 Y-0.608 Z-3.100 F300.000
G1 X-30.437 Y-0.608 Z-3.100 F300.000
G1 X-34.325 Y-4.496 Z-3.100 F300.000
G3 X-34.930 Y-4.368 Z-3.100 I-0.583 J-1.260 K0.000 F300.000
G1 X-38.673 Y-4.368 Z-3.100 F300.000
G1 X-34.913 Y-0.608 Z-3.100 F300.000
G0 Z6.000
G0 X-39.389 Z6.000
G0 X-39.389 Z4.000
G1 X-39.389 Y-0.608 Z-3.100 F120.000
G1 X-43.417 Y-0.608 Z-3.100 F300.000
G1 X-43.417 Y-4.637 Z-3.100 F300.000
G1 X-39.389 Y-0.608 Z-3.100 F300.000
G1 X-34.913 Y-0.608 Z-3.100 F300.000
G1 X-38.673 Y-4.368 Z-3.100 F300.000
G3 X-39.665 Y-4.525 Z-3.100 I-0.153 J-2.252 K0.000 F300.000
G3 X-40.561 Y-6.256 Z-3.100 I0.743 J-1.482 K0.000 F300.000
G1 X-43.417 Y-9.113 Z-3.100 F300.000
G1 X-43.417 Y-13.589 Z-3.100 F300.000
G1 X-40.561 Y-10.732 Z-3.100 F300.000
G1 X-40.561 Y-13.899 Z-3.100 F300.000
G1 X-43.417 Y-13.899 Z-3.100 F300.000
G1 X-43.417 Y-13.589 Z-3.100 F300.000
G0 Z6.000
G0 Z6.000
G0 X-43.417 Y-13.589
G0 Y5.303
G0 Y5.303 Z4.000
G1 X-43.417 Y5.303 Z-0.000 F120.000
G1 X-43.417 Y18.171 Z-0.000 F300.000
G1 X-21.043 Y18.171 Z0.000 F300.000
G1 X-21.043 Y14.282 Z0.000 F300.000
G1 X-38.638 Y14.282 Z-0.000 F300.000
G3 X-40.221 Y12.700 Z-0.000 I-0.000 J-1.583 K0.000 F300.000
G1 X-40.221 Y5.303 Z-0.000 F300.000
G1 X-43.417 Y5.303 Z-0.000 F300.000
G0 Z6.000
G0 Y5.335 Z6.000
G0 Y5.335 Z4.000
G1 X-43.417 Y5.335 Z-0.000 F120.000
G1 X-43.417 Y5.303 Z-0.000 F300.000
G1 X-40.221 Y5.303 Z-0.000 F300.000
G1 X-40.221 Y8.532 Z-0.000 F300.000
G1 X-43.417 Y5.335 Z-0.000 F300.000
G1 X-43.417 Y9.811 Z-0.000 F300.000
G1 X-40.182 Y13.047 Z-0.000 F300.000
G2 X-38.986 Y14.243 Z-0.000 I1.541 J-0.345 K0.000 F300.000
G1 X-35.058 Y18.171 Z-0.000 F300.000
G1 X-39.534 Y18.171 Z-0.000 F300.000
G1 X-43.417 Y18.171 Z-0.000 F300.000
G1 X-43.417 Y14.287 Z-0.000 F300.000
G1 X-39.534 Y18.171 Z-0.000 F300.000
G0 Z6.000
G0 X-35.058 Z6.000
G0 X-35.058 Z4.000
G1 X-35.058 Y18.171 Z-0.000 F120.000
G1 X-38.986 Y14.243 Z-0.000 F300.000
G1 X-38.638 Y14.282 Z-0.000 F300.000
G1 X-34.471 Y14.282 Z-0.000 F300.000
G1 X-30.582 Y18.171 Z-0.000 F300.000
G1 X-26.106 Y18.171 Z0.000 F300.000
G1 X-29.995 Y14.282 Z0.000 F300.000
G1 X-25.519 Y14.282 Z0.000 F300.000
G1 X-21.630 Y18.171 Z0.000 F300.000
G1 X-21.043 Y18.171 Z0.000 F300.000
G1 X-21.043 Y14.282 Z0.000 F300.000
G1 X-21.043 Y14.282 Z-1.000 F120.000
G1 X-21.043 Y18.171 Z-1.000 F300.000
G1 X-21.630 Y18.171 Z-1.000 F300.000
G1 X-25.519 Y14.282 Z-1.000 F300.000
G1 X-29.995 Y14.282 Z-1.000 F300.000
G1 X-26.106 Y18.171 Z-1.000 F300.000
G1 X-30.582 Y18.171 Z-1.000 F300.000
G1 X-34.471 Y14.282 Z-1.000 F300.000
G1 X-38.638 Y14.282 Z-1.000 F300.000
G1 X-38.986 Y14.243 Z-1.000 F300.000
G1 X-35.058 Y18.171 Z-1.000 F300.000
G1 X-35.058 Y18.171 Z-1.000 F120.000
G1 X-21.043 Y18.171 Z-1.000 F300.000
G1 X-21.043 Y14.282 Z-1.000 F300.000
G1 X-38.638 Y14.282 Z-1.000 F300.000
G3 X-40.221 Y12.700 Z-1.000 I-0.000 J-1.583 K0.000 F300.000
G1 X-40.221 Y5.303 Z-1.000 F300.000
G1 X-43.417 Y5.303 Z-1.000 F300.000
G1 X-43.417 Y18.171 Z-1.000 F300.000
G1 X-35.058 Y18.171 Z-1.000 F300.000
G0 Z6.000
G0 X-39.534 Z6.000
G0 X-39.534 Z4.000
G1 X-39.534 Y18.171 Z-1.000 F120.000
G1 X-43.417 Y14.287 Z-1.000 F300.000
G1 X-43.417 Y18.171 Z-1.000 F300.000
G1 X-39.534 Y18.171 Z-1.000 F300.000
G1 X-35.058 Y18.171 Z-1.000 F300.000
G1 X-38.986 Y14.243 Z-1.000 F300.000
G3 X-40.182 Y13.047 Z-1.000 I0.345 J-1.541 K0.000 F300.000
G1 X-43.417 Y9.811 Z-1.000 F300.000
G1 X-43.417 Y5.335 Z-1.000 F300.000
G1 X-40.221 Y8.532 Z-1.000 F300.000
G1 X-40.221 Y5.303 Z-1.000 F300.000
G1 X-43.417 Y5.303 Z-1.000 F300.000
G1 X-43.417 Y5.335 Z-1.000 F300.000
G1 X-43.417 Y5.335 Z-2.000 F120.000
G1 X-43.417 Y5.303 Z-2.000 F300.000
G1 X-40.221 Y5.303 Z-2.000 F300.000
G1 X-40.221 Y8.532 Z-2.000 F300.000
G1 X-43.417 Y5.335 Z-2.000 F300.000
G1 X-43.417 Y9.811 Z-2.000 F300.000
G1 X-40.182 Y13.047 Z-2.000 F300.000
G2 X-38.986 Y14.243 Z-2.000 I1.541 J-0.345 K0.000 F300.000
G1 X-35.058 Y18.171 Z-2.000 F300.000
G1 X-39.534 Y18.171 Z-2.000 F300.000
G1 X-43.417 Y18.171 Z-2.000 F300.000
G1 X-43.417 Y14.287 Z-2.000 F300.000
G1 X-39.534 Y18.171 Z-2.000 F300.000
G1 X-39.534 Y18.171 Z-2.000 F120.000
G1 X-21.043 Y18.171 Z-2.000 F300.000
G1 X-21.043 Y14.282 Z-2.000 F300.000
G1 X-38.638 Y14.282 Z-2.000 F300.000
G3 X-40.221 Y12.700 Z-2.000 I-0.000 J-1.583 K0.000 F300.000
G1 X-40.221 Y5.303 Z-2.000 F300.000
G1 X-43.417 Y5.303 Z-2.000 F300.000
G1 X-43.417 Y18.171 Z-2.000 F300.000
G1 X-39.534 Y18.171 Z-2.000 F300.000
G0 Z6.000
G0 X-35.058 Z6.000
G0 X-35.058 Z4.000
G1 X-35.058 Y18.171 Z-2.000 F120.000
G1 X-38.986 Y14.243 Z-2.000 F300.000
G1 X-38.638 Y14.282 Z-2.000 F300.000
G1 X-34.471 Y14.282 Z-2.000 F300.000
G1 X-30.582 Y18.171 Z-2.000 F300.000
G1 X-26.106 Y18.171 Z-2.000 F300.000
G1 X-29.995 Y14.282 Z-2.000 F300.000
G1 X-25.519 Y14.282 Z-2.000 F300.000
G1 X-21.630 Y18.171 Z-2.000 F300.000
G1 X-21.043 Y18.171 Z-2.000 F300.000
G1 X-21.043 Y14.282 Z-2.000 F300.000
G1 X-21.043 Y14.282 Z-3.000 F120.000
G1 X-21.043 Y18.171 Z-3.000 F300.000
G1 X-21.630 Y18.171 Z-3.000 F300.000
G1 X-25.519 Y14.282 Z-3.000 F300.000
G1 X-29.995 Y14.282 Z-3.000 F300.000
G1 X-26.106 Y18.171 Z-3.000 F300.000
G1 X-30.582 Y18.171 Z-3.000 F300.000
G1 X-34.471 Y14.282 Z-3.000 F300.000
G1 X-38.638 Y14.282 Z-3.000 F300.000
G1 X-38.986 Y14.243 Z-3.000 F300.000
G1 X-35.058 Y18.171 Z-3.000 F300.000
G1 X-35.058 Y18.171 Z-3.000 F120.000
G1 X-21.043 Y18.171 Z-3.000 F300.000
G1 X-21.043 Y14.282 Z-3.000 F300.000
G1 X-38.638 Y14.282 Z-3.000 F300.000
G3 X-40.221 Y12.700 Z-3.000 I-0.000 J-1.583 K0.000 F300.000
G1 X-40.221 Y5.303 Z-3.000 F300.000
G1 X-43.417 Y5.303 Z-3.000 F300.000
G1 X-43.417 Y18.171 Z-3.000 F300.000
G1 X-35.058 Y18.171 Z-3.000 F300.000
G0 Z6.000
G0 X-39.534 Z6.000
G0 X-39.534 Z4.000
G1 X-39.534 Y18.171 Z-3.000 F120.000
G1 X-43.417 Y14.287 Z-3.000 F300.000
G1 X-43.417 Y18.171 Z-3.000 F300.000
G1 X-39.534 Y18.171 Z-3.000 F300.000
G1 X-35.058 Y18.171 Z-3.000 F300.000
G1 X-38.986 Y14.243 Z-3.000 F300.000
G3 X-40.182 Y13.047 Z-3.000 I0.345 J-1.541 K0.000 F300.000
G1 X-43.417 Y9.811 Z-3.000 F300.000
G1 X-43.417 Y5.335 Z-3.000 F300.000
G1 X-40.221 Y8.532 Z-3.000 F300.000
G1 X-40.221 Y5.303 Z-3.000 F300.000
G1 X-43.417 Y5.303 Z-3.000 F300.000
G1 X-43.417 Y5.335 Z-3.000 F300.000
G1 X-43.417 Y5.335 Z-3.100 F120.000
G1 X-43.417 Y5.303 Z-3.100 F300.000
G1 X-40.221 Y5.303 Z-3.100 F300.000
G1 X-40.221 Y8.532 Z-3.100 F300.000
G1 X-43.417 Y5.335 Z-3.100 F300.000
G1 X-43.417 Y9.811 Z-3.100 F300.000
G1 X-40.182 Y13.047 Z-3.100 F300.000
G2 X-38.986 Y14.243 Z-3.100 I1.541 J-0.345 K0.000 F300.000
G1 X-35.058 Y18.171 Z-3.100 F300.000
G1 X-39.534 Y18.171 Z-3.100 F300.000
G1 X-43.417 Y18.171 Z-3.100 F300.000
G1 X-43.417 Y14.287 Z-3.100 F300.000
G1 X-39.534 Y18.171 Z-3.100 F300.000
G1 X-39.534 Y18.171 Z-3.100 F120.000
G1 X-21.043 Y18.171 Z-3.100 F300.000
G1 X-21.043 Y14.282 Z-3.100 F300.000
G1 X-38.638 Y14.282 Z-3.100 F300.000
G3 X-40.221 Y12.700 Z-3.100 I-0.000 J-1.583 K0.000 F300.000
G1 X-40.221 Y5.303 Z-3.100 F300.000
G1 X-43.417 Y5.303 Z-3.100 F300.000
G1 X-43.417 Y18.171 Z-3.100 F300.000
G1 X-39.534 Y18.171 Z-3.100 F300.000
G0 Z6.000
G0 X-35.058 Z6.000
G0 X-35.058 Z4.000
G1 X-35.058 Y18.171 Z-3.100 F120.000
G1 X-38.986 Y14.243 Z-3.100 F300.000
G1 X-38.638 Y14.282 Z-3.100 F300.000
G1 X-34.471 Y14.282 Z-3.100 F300.000
G1 X-30.582 Y18.171 Z-3.100 F300.000
G1 X-26.106 Y18.171 Z-3.100 F300.000
G1 X-29.995 Y14.282 Z-3.100 F300.000
G1 X-25.519 Y14.282 Z-3.100 F300.000
G1 X-21.630 Y18.171 Z-3.100 F300.000
G1 X-21.043 Y18.171 Z-3.100 F300.000
G1 X-21.043 Y14.282 Z-3.100 F300.000
G0 Z6.000
G0 Z6.000
G0 X-21.043 Y14.282
G0 Y25.467
G0 Y25.467 Z4.000
G1 X-21.043 Y25.467 Z0.000 F120.000
G1 X-23.899 Y25.467 Z0.000 F300.000
G1 X-23.899 Y33.110 Z0.000 F300.000
G3 X-25.481 Y34.693 Z0.000 I-1.583 J0.000 K0.000 F300.000
G1 X-29.225 Y34.693 Z0.000 F300.000
G3 X-30.808 Y33.110 Z0.000 I-0.000 J-1.582 K0.000 F300.000
G1 X-30.808 Y26.395 Z0.000 F300.000
G1 X-33.347 Y26.395 Z0.000 F300.000
G1 X-33.347 Y33.110 Z0.000 F300.000
G3 X-34.930 Y34.693 Z0.000 I-1.583 J0.000 K0.000 F300.000
G1 X-38.979 Y34.693 Z0.000 F300.000
G3 X-40.561 Y33.110 Z0.000 I0.000 J-1.583 K0.000 F300.000
G1 X-40.561 Y25.162 Z0.000 F300.000
G1 X-43.417 Y25.162 Z0.000 F300.000
G1 X-43.417 Y38.453 Z0.000 F300.000
G1 X-21.043 Y38.453 Z0.000 F300.000
G1 X-21.043 Y25.467 Z0.000 F300.000
G1 X-21.043 Y25.467 Z0.000 F120.000
G1 X-21.043 Y29.943 Z0.000 F300.000
G1 X-23.899 Y27.087 Z0.000 F300.000
G1 X-23.899 Y31.563 Z0.000 F300.000
G1 X-21.043 Y34.419 Z0.000 F300.000
G1 X-21.043 Y38.453 Z0.000 F300.000
G1 X-21.485 Y38.453 Z0.000 F300.000
G1 X-25.269 Y34.669 Z0.000 F300.000
G1 X-25.481 Y34.693 Z0.000 F300.000
G1 X-29.225 Y34.693 Z0.000 F300.000
G3 X-29.860 Y34.554 Z0.000 I-0.014 J-1.459 K0.000 F300.000
G1 X-25.961 Y38.453 Z0.000 F300.000
G0 Z6.000
G0 X-34.913 Z6.000
G0 X-34.913 Z4.000
G1 X-34.913 Y38.453 Z0.000 F120.000
G1 X-38.673 Y34.693 Z0.000 F300.000
G1 X-34.930 Y34.693 Z0.000 F300.000
G2 X-34.325 Y34.565 Z0.000 I0.022 J-1.388 K0.000 F300.000
G1 X-30.437 Y38.453 Z0.000 F300.000
G1 X-25.961 Y38.453 Z0.000 F300.000
G1 X-29.860 Y34.554 Z0.000 F300.000
G3 X-30.669 Y33.745 Z0.000 I0.577 J-1.387 K0.000 F300.000
G1 X-33.347 Y31.067 Z0.000 F300.000
G1 X-33.347 Y26.591 Z0.000 F300.000
G1 X-30.808 Y29.130 Z0.000 F300.000
G1 X-30.808 Y26.395 Z0.000 F300.000
G1 X-33.347 Y26.395 Z0.000 F300.000
G1 X-33.347 Y26.591 Z0.000 F300.000
G0 Z6.000
G0 X-43.417 Y25.473 Z6.000
G0 X-43.417 Y25.473 Z4.000
G1 X-43.417 Y25.473 Z0.000 F120.000
G1 X-43.417 Y25.162 Z0.000 F300.000
G1 X-40.561 Y25.162 Z0.000 F300.000
G1 X-40.561 Y28.329 Z0.000 F300.000
G1 X-43.417 Y25.473 Z0.000 F300.000
G1 X-43.417 Y29.948 Z0.000 F300.000
G1 X-40.561 Y32.805 Z0.000 F300.000
G2 X-39.665 Y34.536 Z0.000 I1.638 J0.250 K0.000 F300.000
G2 X-38.673 Y34.693 Z0.000 I0.839 J-2.095 K0.000 F300.000
G1 X-34.913 Y38.453 Z0.000 F300.000
G1 X-39.389 Y38.453 Z0.000 F300.000
G1 X-43.417 Y34.424 Z0.000 F300.000
G1 X-43.417 Y38.453 Z0.000 F300.000
G1 X-39.389 Y38.453 Z0.000 F300.000
G1 X-39.389 Y38.453 Z-1.000 F120.000
G1 X-43.417 Y38.453 Z-1.000 F300.000
G1 X-43.417 Y34.424 Z-1.000 F300.000
G1 X-39.389 Y38.453 Z-1.000 F300.000
G1 X-34.913 Y38.453 Z-1.000 F300.000
G1 X-38.673 Y34.693 Z-1.000 F300.000
G3 X-39.665 Y34.536 Z-1.000 I-0.153 J-2.252 K0.000 F300.000
G3 X-40.561 Y32.805 Z-1.000 I0.743 J-1.482 K0.000 F300.000
G1 X-43.417 Y29.948 Z-1.000 F300.000
G1 X-43.417 Y25.473 Z-1.000 F300.000
G1 X-40.561 Y28.329 Z-1.000 F300.000
G1 X-40.561 Y25.162 Z-1.000 F300.000
G1 X-43.417 Y25.162 Z-1.000 F300.000
G1 X-43.417 Y25.473 Z-1.000 F300.000
G1 X-43.417 Y25.473 Z-1.000 F120.000
G1 X-43.417 Y38.453 Z-1.000 F300.000
G1 X-21.043 Y38.453 Z-1.000 F300.000
G1 X-21.043 Y25.467 Z-1.000 F300.000
G1 X-23.899 Y25.467 Z-1.000 F300.000
G1 X-23.899 Y33.110 Z-1.000 F300.000
G3 X-25.481 Y34.693 Z-1.000 I-1.583 J0.000 K0.000 F300.000
G1 X-29.225 Y34.693 Z-1.000 F300.000
G3 X-30.808 Y33.110 Z-1.000 I-0.000 J-1.582 K0.000 F300.000
G1 X-30.808 Y26.395 Z-1.000 F300.000
G1 X-33.347 Y26.395 Z-1.000 F300.000
G1 X-33.347 Y33.110 Z-1.000 F300.000
G3 X-34.930 Y34.693 Z-1.000 I-1.583 J0.000 K0.000 F300.000
G1 X-38.979 Y34.693 Z-1.000 F300.000
G3 X-40.561 Y33.110 Z-1.000 I0.000 J-1.583 K0.000 F300.000
G1 X-40.561 Y25.162 Z-1.000 F300.000
G1 X-43.417 Y25.162 Z-1.000 F300.000
G1 X-43.417 Y25.473 Z-1.000 F300.000
G0 Z6.000
G0 X-33.347 Y26.591 Z6.000
G0 X-33.347 Y26.591 Z4.000
G1 X-33.347 Y26.591 Z-1.000 F120.000
G1 X-33.347 Y26.395 Z-1.000 F300.000
G1 X-30.808 Y26.395 Z-1.000 F300.000
G1 X-30.808 Y29.130 Z-1.000 F300.000
G1 X-33.347 Y26.591 Z-1.000 F300.000
G1 X-33.347 Y31.067 Z-1.000 F300.000
G1 X-30.669 Y33.745 Z-1.000 F300.000
G2 X-29.860 Y34.554 Z-1.000 I1.387 J-0.577 K0.000 F300.000
G1 X-25.961 Y38.453 Z-1.000 F300.000
G1 X-30.437 Y38.453 Z-1.000 F300.000
G1 X-34.325 Y34.565 Z-1.000 F300.000
G3 X-34.930 Y34.693 Z-1.000 I-0.583 J-1.260 K0.000 F300.000
G1 X-38.673 Y34.693 Z-1.000 F300.000
G1 X-34.913 Y38.453 Z-1.000 F300.000
G0 Z6.000
G0 X-25.961 Z6.000
G0 X-25.961 Z4.000
G1 X-25.961 Y38.453 Z-1.000 F120.000
G1 X-29.860 Y34.554 Z-1.000 F300.000
G2 X-29.225 Y34.693 Z-1.000 I0.620 J-1.320 K0.000 F300.000
G1 X-25.481 Y34.693 Z-1.000 F300.000
G1 X-25.269 Y34.669 Z-1.000 F300.000
G1 X-21.485 Y38.453 Z-1.000 F300.000
G1 X-21.043 Y38.453 Z-1.000 F300.000
G1 X-21.043 Y34.419 Z-1.000 F300.000
G1 X-23.899 Y31.563 Z-1.000 F300.000
G1 X-23.899 Y27.087 Z-1.000 F300.000
G1 X-21.043 Y29.943 Z-1.000 F300.000
G1 X-21.043 Y25.467 Z-1.000 F300.000
G1 X-21.043 Y25.467 Z-2.000 F120.000
G1 X-21.043 Y29.943 Z-2.000 F300.000
G1 X-23.899 Y27.087 Z-2.000 F300.000
G1 X-23.899 Y31.563 Z-2.000 F300.000
G1 X-21.043 Y34.419 Z-2.000 F300.000
G1 X-21.043 Y38.453 Z-2.000 F300.000
G1 X-21.485 Y38.453 Z-2.000 F300.000
G1 X-25.269 Y34.669 Z-2.000 F300.000
G1 X-25.481 Y34.693 Z-2.000 F300.000
G1 X-29.225 Y34.693 Z-2.000 F300.000
G3 X-29.860 Y34.554 Z-2.000 I-0.014 J-1.459 K0.000 F300.000
G1 X-25.961 Y38.453 Z-2.000 F300.000
G1 X-25.961 Y38.453 Z-2.000 F120.000
G1 X-21.043 Y38.453 Z-2.000 F300.000
G1 X-21.043 Y25.467 Z-2.000 F300.000
G1 X-23.899 Y25.467 Z-2.000 F300.000
G1 X-23.899 Y33.110 Z-2.000 F300.000
G3 X-25.481 Y34.693 Z-2.000 I-1.583 J0.000 K0.000 F300.000
G1 X-29.225 Y34.693 Z-2.000 F300.000
G3 X-30.808 Y33.110 Z-2.000 I-0.000 J-1.582 K0.000 F300.000
G1 X-30.808 Y26.395 Z-2.000 F300.000
G1 X-33.347 Y26.395 Z-2.000 F300.000
G1 X-33.347 Y33.110 Z-2.000 F300.000
G3 X-34.930 Y34.693 Z-2.000 I-1.583 J0.000 K0.000 F300.000
G1 X-38.979 Y34.693 Z-2.000 F300.000
G3 X-40.561 Y33.110 Z-2.000 I0.000 J-1.583 K0.000 F300.000
G1 X-40.561 Y25.162 Z-2.000 F300.000
G1 X-43.417 Y25.162 Z-2.000 F300.000
G1 X-43.417 Y38.453 Z-2.000 F300.000
G1 X-25.961 Y38.453 Z-2.000 F300.000
G0 Z6.000
G0 X-34.913 Z6.000
G0 X-34.913 Z4.000
G1 X-34.913 Y38.453 Z-2.000 F120.000
G1 X-38.673 Y34.693 Z-2.000 F300.000
G1 X-34.930 Y34.693 Z-2.000 F300.000
G2 X-34.325 Y34.565 Z-2.000 I0.022 J-1.388 K0.000 F300.000
G1 X-30.437 Y38.453 Z-2.000 F300.000
G1 X-25.961 Y38.453 Z-2.000 F300.000
G1 X-29.860 Y34.554 Z-2.000 F300.000
G3 X-30.669 Y33.745 Z-2.000 I0.577 J-1.387 K0.000 F300.000
G1 X-33.347 Y31.067 Z-2.000 F300.000
G1 X-33.347 Y26.591 Z-2.000 F300.000
G1 X-30.808 Y29.130 Z-2.000 F300.000
G1 X-30.808 Y26.395 Z-2.000 F300.000
G1 X-33.347 Y26.395 Z-2.000 F300.000
G1 X-33.347 Y26.591 Z-2.000 F300.000
G0 Z6.000
G0 X-43.417 Y25.473 Z6.000
G0 X-43.417 Y25.473 Z4.000
G1 X-43.417 Y25.473 Z-2.000 F120.000
G1 X-43.417 Y25.162 Z-2.000 F300.000
G1 X-40.561 Y25.162 Z-2.000 F300.000
G1 X-40.561 Y28.329 Z-2.000 F300.000
G1 X-43.417 Y25.473 Z-2.000 F300.000
G1 X-43.417 Y29.948 Z-2.000 F300.000
G1 X-40.561 Y32.805 Z-2.000 F300.000
G2 X-39.665 Y34.536 Z-2.000 I1.638 J0.250 K0.000 F300.000
G2 X-38.673 Y34.693 Z-2.000 I0.839 J-2.095 K0.000 F300.000
G1 X-34.913 Y38.453 Z-2.000 F300.000
G1 X-39.389 Y38.453 Z-2.000 F300.000
G1 X-43.417 Y34.424 Z-2.000 F300.000
G1 X-43.417 Y38.453 Z-2.000 F300.000
G1 X-39.389 Y38.453 Z-2.000 F300.000
G1 X-39.389 Y38.453 Z-3.000 F120.000
G1 X-43.417 Y38.453 Z-3.000 F300.000
G1 X-43.417 Y34.424 Z-3.000 F300.000
G1 X-39.389 Y38.453 Z-3.000 F300.000
G1 X-34.913 Y38.453 Z-3.000 F300.000
G1 X-38.673 Y34.693 Z-3.000 F300.000
G3 X-39.665 Y34.536 Z-3.000 I-0.153 J-2.252 K0.000 F300.000
G3 X-40.561 Y32.805 Z-3.000 I0.743 J-1.482 K0.000 F300.000
G1 X-43.417 Y29.948 Z-3.000 F300.000
G1 X-43.417 Y25.473 Z-3.000 F300.000
G1 X-40.561 Y28.329 Z-3.000 F300.000
G1 X-40.561 Y25.162 Z-3.000 F300.000
G1 X-43.417 Y25.162 Z-3.000 F300.000
G1 X-43.417 Y25.473 Z-3.000 F300.000
G1 X-43.417 Y25.473 Z-3.000 F120.000
G1 X-43.417 Y38.453 Z-3.000 F300.000
G1 X-21.043 Y38.453 Z-3.000 F300.000
G1 X-21.043 Y25.467 Z-3.000 F300.000
G1 X-23.899 Y25.467 Z-3.000 F300.000
G1 X-23.899 Y33.110 Z-3.000 F300.000
G3 X-25.481 Y34.693 Z-3.000 I-1.583 J0.000 K0.000 F300.000
G1 X-29.225 Y34.693 Z-3.000 F300.000
G3 X-30.808 Y33.110 Z-3.000 I-0.000 J-1.582 K0.000 F300.000
G1 X-30.808 Y26.395 Z-3.000 F300.000
G1 X-33.347 Y26.395 Z-3.000 F300.000
G1 X-33.347 Y33.110 Z-3.000 F300.000
G3 X-34.930 Y34.693 Z-3.000 I-1.583 J0.000 K0.000 F300.000
G1 X-38.979 Y34.693 Z-3.000 F300.000
G3 X-40.561 Y33.110 Z-3.000 I0.000 J-1.583 K0.000 F300.000
G1 X-40.561 Y25.162 Z-3.000 F300.000
G1 X-43.417 Y25.162 Z-3.000 F300.000
G1 X-43.417 Y25.473 Z-3.000 F300.000
G0 Z6.000
G0 X-33.347 Y26.591 Z6.000
G0 X-33.347 Y26.591 Z4.000
G1 X-33.347 Y26.591 Z-3.000 F120.000
G1 X-33.347 Y26.395 Z-3.000 F300.000
G1 X-30.808 Y26.395 Z-3.000 F300.000
G1 X-30.808 Y29.130 Z-3.000 F300.000
G1 X-33.347 Y26.591 Z-3.000 F300.000
G1 X-33.347 Y31.067 Z-3.000 F300.000
G1 X-30.669 Y33.745 Z-3.000 F300.000
G2 X-29.860 Y34.554 Z-3.000 I1.387 J-0.577 K0.000 F300.000
G1 X-25.961 Y38.453 Z-3.000 F300.000
G1 X-30.437 Y38.453 Z-3.000 F300.000
G1 X-34.325 Y34.565 Z-3.000 F300.000
G3 X-34.930 Y34.693 Z-3.000 I-0.583 J-1.260 K0.000 F300.000
G1 X-38.673 Y34.693 Z-3.000 F300.000
G1 X-34.913 Y38.453 Z-3.000 F300.000
G0 Z6.000
G0 X-25.961 Z6.000
G0 X-25.961 Z4.000
G1 X-25.961 Y38.453 Z-3.000 F120.000
G1 X-29.860 Y34.554 Z-3.000 F300.000
G2 X-29.225 Y34.693 Z-3.000 I0.620 J-1.320 K0.000 F300.000
G1 X-25.481 Y34.693 Z-3.000 F300.000
G1 X-25.269 Y34.669 Z-3.000 F300.000
G1 X-21.485 Y38.453 Z-3.000 F300.000
G1 X-21.043 Y38.453 Z-3.000 F300.000
G1 X-21.043 Y34.419 Z-3.000 F300.000
G1 X-23.899 Y31.563 Z-3.000 F300.000
G1 X-23.899 Y27.087 Z-3.000 F300.000
G1 X-21.043 Y29.943 Z-3.000 F300.000
G1 X-21.043 Y25.467 Z-3.000 F300.000
G1 X-21.043 Y25.467 Z-3.100 F120.000
G1 X-21.043 Y29.943 Z-3.100 F300.000
G1 X-23.899 Y27.087 Z-3.100 F300.000
G1 X-23.899 Y31.563 Z-3.100 F300.000
G1 X-21.043 Y34.419 Z-3.100 F300.000
G1 X-21.043 Y38.453 Z-3.100 F300.000
G1 X-21.485 Y38.453 Z-3.100 F300.000
G1 X-25.269 Y34.669 Z-3.100 F300.000
G1 X-25.481 Y34.693 Z-3.100 F300.000
G1 X-29.225 Y34.693 Z-3.100 F300.000
G3 X-29.860 Y34.554 Z-3.100 I-0.014 J-1.459 K0.000 F300.000
G1 X-25.961 Y38.453 Z-3.100 F300.000
G1 X-25.961 Y38.453 Z-3.100 F120.000
G1 X-21.043 Y38.453 Z-3.100 F300.000
G1 X-21.043 Y25.467 Z-3.100 F300.000
G1 X-23.899 Y25.467 Z-3.100 F300.000
G1 X-23.899 Y33.110 Z-3.100 F300.000
G3 X-25.481 Y34.693 Z-3.100 I-1.583 J0.000 K0.000 F300.000
G1 X-29.225 Y34.693 Z-3.100 F300.000
G3 X-30.808 Y33.110 Z-3.100 I-0.000 J-1.582 K0.000 F300.000
G1 X-30.808 Y26.395 Z-3.100 F300.000
G1 X-33.347 Y26.395 Z-3.100 F300.000
G1 X-33.347 Y33.110 Z-3.100 F300.000
G3 X-34.930 Y34.693 Z-3.100 I-1.583 J0.000 K0.000 F300.000
G1 X-38.979 Y34.693 Z-3.100 F300.000
G3 X-40.561 Y33.110 Z-3.100 I0.000 J-1.583 K0.000 F300.000
G1 X-40.561 Y25.162 Z-3.100 F300.000
G1 X-43.417 Y25.162 Z-3.100 F300.000
G1 X-43.417 Y38.453 Z-3.100 F300.000
G1 X-25.961 Y38.453 Z-3.100 F300.000
G0 Z6.000
G0 X-34.913 Z6.000
G0 X-34.913 Z4.000
G1 X-34.913 Y38.453 Z-3.100 F120.000
G1 X-38.673 Y34.693 Z-3.100 F300.000
G1 X-34.930 Y34.693 Z-3.100 F300.000
G2 X-34.325 Y34.565 Z-3.100 I0.022 J-1.388 K0.000 F300.000
G1 X-30.437 Y38.453 Z-3.100 F300.000
G1 X-25.961 Y38.453 Z-3.100 F300.000
G1 X-29.860 Y34.554 Z-3.100 F300.000
G3 X-30.669 Y33.745 Z-3.100 I0.577 J-1.387 K0.000 F300.000
G1 X-33.347 Y31.067 Z-3.100 F300.000
G1 X-33.347 Y26.591 Z-3.100 F300.000
G1 X-30.808 Y29.130 Z-3.100 F300.000
G1 X-30.808 Y26.395 Z-3.100 F300.000
G1 X-33.347 Y26.395 Z-3.100 F300.000
G1 X-33.347 Y26.591 Z-3.100 F300.000
G0 Z6.000
G0 X-43.417 Y25.473 Z6.000
G0 X-43.417 Y25.473 Z4.000
G1 X-43.417 Y25.473 Z-3.100 F120.000
G1 X-43.417 Y25.162 Z-3.100 F300.000
G1 X-40.561 Y25.162 Z-3.100 F300.000
G1 X-40.561 Y28.329 Z-3.100 F300.000
G1 X-43.417 Y25.473 Z-3.100 F300.000
G1 X-43.417 Y29.948 Z-3.100 F300.000
G1 X-40.561 Y32.805 Z-3.100 F300.000
G2 X-39.665 Y34.536 Z-3.100 I1.638 J0.250 K0.000 F300.000
G2 X-38.673 Y34.693 Z-3.100 I0.839 J-2.095 K0.000 F300.000
G1 X-34.913 Y38.453 Z-3.100 F300.000
G1 X-39.389 Y38.453 Z-3.100 F300.000
G1 X-43.417 Y34.424 Z-3.100 F300.000
G1 X-43.417 Y38.453 Z-3.100 F300.000
G1 X-39.389 Y38.453 Z-3.100 F300.000
G0 Z6.000
G0 Z6.000
G0 X-39.389 Y38.453
G0 X-38.498 Y45.185
G0 X-38.498 Y45.185 Z4.000
G1 X-38.498 Y45.185 Z0.000 F120.000
G2 X-41.198 Y46.224 Z0.000 I0.813 J6.142 K-0.000 F300.000
G2 X-43.400 Y49.150 Z0.000 I3.765 J5.125 K-0.000 F300.000
G2 X-44.168 Y53.631 Z-0.000 I11.029 J4.196 K-0.000 F300.000
G2 X-43.197 Y58.474 Z-0.000 I11.209 J0.271 K0.000 F300.000
G2 X-38.460 Y62.073 Z-0.000 I5.690 J-2.572 K0.000 F300.000
G1 X-38.460 Y57.938 Z-0.000 F300.000
G3 X-40.166 Y56.764 Z-0.000 I1.339 J-3.772 K0.000 F300.000
G3 X-40.399 Y50.786 Z0.000 I3.970 J-3.148 K0.000 F300.000
G3 X-35.342 Y49.964 Z0.000 I2.908 J1.925 K-0.000 F300.000
G3 X-33.755 Y52.624 Z0.000 I-3.840 J4.095 K-0.000 F300.000
G3 X-32.824 Y56.054 Z-0.000 I-44.883 J14.020 K-0.000 F300.000
G2 X-31.368 Y59.603 Z-0.000 I12.548 J-3.076 K0.000 F300.000
G2 X-28.904 Y61.548 Z-0.000 I3.991 J-2.521 K0.000 F300.000
G2 X-25.685 Y61.838 Z-0.000 I2.285 J-7.349 K0.000 F300.000
G2 X-22.768 Y60.677 Z-0.000 I-0.525 J-5.562 K0.000 F300.000
G2 X-20.790 Y57.551 Z-0.000 I-4.134 J-4.805 K0.000 F300.000
G2 X-20.292 Y53.850 Z0.000 I-12.066 J-3.507 K0.000 F300.000
G2 X-21.108 Y49.457 Z0.000 I-10.833 J-0.259 K-0.000 F300.000
G2 X-25.471 Y46.064 Z0.000 I-5.196 J2.180 K-0.000 F300.000
G1 X-25.471 Y50.018 Z0.000 F300.000
G3 X-23.688 Y51.502 Z0.000 I-1.324 J3.407 K-0.000 F300.000
G3 X-23.549 Y56.195 Z-0.000 I-4.336 J2.477 K-0.000 F300.000
G3 X-28.455 Y57.169 Z-0.000 I-2.825 J-1.387 K0.000 F300.000
G3 X-29.893 Y54.733 Z-0.000 I4.147 J-4.091 K0.000 F300.000
G3 X-30.891 Y51.201 Z0.000 I64.669 J-20.175 K0.000 F300.000
G2 X-32.525 Y47.387 Z0.000 I-12.973 J3.301 K-0.000 F300.000
G2 X-35.137 Y45.410 Z0.000 I-4.121 J2.732 K-0.000 F300.000
G2 X-38.280 Y45.160 Z0.000 I-2.169 J7.393 K-0.000 F300.000
G2 X-38.498 Y45.185 Z0.000 I0.594 J6.167 K-0.000 F300.000
G0 Z6.000
G0 X-43.795 Y50.410 Z6.000
G0 X-43.795 Y50.410 Z4.000
G1 X-43.795 Y50.410 Z0.000 F120.000
G1 X-38.595 Y45.210 Z0.000 F300.000
G2 X-42.741 Y47.862 Z0.000 I0.731 J5.709 K-0.000 F300.000
G2 X-43.795 Y50.410 Z0.000 I6.927 J4.359 K-0.000 F300.000
G2 X-44.082 Y55.173 Z-0.000 I13.399 J3.197 K-0.000 F300.000
G1 X-41.038 Y52.128 Z-0.000 F300.000
G3 X-40.794 Y51.475 Z0.000 I7.545 J2.439 K-0.000 F300.000
G3 X-38.220 Y49.311 Z0.000 I3.385 J1.413 K-0.000 F300.000
G1 X-34.555 Y45.645 Z0.000 F300.000
G3 X-32.253 Y47.820 Z0.000 I-2.171 J4.604 K-0.000 F300.000
G1 X-34.868 Y50.435 Z0.000 F300.000
G1 X-34.843 Y50.462 Z0.000 F300.000
G3 X-33.487 Y53.530 Z-0.000 I-6.779 J4.831 K-0.000 F300.000
G1 X-30.955 Y50.998 Z0.000 F300.000
G2 X-29.973 Y54.492 Z-0.000 I100.778 J-26.450 K0.000 F300.000
G1 X-32.524 Y57.042 Z-0.000 F300.000
G2 X-31.042 Y60.036 Z-0.000 I8.837 J-2.510 K0.000 F300.000
G1 X-28.303 Y57.298 Z-0.000 F300.000
G0 Z6.000
G0 X-22.358 Y60.304 Z6.000
G0 X-22.358 Y60.304 Z4.000
G1 X-22.358 Y60.304 Z-0.000 F120.000
G3 X-25.685 Y61.838 Z-0.000 I-3.799 J-3.865 K0.000 F300.000
G3 X-28.254 Y61.725 Z-0.000 I-0.938 J-7.915 K0.000 F300.000
G1 X-20.293 Y53.764 Z0.000 F300.000
G2 X-20.925 Y49.920 Z0.000 I-10.882 J-0.185 K-0.000 F300.000
G1 X-23.304 Y52.298 Z0.000 F300.000
G2 X-25.471 Y50.018 Z0.000 I-3.540 J1.195 K-0.000 F300.000
G1 X-25.471 Y49.990 Z0.000 F300.000
G1 X-22.748 Y47.267 Z0.000 F300.000
G2 X-25.471 Y46.064 Z0.000 I-3.699 J4.687 K-0.000 F300.000
G1 X-25.471 Y49.990 Z0.000 F300.000
G0 Z6.000
G0 X-41.015 Y61.057 Z6.000
G0 X-41.015 Y61.057 Z4.000
G1 X-41.015 Y61.057 Z-0.000 F120.000
G2 X-38.460 Y62.073 Z-0.000 I3.609 J-5.356 K0.000 F300.000
G1 X-38.460 Y58.503 Z-0.000 F300.000
G1 X-41.015 Y61.057 Z-0.000 F300.000
G3 X-43.096 Y58.663 Z-0.000 I3.459 J-5.109 K0.000 F300.000
G1 X-40.596 Y56.162 Z-0.000 F300.000
G3 X-41.038 Y52.128 Z-0.000 I4.509 J-2.535 K0.000 F300.000
G1 X-44.082 Y55.173 Z-0.000 F300.000
G1 X-44.082 Y55.173 Z-1.000 F120.000
G1 X-41.038 Y52.128 Z-1.000 F300.000
G2 X-40.596 Y56.162 Z-1.000 I4.951 J1.499 K0.000 F300.000
G1 X-43.096 Y58.663 Z-1.000 F300.000
G2 X-41.015 Y61.057 Z-1.000 I5.540 J-2.714 K0.000 F300.000
G1 X-38.460 Y58.503 Z-1.000 F300.000
G1 X-38.460 Y62.073 Z-1.000 F300.000
G3 X-41.015 Y61.057 Z-1.000 I1.055 J-6.371 K0.000 F300.000
G0 Z6.000
G0 X-41.020 Y61.064 Z6.000
G0 X-41.020 Y61.064 Z4.000
G1 X-41.020 Y61.064 Z-1.000 F120.000
G2 X-38.460 Y62.073 Z-1.000 I3.513 J-5.163 K0.000 F300.000
G1 X-38.460 Y57.938 Z-1.000 F300.000
G3 X-40.166 Y56.764 Z-1.000 I1.339 J-3.772 K0.000 F300.000
G3 X-40.399 Y50.786 Z-1.000 I3.970 J-3.148 K0.000 F300.000
G3 X-35.342 Y49.964 Z-1.000 I2.908 J1.925 K0.000 F300.000
G3 X-33.755 Y52.624 Z-1.000 I-3.840 J4.095 K0.000 F300.000
G3 X-32.824 Y56.054 Z-1.000 I-44.883 J14.020 K0.000 F300.000
G2 X-31.368 Y59.603 Z-1.000 I12.548 J-3.076 K0.000 F300.000
G2 X-28.904 Y61.548 Z-1.000 I3.991 J-2.521 K0.000 F300.000
G2 X-25.685 Y61.838 Z-1.000 I2.285 J-7.349 K0.000 F300.000
G2 X-22.768 Y60.677 Z-1.000 I-0.525 J-5.562 K0.000 F300.000
G2 X-20.790 Y57.551 Z-1.000 I-4.134 J-4.805 K0.000 F300.000
G2 X-20.292 Y53.850 Z-1.000 I-12.066 J-3.507 K0.000 F300.000
G2 X-21.108 Y49.457 Z-1.000 I-10.833 J-0.259 K0.000 F300.000
G2 X-25.471 Y46.064 Z-1.000 I-5.196 J2.180 K0.000 F300.000
G1 X-25.471 Y50.018 Z-1.000 F300.000
G3 X-23.688 Y51.502 Z-1.000 I-1.324 J3.407 K0.000 F300.000
G3 X-23.549 Y56.195 Z-1.000 I-4.336 J2.477 K0.000 F300.000
G3 X-28.455 Y57.169 Z-1.000 I-2.825 J-1.387 K0.000 F300.000
G3 X-29.893 Y54.733 Z-1.000 I4.147 J-4.091 K0.000 F300.000
G3 X-30.891 Y51.201 Z-1.000 I64.669 J-20.175 K0.000 F300.000
G2 X-32.525 Y47.387 Z-1.000 I-12.973 J3.301 K0.000 F300.000
G2 X-35.137 Y45.410 Z-1.000 I-4.121 J2.732 K0.000 F300.000
G2 X-38.280 Y45.160 Z-1.000 I-2.169 J7.393 K0.000 F300.000
G2 X-41.198 Y46.224 Z-1.000 I0.594 J6.167 K0.000 F300.000
G2 X-43.400 Y49.150 Z-1.000 I3.765 J5.125 K0.000 F300.000
G2 X-44.168 Y53.631 Z-1.000 I11.029 J4.196 K0.000 F300.000
G2 X-43.197 Y58.474 Z-1.000 I11.209 J0.271 K0.000 F300.000
G2 X-41.020 Y61.064 Z-1.000 I5.690 J-2.572 K0.000 F300.000
G0 Z6.000
G0 X-43.795 Y50.410 Z6.000
G0 X-43.795 Y50.410 Z4.000
G1 X-43.795 Y50.410 Z-1.000 F120.000
G1 X-38.595 Y45.210 Z-1.000 F300.000
G2 X-42.741 Y47.862 Z-1.000 I0.731 J5.709 K0.000 F300.000
G2 X-43.795 Y50.410 Z-1.000 I6.927 J4.359 K0.000 F300.000
G2 X-44.082 Y55.173 Z-1.000 I13.399 J3.197 K0.000 F300.000
G1 X-41.038 Y52.128 Z-1.000 F300.000
G3 X-40.794 Y51.475 Z-1.000 I7.545 J2.439 K0.000 F300.000
G3 X-38.220 Y49.311 Z-1.000 I3.385 J1.413 K0.000 F300.000
G1 X-34.555 Y45.645 Z-1.000 F300.000
G3 X-32.253 Y47.820 Z-1.000 I-2.171 J4.604 K0.000 F300.000
G1 X-34.868 Y50.435 Z-1.000 F300.000
G1 X-34.843 Y50.462 Z-1.000 F300.000
G3 X-33.487 Y53.530 Z-1.000 I-6.779 J4.831 K0.000 F300.000
G1 X-30.955 Y50.998 Z-1.000 F300.000
G2 X-29.973 Y54.492 Z-1.000 I100.778 J-26.450 K0.000 F300.000
G1 X-32.524 Y57.042 Z-1.000 F300.000
G2 X-31.042 Y60.036 Z-1.000 I8.837 J-2.510 K0.000 F300.000
G1 X-28.303 Y57.298 Z-1.000 F300.000
G0 Z6.000
G0 X-22.358 Y60.304 Z6.000
G0 X-22.358 Y60.304 Z4.000
G1 X-22.358 Y60.304 Z-1.000 F120.000
G3 X-25.685 Y61.838 Z-1.000 I-3.799 J-3.865 K0.000 F300.000
G3 X-28.254 Y61.725 Z-1.000 I-0.938 J-7.915 K0.000 F300.000
G1 X-20.293 Y53.764 Z-1.000 F300.000
G2 X-20.925 Y49.920 Z-1.000 I-10.882 J-0.185 K0.000 F300.000
G1 X-23.304 Y52.298 Z-1.000 F300.000
G2 X-25.471 Y50.018 Z-1.000 I-3.540 J1.195 K0.000 F300.000
G1 X-25.471 Y49.990 Z-1.000 F300.000
G1 X-22.748 Y47.267 Z-1.000 F300.000
G2 X-25.471 Y46.064 Z-1.000 I-3.699 J4.687 K0.000 F300.000
G1 X-25.471 Y49.990 Z-1.000 F300.000
G1 X-25.471 Y49.990 Z-2.000 F120.000
G1 X-25.471 Y46.064 Z-2.000 F300.000
G3 X-22.748 Y47.267 Z-2.000 I-0.976 J5.891 K0.000 F300.000
G1 X-25.471 Y49.990 Z-2.000 F300.000
G1 X-25.471 Y50.018 Z-2.000 F300.000
G3 X-23.304 Y52.298 Z-2.000 I-1.372 J3.475 K0.000 F300.000
G1 X-20.925 Y49.920 Z-2.000 F300.000
G3 X-20.293 Y53.764 Z-2.000 I-10.250 J3.659 K0.000 F300.000
G1 X-28.254 Y61.725 Z-2.000 F300.000
G2 X-25.685 Y61.838 Z-2.000 I1.632 J-7.801 K0.000 F300.000
G2 X-22.358 Y60.304 Z-2.000 I-0.472 J-5.399 K0.000 F300.000
G0 Z6.000
G0 X-22.365 Y60.298 Z6.000
G0 X-22.365 Y60.298 Z4.000
G1 X-22.365 Y60.298 Z-2.000 F120.000
G2 X-20.790 Y57.551 Z-2.000 I-4.537 J-4.426 K0.000 F300.000
G2 X-20.292 Y53.850 Z-2.000 I-12.066 J-3.507 K0.000 F300.000
G2 X-21.108 Y49.457 Z-2.000 I-10.833 J-0.259 K0.000 F300.000
G2 X-25.471 Y46.064 Z-2.000 I-5.196 J2.180 K0.000 F300.000
G1 X-25.471 Y50.018 Z-2.000 F300.000
G3 X-23.688 Y51.502 Z-2.000 I-1.324 J3.407 K0.000 F300.000
G3 X-23.549 Y56.195 Z-2.000 I-4.336 J2.477 K0.000 F300.000
G3 X-28.455 Y57.169 Z-2.000 I-2.825 J-1.387 K0.000 F300.000
G3 X-29.893 Y54.733 Z-2.000 I4.147 J-4.091 K0.000 F300.000
G3 X-30.891 Y51.201 Z-2.000 I64.669 J-20.175 K0.000 F300.000
G2 X-32.525 Y47.387 Z-2.000 I-12.973 J3.301 K0.000 F300.000
G2 X-35.137 Y45.410 Z-2.000 I-4.121 J2.732 K0.000 F300.000
G2 X-38.280 Y45.160 Z-2.000 I-2.169 J7.393 K0.000 F300.000
G2 X-41.198 Y46.224 Z-2.000 I0.594 J6.167 K0.000 F300.000
G2 X-43.400 Y49.150 Z-2.000 I3.765 J5.125 K0.000 F300.000
G2 X-44.168 Y53.631 Z-2.000 I11.029 J4.196 K0.000 F300.000
G2 X-43.197 Y58.474 Z-2.000 I11.209 J0.271 K0.000 F300.000
G2 X-38.460 Y62.073 Z-2.000 I5.690 J-2.572 K0.000 F300.000
G1 X-38.460 Y57.938 Z-2.000 F300.000
G3 X-40.166 Y56.764 Z-2.000 I1.339 J-3.772 K0.000 F300.000
G3 X-40.399 Y50.786 Z-2.000 I3.970 J-3.148 K0.000 F300.000
G3 X-35.342 Y49.964 Z-2.000 I2.908 J1.925 K0.000 F300.000
G3 X-33.755 Y52.624 Z-2.000 I-3.840 J4.095 K0.000 F300.000
G3 X-32.824 Y56.054 Z-2.000 I-44.883 J14.020 K0.000 F300.000
G2 X-31.368 Y59.603 Z-2.000 I12.548 J-3.076 K0.000 F300.000
G2 X-28.904 Y61.548 Z-2.000 I3.991 J-2.521 K0.000 F300.000
G2 X-25.685 Y61.838 Z-2.000 I2.285 J-7.349 K0.000 F300.000
G2 X-22.768 Y60.677 Z-2.000 I-0.525 J-5.562 K0.000 F300.000
G2 X-22.365 Y60.298 Z-2.000 I-4.134 J-4.805 K0.000 F300.000
G0 Z6.000
G0 X-28.303 Y57.298 Z6.000
G0 X-28.303 Y57.298 Z4.000
G1 X-28.303 Y57.298 Z-2.000 F120.000
G1 X-31.042 Y60.036 Z-2.000 F300.000
G3 X-32.524 Y57.042 Z-2.000 I7.355 J-5.504 K0.000 F300.000
G1 X-29.973 Y54.492 Z-2.000 F300.000
G3 X-30.955 Y50.998 Z-2.000 I99.796 J-29.943 K0.000 F300.000
G1 X-33.487 Y53.530 Z-2.000 F300.000
G2 X-34.843 Y50.462 Z-2.000 I-8.135 J1.764 K0.000 F300.000
G1 X-34.868 Y50.435 Z-2.000 F300.000
G1 X-32.253 Y47.820 Z-2.000 F300.000
G2 X-34.555 Y45.645 Z-2.000 I-4.473 J2.430 K0.000 F300.000
G1 X-38.220 Y49.311 Z-2.000 F300.000
G2 X-40.794 Y51.475 Z-2.000 I0.811 J3.577 K0.000 F300.000
G2 X-41.038 Y52.128 Z-2.000 I7.301 J3.092 K0.000 F300.000
G1 X-44.082 Y55.173 Z-2.000 F300.000
G3 X-43.795 Y50.410 Z-2.000 I13.686 J-1.566 K0.000 F300.000
G3 X-42.741 Y47.862 Z-2.000 I7.981 J1.811 K0.000 F300.000
G3 X-38.595 Y45.210 Z-2.000 I4.877 J3.057 K0.000 F300.000
G1 X-43.795 Y50.410 Z-2.000 F300.000
G0 Z6.000
G0 X-44.082 Y55.173 Z6.000
G0 X-44.082 Y55.173 Z4.000
G1 X-44.082 Y55.173 Z-2.000 F120.000
G1 X-41.038 Y52.128 Z-2.000 F300.000
G2 X-40.596 Y56.162 Z-2.000 I4.951 J1.499 K0.000 F300.000
G1 X-43.096 Y58.663 Z-2.000 F300.000
G2 X-41.015 Y61.057 Z-2.000 I5.540 J-2.714 K0.000 F300.000
G1 X-38.460 Y58.503 Z-2.000 F300.000
G1 X-38.460 Y62.073 Z-2.000 F300.000
G3 X-41.015 Y61.057 Z-2.000 I1.055 J-6.371 K0.000 F300.000
G1 X-41.015 Y61.057 Z-3.000 F120.000
G2 X-38.460 Y62.073 Z-3.000 I3.609 J-5.356 K0.000 F300.000
G1 X-38.460 Y58.503 Z-3.000 F300.000
G1 X-41.015 Y61.057 Z-3.000 F300.000
G3 X-43.096 Y58.663 Z-3.000 I3.459 J-5.109 K0.000 F300.000
G1 X-40.596 Y56.162 Z-3.000 F300.000
G3 X-41.038 Y52.128 Z-3.000 I4.509 J-2.535 K0.000 F300.000
G1 X-44.082 Y55.173 Z-3.000 F300.000
G0 Z6.000
G0 X-44.099 Y55.175 Z6.000
G0 X-44.099 Y55.175 Z4.000
G1 X-44.099 Y55.175 Z-3.000 F120.000
G2 X-43.197 Y58.474 Z-3.000 I11.140 J-1.272 K0.000 F300.000
G2 X-38.460 Y62.073 Z-3.000 I5.690 J-2.572 K0.000 F300.000
G1 X-38.460 Y57.938 Z-3.000 F300.000
G3 X-40.166 Y56.764 Z-3.000 I1.339 J-3.772 K0.000 F300.000
G3 X-40.399 Y50.786 Z-3.000 I3.970 J-3.148 K0.000 F300.000
G3 X-35.342 Y49.964 Z-3.000 I2.908 J1.925 K0.000 F300.000
G3 X-33.755 Y52.624 Z-3.000 I-3.840 J4.095 K0.000 F300.000
G3 X-32.824 Y56.054 Z-3.000 I-44.883 J14.020 K0.000 F300.000
G2 X-31.368 Y59.603 Z-3.000 I12.548 J-3.076 K0.000 F300.000
G2 X-28.904 Y61.548 Z-3.000 I3.991 J-2.521 K0.000 F300.000
G2 X-25.685 Y61.838 Z-3.000 I2.285 J-7.349 K0.000 F300.000
G2 X-22.768 Y60.677 Z-3.000 I-0.525 J-5.562 K0.000 F300.000
G2 X-20.790 Y57.551 Z-3.000 I-4.134 J-4.805 K0.000 F300.000
G2 X-20.292 Y53.850 Z-3.000 I-12.066 J-3.507 K0.000 F300.000
G2 X-21.108 Y49.457 Z-3.000 I-10.833 J-0.259 K0.000 F300.000
G2 X-25.471 Y46.064 Z-3.000 I-5.196 J2.180 K0.000 F300.000
G1 X-25.471 Y50.018 Z-3.000 F300.000
G3 X-23.688 Y51.502 Z-3.000 I-1.324 J3.407 K0.000 F300.000
G3 X-23.549 Y56.195 Z-3.000 I-4.336 J2.477 K0.000 F300.000
G3 X-28.455 Y57.169 Z-3.000 I-2.825 J-1.387 K0.000 F300.000
G3 X-29.893 Y54.733 Z-3.000 I4.147 J-4.091 K0.000 F300.000
G3 X-30.891 Y51.201 Z-3.000 I64.669 J-20.175 K0.000 F300.000
G2 X-32.525 Y47.387 Z-3.000 I-12.973 J3.301 K0.000 F300.000
G2 X-35.137 Y45.410 Z-3.000 I-4.121 J2.732 K0.000 F300.000
G2 X-38.280 Y45.160 Z-3.000 I-2.169 J7.393 K0.000 F300.000
G2 X-41.198 Y46.224 Z-3.000 I0.594 J6.167 K0.000 F300.000
G2 X-43.400 Y49.150 Z-3.000 I3.765 J5.125 K0.000 F300.000
G2 X-44.168 Y53.631 Z-3.000 I11.029 J4.196 K0.000 F300.000
G2 X-44.099 Y55.175 Z-3.000 I11.209 J0.271 K0.000 F300.000
G0 Z6.000
G0 X-43.795 Y50.410 Z6.000
G0 X-43.795 Y50.410 Z4.000
G1 X-43.795 Y50.410 Z-3.000 F120.000
G1 X-38.595 Y45.210 Z-3.000 F300.000
G2 X-42.741 Y47.862 Z-3.000 I0.731 J5.709 K0.000 F300.000
G2 X-43.795 Y50.410 Z-3.000 I6.927 J4.359 K0.000 F300.000
G2 X-44.082 Y55.173 Z-3.000 I13.399 J3.197 K0.000 F300.000
G1 X-41.038 Y52.128 Z-3.000 F300.000
G3 X-40.794 Y51.475 Z-3.000 I7.545 J2.439 K0.000 F300.000
G3 X-38.220 Y49.311 Z-3.000 I3.385 J1.413 K0.000 F300.000
G1 X-34.555 Y45.645 Z-3.000 F300.000
G3 X-32.253 Y47.820 Z-3.000 I-2.171 J4.604 K0.000 F300.000
G1 X-34.868 Y50.435 Z-3.000 F300.000
G1 X-34.843 Y50.462 Z-3.000 F300.000
G3 X-33.487 Y53.530 Z-3.000 I-6.779 J4.831 K0.000 F300.000
G1 X-30.955 Y50.998 Z-3.000 F300.000
G2 X-29.973 Y54.492 Z-3.000 I100.778 J-26.450 K0.000 F300.000
G1 X-32.524 Y57.042 Z-3.000 F300.000
G2 X-31.042 Y60.036 Z-3.000 I8.837 J-2.510 K0.000 F300.000
G1 X-28.303 Y57.298 Z-3.000 F300.000
G0 Z6.000
G0 X-22.358 Y60.304 Z6.000
G0 X-22.358 Y60.304 Z4.000
G1 X-22.358 Y60.304 Z-3.000 F120.000
G3 X-25.685 Y61.838 Z-3.000 I-3.799 J-3.865 K0.000 F300.000
G3 X-28.254 Y61.725 Z-3.000 I-0.938 J-7.915 K0.000 F300.000
G1 X-20.293 Y53.764 Z-3.000 F300.000
G2 X-20.925 Y49.920 Z-3.000 I-10.882 J-0.185 K0.000 F300.000
G1 X-23.304 Y52.298 Z-3.000 F300.000
G2 X-25.471 Y50.018 Z-3.000 I-3.540 J1.195 K0.000 F300.000
G1 X-25.471 Y49.990 Z-3.000 F300.000
G1 X-22.748 Y47.267 Z-3.000 F300.000
G2 X-25.471 Y46.064 Z-3.000 I-3.699 J4.687 K0.000 F300.000
G1 X-25.471 Y49.990 Z-3.000 F300.000
G0 Z6.000
G0 Z6.000
G0 X-25.471 Y49.990
G0 X-31.276 Y-19.628
G0 X-31.276 Y-19.628 Z4.000
G1 X-31.276 Y-19.628 Z0.000 F120.000
G2 X-22.952 Y-24.366 Z0.000 I-0.946 J-11.342 K0.000 F300.000
G2 X-20.955 Y-33.362 Z0.000 I-10.309 J-7.008 K0.000 F300.000
G2 X-28.418 Y-42.177 Z0.000 I-10.673 J1.468 K0.000 F300.000
G1 X-28.418 Y-38.184 Z0.000 F300.000
G3 X-27.342 Y-25.219 Z0.000 I-3.276 J6.799 K0.000 F300.000
G3 X-35.745 Y-24.217 Z0.000 I-5.189 J-7.775 K0.000 F300.000
G3 X-40.711 Y-30.119 Z0.000 I2.542 J-7.178 K0.000 F300.000
G3 X-36.183 Y-38.276 Z0.000 I7.192 J-1.343 K0.000 F300.000
G1 X-36.183 Y-42.296 Z0.000 F300.000
G2 X-41.822 Y-38.540 Z0.000 I2.998 J10.610 K0.000 F300.000
G2 X-44.156 Y-30.834 Z0.000 I9.199 J6.992 K0.000 F300.000
G2 X-40.477 Y-22.590 Z0.000 I11.813 J-0.329 K0.000 F300.000
G2 X-31.686 Y-19.601 Z0.000 I7.868 J-8.719 K0.000 F300.000
G2 X-31.276 Y-19.628 Z0.000 I-0.535 J-11.369 K0.000 F300.000
G0 Z6.000
G0 X-31.021 Y-19.667 Z6.000
G0 X-31.021 Y-19.667 Z4.000
G1 X-31.021 Y-19.667 Z0.000 F120.000
G1 X-35.486 Y-24.133 Z0.000 F300.000
G2 X-30.697 Y-23.820 Z0.000 I2.995 J-9.033 K0.000 F300.000
G1 X-27.503 Y-20.625 Z0.000 F300.000
G2 X-24.767 Y-22.366 Z0.000 I-4.111 J-9.485 K0.000 F300.000
G1 X-27.512 Y-25.111 Z0.000 F300.000
G2 X-25.298 Y-27.373 Z0.000 I-4.027 J-6.155 K0.000 F300.000
G1 X-22.692 Y-24.767 Z0.000 F300.000
G2 X-21.305 Y-27.855 Z0.000 I-8.924 J-5.866 K0.000 F300.000
G1 X-24.178 Y-30.729 Z0.000 F300.000
G2 X-28.418 Y-38.184 Z0.000 I-7.399 J-0.725 K0.000 F300.000
G1 X-28.418 Y-39.444 Z0.000 F300.000
G1 X-20.817 Y-31.843 Z0.000 F300.000
G2 X-23.869 Y-39.372 Z0.000 I-11.213 J0.163 K0.000 F300.000
G0 Z6.000
G0 X-38.986 Y-41.061 Z6.000
G0 X-38.986 Y-41.061 Z4.000
G1 X-38.986 Y-41.061 Z0.000 F120.000
G3 X-36.183 Y-42.296 Z0.000 I5.957 J9.721 K0.000 F300.000
G1 X-36.183 Y-38.276 Z0.000 F300.000
G1 X-36.196 Y-38.270 Z0.000 F300.000
G1 X-38.986 Y-41.061 Z0.000 F300.000
G2 X-41.416 Y-39.015 Z0.000 I5.348 J8.819 K0.000 F300.000
G1 X-38.859 Y-36.458 Z0.000 F300.000
G2 X-40.494 Y-33.616 Z0.000 I5.036 J4.788 K0.000 F300.000
G1 X-43.167 Y-36.289 Z0.000 F300.000
G2 X-44.093 Y-32.740 Z0.000 I10.104 J4.533 K0.000 F300.000
G1 X-40.467 Y-29.114 Z0.000 F300.000
G2 X-35.486 Y-24.133 Z0.000 I7.251 J-2.270 K0.000 F300.000
G1 X-31.021 Y-19.667 Z0.000 F300.000
G3 X-35.862 Y-20.033 Z0.000 I-1.506 J-12.308 K0.000 F300.000
G1 X-43.672 Y-27.843 Z0.000 F300.000
G2 X-35.862 Y-20.033 Z0.000 I10.754 J-2.944 K0.000 F300.000
G1 X-35.862 Y-20.033 Z-1.000 F120.000
G3 X-43.672 Y-27.843 Z-1.000 I2.944 J-10.754 K0.000 F300.000
G1 X-35.862 Y-20.033 Z-1.000 F300.000
G2 X-31.021 Y-19.667 Z-1.000 I3.336 J-11.943 K0.000 F300.000
G1 X-35.486 Y-24.133 Z-1.000 F300.000
G3 X-40.467 Y-29.114 Z-1.000 I2.270 J-7.251 K0.000 F300.000
G1 X-44.093 Y-32.740 Z-1.000 F300.000
G3 X-43.167 Y-36.289 Z-1.000 I11.030 J0.984 K0.000 F300.000
G1 X-40.494 Y-33.616 Z-1.000 F300.000
G3 X-38.859 Y-36.458 Z-1.000 I6.670 J1.947 K0.000 F300.000
G1 X-41.416 Y-39.015 Z-1.000 F300.000
G3 X-38.986 Y-41.061 Z-1.000 I7.778 J6.773 K0.000 F300.000
G1 X-36.196 Y-38.270 Z-1.000 F300.000
G1 X-36.183 Y-38.276 Z-1.000 F300.000
G1 X-36.183 Y-42.296 Z-1.000 F300.000
G2 X-38.986 Y-41.061 Z-1.000 I3.154 J10.956 K0.000 F300.000
G0 Z6.000
G0 X-38.987 Y-41.062 Z6.000
G0 X-38.987 Y-41.062 Z4.000
G1 X-38.987 Y-41.062 Z-1.000 F120.000
G2 X-41.822 Y-38.540 Z-1.000 I5.801 J9.376 K0.000 F300.000
G2 X-44.156 Y-30.834 Z-1.000 I9.199 J6.992 K0.000 F300.000
G2 X-40.477 Y-22.590 Z-1.000 I11.813 J-0.329 K0.000 F300.000
G2 X-31.686 Y-19.601 Z-1.000 I7.868 J-8.719 K0.000 F300.000
G2 X-22.952 Y-24.366 Z-1.000 I-0.535 J-11.369 K0.000 F300.000
G2 X-20.955 Y-33.362 Z-1.000 I-10.309 J-7.008 K0.000 F300.000
G2 X-28.418 Y-42.177 Z-1.000 I-10.673 J1.468 K0.000 F300.000
G1 X-28.418 Y-38.184 Z-1.000 F300.000
G3 X-27.342 Y-25.219 Z-1.000 I-3.276 J6.799 K0.000 F300.000
G3 X-35.745 Y-24.217 Z-1.000 I-5.189 J-7.775 K0.000 F300.000
G3 X-40.711 Y-30.119 Z-1.000 I2.542 J-7.178 K0.000 F300.000
G3 X-36.183 Y-38.276 Z-1.000 I7.192 J-1.343 K0.000 F300.000
G1 X-36.183 Y-42.296 Z-1.000 F300.000
G2 X-38.987 Y-41.062 Z-1.000 I2.998 J10.610 K0.000 F300.000
G0 Z6.000
G0 X-23.869 Y-39.372 Z6.000
G0 X-23.869 Y-39.372 Z4.000
G1 X-23.869 Y-39.372 Z-1.000 F120.000
G3 X-20.817 Y-31.843 Z-1.000 I-8.160 J7.692 K0.000 F300.000
G1 X-28.418 Y-39.444 Z-1.000 F300.000
G1 X-28.418 Y-38.184 Z-1.000 F300.000
G3 X-24.178 Y-30.729 Z-1.000 I-3.160 J6.729 K0.000 F300.000
G1 X-21.305 Y-27.855 Z-1.000 F300.000
G3 X-22.692 Y-24.767 Z-1.000 I-10.312 J-2.778 K0.000 F300.000
G1 X-25.298 Y-27.373 Z-1.000 F300.000
G3 X-27.512 Y-25.111 Z-1.000 I-6.241 J-3.893 K0.000 F300.000
G1 X-24.767 Y-22.366 Z-1.000 F300.000
G3 X-27.503 Y-20.625 Z-1.000 I-6.847 J-7.745 K0.000 F300.000
G1 X-30.697 Y-23.820 Z-1.000 F300.000
G3 X-35.486 Y-24.133 Z-1.000 I-1.794 J-9.346 K0.000 F300.000
G1 X-31.021 Y-19.667 Z-1.000 F300.000
G1 X-31.021 Y-19.667 Z-2.000 F120.000
G1 X-35.486 Y-24.133 Z-2.000 F300.000
G2 X-30.697 Y-23.820 Z-2.000 I2.995 J-9.033 K0.000 F300.000
G1 X-27.503 Y-20.625 Z-2.000 F300.000
G2 X-24.767 Y-22.366 Z-2.000 I-4.111 J-9.485 K0.000 F300.000
G1 X-27.512 Y-25.111 Z-2.000 F300.000
G2 X-25.298 Y-27.373 Z-2.000 I-4.027 J-6.155 K0.000 F300.000
G1 X-22.692 Y-24.767 Z-2.000 F300.000
G2 X-21.305 Y-27.855 Z-2.000 I-8.924 J-5.866 K0.000 F300.000
G1 X-24.178 Y-30.729 Z-2.000 F300.000
G2 X-28.418 Y-38.184 Z-2.000 I-7.399 J-0.725 K0.000 F300.000
G1 X-28.418 Y-39.444 Z-2.000 F300.000
G1 X-20.817 Y-31.843 Z-2.000 F300.000
G2 X-23.869 Y-39.372 Z-2.000 I-11.213 J0.163 K0.000 F300.000
G0 Z6.000
G0 X-23.871 Y-39.370 Z6.000
G0 X-23.871 Y-39.370 Z4.000
G1 X-23.871 Y-39.370 Z-2.000 F120.000
G2 X-28.418 Y-42.177 Z-2.000 I-7.757 J7.477 K0.000 F300.000
G1 X-28.418 Y-38.184 Z-2.000 F300.000
G3 X-27.342 Y-25.219 Z-2.000 I-3.276 J6.799 K0.000 F300.000
G3 X-35.745 Y-24.217 Z-2.000 I-5.189 J-7.775 K0.000 F300.000
G3 X-40.711 Y-30.119 Z-2.000 I2.542 J-7.178 K0.000 F300.000
G3 X-36.183 Y-38.276 Z-2.000 I7.192 J-1.343 K0.000 F300.000
G1 X-36.183 Y-42.296 Z-2.000 F300.000
G2 X-41.822 Y-38.540 Z-2.000 I2.998 J10.610 K0.000 F300.000
G2 X-44.156 Y-30.834 Z-2.000 I9.199 J6.992 K0.000 F300.000
G2 X-40.477 Y-22.590 Z-2.000 I11.813 J-0.329 K0.000 F300.000
G2 X-31.686 Y-19.601 Z-2.000 I7.868 J-8.719 K0.000 F300.000
G2 X-22.952 Y-24.366 Z-2.000 I-0.535 J-11.369 K0.000 F300.000
G2 X-20.955 Y-33.362 Z-2.000 I-10.309 J-7.008 K0.000 F300.000
G2 X-23.871 Y-39.370 Z-2.000 I-10.673 J1.468 K0.000 F300.000
G0 Z6.000
G0 X-38.986 Y-41.061 Z6.000
G0 X-38.986 Y-41.061 Z4.000
G1 X-38.986 Y-41.061 Z-2.000 F120.000
G3 X-36.183 Y-42.296 Z-2.000 I5.957 J9.721 K0.000 F300.000
G1 X-36.183 Y-38.276 Z-2.000 F300.000
G1 X-36.196 Y-38.270 Z-2.000 F300.000
G1 X-38.986 Y-41.061 Z-2.000 F300.000
G2 X-41.416 Y-39.015 Z-2.000 I5.348 J8.819 K0.000 F300.000
G1 X-38.859 Y-36.458 Z-2.000 F300.000
G2 X-40.494 Y-33.616 Z-2.000 I5.036 J4.788 K0.000 F300.000
G1 X-43.167 Y-36.289 Z-2.000 F300.000
G2 X-44.093 Y-32.740 Z-2.000 I10.104 J4.533 K0.000 F300.000
G1 X-40.467 Y-29.114 Z-2.000 F300.000
G2 X-35.486 Y-24.133 Z-2.000 I7.251 J-2.270 K0.000 F300.000
G1 X-31.021 Y-19.667 Z-2.000 F300.000
G3 X-35.862 Y-20.033 Z-2.000 I-1.506 J-12.308 K0.000 F300.000
G1 X-43.672 Y-27.843 Z-2.000 F300.000
G2 X-35.862 Y-20.033 Z-2.000 I10.754 J-2.944 K0.000 F300.000
G1 X-35.862 Y-20.033 Z-3.000 F120.000
G3 X-43.672 Y-27.843 Z-3.000 I2.944 J-10.754 K0.000 F300.000
G1 X-35.862 Y-20.033 Z-3.000 F300.000
G2 X-31.021 Y-19.667 Z-3.000 I3.336 J-11.943 K0.000 F300.000
G1 X-35.486 Y-24.133 Z-3.000 F300.000
G3 X-40.467 Y-29.114 Z-3.000 I2.270 J-7.251 K0.000 F300.000
G1 X-44.093 Y-32.740 Z-3.000 F300.000
G3 X-43.167 Y-36.289 Z-3.000 I11.030 J0.984 K0.000 F300.000
G1 X-40.494 Y-33.616 Z-3.000 F300.000
G3 X-38.859 Y-36.458 Z-3.000 I6.670 J1.947 K0.000 F300.000
G1 X-41.416 Y-39.015 Z-3.000 F300.000
G3 X-38.986 Y-41.061 Z-3.000 I7.778 J6.773 K0.000 F300.000
G1 X-36.196 Y-38.270 Z-3.000 F300.000
G1 X-36.183 Y-38.276 Z-3.000 F300.000
G1 X-36.183 Y-42.296 Z-3.000 F300.000
G2 X-38.986 Y-41.061 Z-3.000 I3.154 J10.956 K0.000 F300.000
G0 Z6.000
G0 X-38.987 Y-41.062 Z6.000
G0 X-38.987 Y-41.062 Z4.000
G1 X-38.987 Y-41.062 Z-3.000 F120.000
G2 X-41.822 Y-38.540 Z-3.000 I5.801 J9.376 K0.000 F300.000
G2 X-44.156 Y-30.834 Z-3.000 I9.199 J6.992 K0.000 F300.000
G2 X-40.477 Y-22.590 Z-3.000 I11.813 J-0.329 K0.000 F300.000
G2 X-31.686 Y-19.601 Z-3.000 I7.868 J-8.719 K0.000 F300.000
G2 X-22.952 Y-24.366 Z-3.000 I-0.535 J-11.369 K0.000 F300.000
G2 X-20.955 Y-33.362 Z-3.000 I-10.309 J-7.008 K0.000 F300.000
G2 X-28.418 Y-42.177 Z-3.000 I-10.673 J1.468 K0.000 F300.000
G1 X-28.418 Y-38.184 Z-3.000 F300.000
G3 X-27.342 Y-25.219 Z-3.000 I-3.276 J6.799 K0.000 F300.000
G3 X-35.745 Y-24.217 Z-3.000 I-5.189 J-7.775 K0.000 F300.000
G3 X-40.711 Y-30.119 Z-3.000 I2.542 J-7.178 K0.000 F300.000
G3 X-36.183 Y-38.276 Z-3.000 I7.192 J-1.343 K0.000 F300.000
G1 X-36.183 Y-42.296 Z-3.000 F300.000
G2 X-38.987 Y-41.062 Z-3.000 I2.998 J10.610 K0.000 F300.000
G0 Z6.000
G0 X-23.869 Y-39.372 Z6.000
G0 X-23.869 Y-39.372 Z4.000
G1 X-23.869 Y-39.372 Z-3.000 F120.000
G3 X-20.817 Y-31.843 Z-3.000 I-8.160 J7.692 K0.000 F300.000
G1 X-28.418 Y-39.444 Z-3.000 F300.000
G1 X-28.418 Y-38.184 Z-3.000 F300.000
G3 X-24.178 Y-30.729 Z-3.000 I-3.160 J6.729 K0.000 F300.000
G1 X-21.305 Y-27.855 Z-3.000 F300.000
G3 X-22.692 Y-24.767 Z-3.000 I-10.312 J-2.778 K0.000 F300.000
G1 X-25.298 Y-27.373 Z-3.000 F300.000
G3 X-27.512 Y-25.111 Z-3.000 I-6.241 J-3.893 K0.000 F300.000
G1 X-24.767 Y-22.366 Z-3.000 F300.000
G3 X-27.503 Y-20.625 Z-3.000 I-6.847 J-7.745 K0.000 F300.000
G1 X-30.697 Y-23.820 Z-3.000 F300.000
G3 X-35.486 Y-24.133 Z-3.000 I-1.794 J-9.346 K0.000 F300.000
G1 X-31.021 Y-19.667 Z-3.000 F300.000
G0 Z6.000
G0 Z6.000
G0 X-31.021 Y-19.667
G0 X-24.145 Y-47.674
G0 X-24.145 Y-47.674 Z4.000
G1 X-24.145 Y-47.674 Z-0.000 F120.000
G1 X-21.043 Y-47.674 Z-0.000 F300.000
G1 X-21.043 Y-65.202 Z-0.000 F300.000
G1 X-24.145 Y-65.202 Z-0.000 F300.000
G1 X-24.145 Y-59.930 Z-0.000 F300.000
G3 X-25.728 Y-58.347 Z-0.000 I-1.582 J0.000 K0.000 F300.000
G1 X-43.417 Y-58.347 Z0.000 F300.000
G1 X-43.417 Y-54.529 Z0.000 F300.000
G1 X-25.728 Y-54.529 Z-0.000 F300.000
G3 X-24.145 Y-52.946 Z-0.000 I0.000 J1.582 K-0.000 F300.000
G1 X-24.145 Y-47.674 Z-0.000 F300.000
G1 X-24.145 Y-47.674 Z-0.000 F120.000
G1 X-21.419 Y-47.674 Z-0.000 F300.000
G1 X-24.145 Y-50.400 Z-0.000 F300.000
G1 X-24.145 Y-47.674 Z-0.000 F300.000
G0 Z6.000
G0 X-21.043 Y-65.202 Z6.000
G0 X-21.043 Y-65.202 Z4.000
G1 X-21.043 Y-65.202 Z-0.000 F120.000
G1 X-21.043 Y-60.726 Z-0.000 F300.000
G1 X-24.145 Y-63.828 Z-0.000 F300.000
G1 X-24.145 Y-59.930 Z-0.000 F300.000
G3 X-24.233 Y-59.440 Z-0.000 I-1.116 J0.053 K0.000 F300.000
G1 X-21.043 Y-56.250 Z-0.000 F300.000
G1 X-21.043 Y-51.774 Z-0.000 F300.000
G1 X-27.616 Y-58.347 Z-0.000 F300.000
G1 X-32.092 Y-58.347 Z-0.000 F300.000
G1 X-28.274 Y-54.529 Z-0.000 F300.000
G1 X-32.749 Y-54.529 Z0.000 F300.000
G1 X-36.568 Y-58.347 Z0.000 F300.000
G1 X-41.044 Y-58.347 Z0.000 F300.000
G1 X-37.225 Y-54.529 Z0.000 F300.000
G1 X-41.701 Y-54.529 Z0.000 F300.000
G1 X-43.417 Y-54.529 Z0.000 F300.000
G1 X-43.417 Y-56.245 Z0.000 F300.000
G1 X-41.701 Y-54.529 Z0.000 F300.000
G1 X-41.701 Y-54.529 Z-1.000 F120.000
G1 X-43.417 Y-56.245 Z-1.000 F300.000
G1 X-43.417 Y-54.529 Z-1.000 F300.000
G1 X-41.701 Y-54.529 Z-1.000 F300.000
G1 X-37.225 Y-54.529 Z-1.000 F300.000
G1 X-41.044 Y-58.347 Z-1.000 F300.000
G1 X-36.568 Y-58.347 Z-1.000 F300.000
G1 X-32.749 Y-54.529 Z-1.000 F300.000
G1 X-28.274 Y-54.529 Z-1.000 F300.000
G1 X-32.092 Y-58.347 Z-1.000 F300.000
G1 X-27.616 Y-58.347 Z-1.000 F300.000
G1 X-21.043 Y-51.774 Z-1.000 F300.000
G1 X-21.043 Y-56.250 Z-1.000 F300.000
G1 X-24.233 Y-59.440 Z-1.000 F300.000
G2 X-24.145 Y-59.930 Z-1.000 I-1.029 J-0.437 K0.000 F300.000
G1 X-24.145 Y-63.828 Z-1.000 F300.000
G1 X-21.043 Y-60.726 Z-1.000 F300.000
G1 X-21.043 Y-65.202 Z-1.000 F300.000
G1 X-21.043 Y-65.202 Z-1.000 F120.000
G1 X-24.145 Y-65.202 Z-1.000 F300.000
G1 X-24.145 Y-59.930 Z-1.000 F300.000
G3 X-25.728 Y-58.347 Z-1.000 I-1.582 J0.000 K0.000 F300.000
G1 X-43.417 Y-58.347 Z-1.000 F300.000
G1 X-43.417 Y-54.529 Z-1.000 F300.000
G1 X-25.728 Y-54.529 Z-1.000 F300.000
G3 X-24.145 Y-52.946 Z-1.000 I0.000 J1.582 K0.000 F300.000
G1 X-24.145 Y-47.674 Z-1.000 F300.000
G1 X-21.043 Y-47.674 Z-1.000 F300.000
G1 X-21.043 Y-65.202 Z-1.000 F300.000
G0 Z6.000
G0 X-24.145 Y-50.400 Z6.000
G0 X-24.145 Y-50.400 Z4.000
G1 X-24.145 Y-50.400 Z-1.000 F120.000
G1 X-24.145 Y-47.674 Z-1.000 F300.000
G1 X-21.419 Y-47.674 Z-1.000 F300.000
G1 X-24.145 Y-50.400 Z-1.000 F300.000
G1 X-24.145 Y-50.400 Z-2.000 F120.000
G1 X-24.145 Y-47.674 Z-2.000 F300.000
G1 X-21.419 Y-47.674 Z-2.000 F300.000
G1 X-24.145 Y-50.400 Z-2.000 F300.000
G1 X-24.145 Y-50.400 Z-2.000 F120.000
G1 X-24.145 Y-47.674 Z-2.000 F300.000
G1 X-21.043 Y-47.674 Z-2.000 F300.000
G1 X-21.043 Y-65.202 Z-2.000 F300.000
G1 X-24.145 Y-65.202 Z-2.000 F300.000
G1 X-24.145 Y-59.930 Z-2.000 F300.000
G3 X-25.728 Y-58.347 Z-2.000 I-1.582 J0.000 K0.000 F300.000
G1 X-43.417 Y-58.347 Z-2.000 F300.000
G1 X-43.417 Y-54.529 Z-2.000 F300.000
G1 X-25.728 Y-54.529 Z-2.000 F300.000
G3 X-24.145 Y-52.946 Z-2.000 I0.000 J1.582 K0.000 F300.000
G1 X-24.145 Y-50.400 Z-2.000 F300.000
G0 Z6.000
G0 X-21.043 Y-65.202 Z6.000
G0 X-21.043 Y-65.202 Z4.000
G1 X-21.043 Y-65.202 Z-2.000 F120.000
G1 X-21.043 Y-60.726 Z-2.000 F300.000
G1 X-24.145 Y-63.828 Z-2.000 F300.000
G1 X-24.145 Y-59.930 Z-2.000 F300.000
G3 X-24.233 Y-59.440 Z-2.000 I-1.116 J0.053 K0.000 F300.000
G1 X-21.043 Y-56.250 Z-2.000 F300.000
G1 X-21.043 Y-51.774 Z-2.000 F300.000
G1 X-27.616 Y-58.347 Z-2.000 F300.000
G1 X-32.092 Y-58.347 Z-2.000 F300.000
G1 X-28.274 Y-54.529 Z-2.000 F300.000
G1 X-32.749 Y-54.529 Z-2.000 F300.000
G1 X-36.568 Y-58.347 Z-2.000 F300.000
G1 X-41.044 Y-58.347 Z-2.000 F300.000
G1 X-37.225 Y-54.529 Z-2.000 F300.000
G1 X-41.701 Y-54.529 Z-2.000 F300.000
G1 X-43.417 Y-54.529 Z-2.000 F300.000
G1 X-43.417 Y-56.245 Z-2.000 F300.000
G1 X-41.701 Y-54.529 Z-2.000 F300.000
G1 X-41.701 Y-54.529 Z-3.000 F120.000
G1 X-43.417 Y-56.245 Z-3.000 F300.000
G1 X-43.417 Y-54.529 Z-3.000 F300.000
G1 X-41.701 Y-54.529 Z-3.000 F300.000
G1 X-37.225 Y-54.529 Z-3.000 F300.000
G1 X-41.044 Y-58.347 Z-3.000 F300.000
G1 X-36.568 Y-58.347 Z-3.000 F300.000
G1 X-32.749 Y-54.529 Z-3.000 F300.000
G1 X-28.274 Y-54.529 Z-3.000 F300.000
G1 X-32.092 Y-58.347 Z-3.000 F300.000
G1 X-27.616 Y-58.347 Z-3.000 F300.000
G1 X-21.043 Y-51.774 Z-3.000 F300.000
G1 X-21.043 Y-56.250 Z-3.000 F300.000
G1 X-24.233 Y-59.440 Z-3.000 F300.000
G2 X-24.145 Y-59.930 Z-3.000 I-1.029 J-0.437 K0.000 F300.000
G1 X-24.145 Y-63.828 Z-3.000 F300.000
G1 X-21.043 Y-60.726 Z-3.000 F300.000
G1 X-21.043 Y-65.202 Z-3.000 F300.000
G1 X-21.043 Y-65.202 Z-3.000 F120.000
G1 X-24.145 Y-65.202 Z-3.000 F300.000
G1 X-24.145 Y-59.930 Z-3.000 F300.000
G3 X-25.728 Y-58.347 Z-3.000 I-1.582 J0.000 K0.000 F300.000
G1 X-43.417 Y-58.347 Z-3.000 F300.000
G1 X-43.417 Y-54.529 Z-3.000 F300.000
G1 X-25.728 Y-54.529 Z-3.000 F300.000
G3 X-24.145 Y-52.946 Z-3.000 I0.000 J1.582 K0.000 F300.000
G1 X-24.145 Y-47.674 Z-3.000 F300.000
G1 X-21.043 Y-47.674 Z-3.000 F300.000
G1 X-21.043 Y-65.202 Z-3.000 F300.000
G0 Z6.000
G0 X-24.145 Y-50.400 Z6.000
G0 X-24.145 Y-50.400 Z4.000
G1 X-24.145 Y-50.400 Z-3.000 F120.000
G1 X-24.145 Y-47.674 Z-3.000 F300.000
G1 X-21.419 Y-47.674 Z-3.000 F300.000
G1 X-24.145 Y-50.400 Z-3.000 F300.000
G1 X-24.145 Y-50.400 Z-3.100 F120.000
G1 X-24.145 Y-47.674 Z-3.100 F300.000
G1 X-21.419 Y-47.674 Z-3.100 F300.000
G1 X-24.145 Y-50.400 Z-3.100 F300.000
G1 X-24.145 Y-50.400 Z-3.100 F120.000
G1 X-24.145 Y-47.674 Z-3.100 F300.000
G1 X-21.043 Y-47.674 Z-3.100 F300.000
G1 X-21.043 Y-65.202 Z-3.100 F300.000
G1 X-24.145 Y-65.202 Z-3.100 F300.000
G1 X-24.145 Y-59.930 Z-3.100 F300.000
G3 X-25.728 Y-58.347 Z-3.100 I-1.582 J0.000 K0.000 F300.000
G1 X-43.417 Y-58.347 Z-3.100 F300.000
G1 X-43.417 Y-54.529 Z-3.100 F300.000
G1 X-25.728 Y-54.529 Z-3.100 F300.000
G3 X-24.145 Y-52.946 Z-3.100 I0.000 J1.582 K0.000 F300.000
G1 X-24.145 Y-50.400 Z-3.100 F300.000
G0 Z6.000
G0 X-21.043 Y-65.202 Z6.000
G0 X-21.043 Y-65.202 Z4.000
G1 X-21.043 Y-65.202 Z-3.100 F120.000
G1 X-21.043 Y-60.726 Z-3.100 F300.000
G1 X-24.145 Y-63.828 Z-3.100 F300.000
G1 X-24.145 Y-59.930 Z-3.100 F300.000
G3 X-24.233 Y-59.440 Z-3.100 I-1.116 J0.053 K0.000 F300.000
G1 X-21.043 Y-56.250 Z-3.100 F300.000
G1 X-21.043 Y-51.774 Z-3.100 F300.000
G1 X-27.616 Y-58.347 Z-3.100 F300.000
G1 X-32.092 Y-58.347 Z-3.100 F300.000
G1 X-28.274 Y-54.529 Z-3.100 F300.000
G1 X-32.749 Y-54.529 Z-3.100 F300.000
G1 X-36.568 Y-58.347 Z-3.100 F300.000
G1 X-41.044 Y-58.347 Z-3.100 F300.000
G1 X-37.225 Y-54.529 Z-3.100 F300.000
G1 X-41.701 Y-54.529 Z-3.100 F300.000
G1 X-43.417 Y-54.529 Z-3.100 F300.000
G1 X-43.417 Y-56.245 Z-3.100 F300.000
G1 X-41.701 Y-54.529 Z-3.100 F300.000
G0 Z6.000
G0 Z6.000
(Finish operation: SELECT_Pocket_Shape)
(Begin postamble)
M5
G17 G90
M2
