(Exported by FreeCAD)
(Post Processor: grbl_post)
(Output Time:2022-05-18 21:32:49.883084)
(Begin preamble)
G17 G90
G21
(Begin operation: Fixture)
(Path: Fixture)
G54
(Finish operation: Fixture)
(Begin operation: TC: endmill_FC1D318)
(Path: TC: endmill_FC1D318)
(TC: endmill_FC1D318)
(Begin toolchange)
( M6 T1.0 )
M3 S10000.0
(Finish operation: TC: endmill_FC1D318)
(Begin operation: RampEntryDressup001)
(Path: RampEntryDressup001)
G0 X0.000 Y0.000 Z6.000
G0 X3.122 Y3.122 Z6.000
G0 X3.122 Y3.122 Z4.000
G1 X3.508 Y2.669 Z3.911 F1200.000
G1 X3.832 Y2.173 Z3.806 F1200.000
G1 X4.088 Y1.641 Z3.687 F1200.000
G1 X4.272 Y1.083 Z3.556 F1200.000
G1 X4.380 Y0.508 Z3.414 F1200.000
G1 X4.412 Y-0.074 Z3.265 F1200.000
G1 X4.366 Y-0.654 Z3.111 F1200.000
G1 X4.242 Y-1.222 Z2.954 F1200.000
G1 X4.045 Y-1.769 Z2.797 F1200.000
G1 X3.775 Y-2.284 Z2.643 F1200.000
G1 X3.439 Y-2.761 Z2.494 F1200.000
G1 X3.041 Y-3.190 Z2.352 F1200.000
G1 X2.589 Y-3.565 Z2.221 F1200.000
G1 X2.089 Y-3.878 Z2.102 F1200.000
G1 X1.551 Y-4.126 Z1.997 F1200.000
G1 X0.982 Y-4.304 Z1.908 F1200.000
G1 X0.396 Y-4.369 Z1.885 F1200.000
G1 X-0.192 Y-4.364 Z1.837 F1200.000
G1 X-0.773 Y-4.289 Z1.767 F1200.000
G1 X-1.338 Y-4.144 Z1.673 F1200.000
G1 X-1.877 Y-3.933 Z1.560 F1200.000
G1 X-2.383 Y-3.658 Z1.427 F1200.000
G1 X-2.846 Y-3.324 Z1.277 F1200.000
G1 X-3.260 Y-2.936 Z1.113 F1200.000
G1 X-3.618 Y-2.501 Z0.937 F1200.000
G1 X-3.914 Y-2.025 Z0.752 F1200.000
G1 X-4.144 Y-1.516 Z0.561 F1200.000
G1 X-4.304 Y-0.982 Z0.367 F1200.000
G1 X-4.392 Y-0.432 Z0.173 F1200.000
G1 X-4.405 Y0.126 Z-0.018 F1200.000
G1 X-4.345 Y0.684 Z-0.203 F1200.000
G1 X-4.211 Y1.231 Z-0.379 F1200.000
G1 X-4.006 Y1.760 Z-0.543 F1200.000
G1 X-3.734 Y2.262 Z-0.693 F1200.000
G1 X-3.398 Y2.729 Z-0.826 F1200.000
G1 X-3.004 Y3.153 Z-0.939 F1200.000
G1 X-2.558 Y3.528 Z-1.032 F1200.000
G1 X-2.067 Y3.849 Z-1.103 F1200.000
G1 X-1.539 Y4.109 Z-1.151 F1200.000
G1 X-0.982 Y4.304 Z-1.174 F1200.000
G1 X-0.431 Y4.393 Z-1.291 F1200.000
G1 X0.126 Y4.413 Z-1.414 F1200.000
G1 X0.679 Y4.362 Z-1.541 F1200.000
G1 X1.222 Y4.242 Z-1.670 F1200.000
G1 X1.746 Y4.055 Z-1.798 F1200.000
G1 X2.241 Y3.803 Z-1.925 F1200.000
G1 X2.703 Y3.491 Z-2.048 F1200.000
G1 X3.122 Y3.122 Z-2.165 F1200.000
G1 X3.509 Y2.677 Z-2.210 F1200.000
G1 X3.833 Y2.185 Z-2.263 F1200.000
G1 X4.090 Y1.655 Z-2.324 F1200.000
G1 X4.274 Y1.097 Z-2.391 F1200.000
G1 X4.383 Y0.520 Z-2.464 F1200.000
G1 X4.414 Y-0.065 Z-2.541 F1200.000
G1 X4.367 Y-0.650 Z-2.621 F1200.000
G1 X4.242 Y-1.222 Z-2.702 F1200.000
G1 X4.043 Y-1.773 Z-2.783 F1200.000
G1 X3.772 Y-2.293 Z-2.863 F1200.000
G1 X3.434 Y-2.772 Z-2.940 F1200.000
G1 X3.035 Y-3.203 Z-3.013 F1200.000
G1 X2.582 Y-3.578 Z-3.080 F1200.000
G1 X2.083 Y-3.889 Z-3.141 F1200.000
G1 X1.547 Y-4.133 Z-3.194 F1200.000
G1 X0.982 Y-4.304 Z-3.239 F1200.000
G1 X0.408 Y-4.388 Z-3.247 F1200.000
G1 X-0.173 Y-4.398 Z-3.268 F1200.000
G1 X-0.749 Y-4.334 Z-3.303 F1200.000
G1 X-1.312 Y-4.198 Z-3.349 F1200.000
G1 X-1.851 Y-3.990 Z-3.407 F1200.000
G1 X-2.358 Y-3.715 Z-3.475 F1200.000
G1 X-2.825 Y-3.378 Z-3.552 F1200.000
G1 X-3.243 Y-2.984 Z-3.638 F1200.000
G1 X-3.606 Y-2.540 Z-3.730 F1200.000
G1 X-3.906 Y-2.052 Z-3.827 F1200.000
G1 X-4.141 Y-1.530 Z-3.928 F1200.000
G1 X-4.304 Y-0.982 Z-4.030 F1200.000
G1 X-4.395 Y-0.418 Z-4.132 F1200.000
G1 X-4.410 Y0.154 Z-4.233 F1200.000
G1 X-4.350 Y0.724 Z-4.330 F1200.000
G1 X-4.217 Y1.281 Z-4.422 F1200.000
G1 X-4.011 Y1.818 Z-4.508 F1200.000
G1 X-3.737 Y2.324 Z-4.585 F1200.000
G1 X-3.399 Y2.792 Z-4.653 F1200.000
G1 X-3.003 Y3.213 Z-4.711 F1200.000
G1 X-2.556 Y3.580 Z-4.758 F1200.000
G1 X-2.064 Y3.888 Z-4.792 F1200.000
G1 X-1.537 Y4.131 Z-4.813 F1200.000
G1 X-0.982 Y4.304 Z-4.821 F1200.000
G1 X-0.432 Y4.394 Z-4.881 F1200.000
G1 X0.124 Y4.413 Z-4.944 F1200.000
G1 X0.679 Y4.362 Z-5.010 F1200.000
G1 X1.222 Y4.242 Z-5.076 F1200.000
G1 X1.746 Y4.055 Z-5.142 F1200.000
G1 X2.243 Y3.803 Z-5.207 F1200.000
G1 X2.704 Y3.490 Z-5.270 F1200.000
G1 X3.122 Y3.122 Z-5.330 F1200.000
G1 X3.509 Y2.677 Z-5.375 F1200.000
G1 X3.833 Y2.185 Z-5.428 F1200.000
G1 X4.090 Y1.655 Z-5.489 F1200.000
G1 X4.274 Y1.097 Z-5.556 F1200.000
G1 X4.383 Y0.520 Z-5.629 F1200.000
G1 X4.414 Y-0.065 Z-5.706 F1200.000
G1 X4.367 Y-0.650 Z-5.786 F1200.000
G1 X4.242 Y-1.222 Z-5.867 F1200.000
G1 X4.043 Y-1.773 Z-5.948 F1200.000
G1 X3.772 Y-2.293 Z-6.028 F1200.000
G1 X3.434 Y-2.772 Z-6.105 F1200.000
G1 X3.035 Y-3.203 Z-6.178 F1200.000
G1 X2.582 Y-3.578 Z-6.245 F1200.000
G1 X2.083 Y-3.889 Z-6.306 F1200.000
G1 X1.547 Y-4.133 Z-6.359 F1200.000
G1 X0.982 Y-4.304 Z-6.404 F1200.000
G1 X0.408 Y-4.388 Z-6.412 F1200.000
G1 X-0.173 Y-4.398 Z-6.433 F1200.000
G1 X-0.749 Y-4.334 Z-6.468 F1200.000
G1 X-1.312 Y-4.198 Z-6.514 F1200.000
G1 X-1.851 Y-3.990 Z-6.572 F1200.000
G1 X-2.358 Y-3.715 Z-6.640 F1200.000
G1 X-2.825 Y-3.378 Z-6.717 F1200.000
G1 X-3.243 Y-2.984 Z-6.803 F1200.000
G1 X-3.606 Y-2.540 Z-6.895 F1200.000
G1 X-3.906 Y-2.052 Z-6.992 F1200.000
G1 X-4.141 Y-1.530 Z-7.093 F1200.000
G1 X-4.304 Y-0.982 Z-7.195 F1200.000
G1 X-4.395 Y-0.418 Z-7.297 F1200.000
G1 X-4.410 Y0.154 Z-7.398 F1200.000
G1 X-4.350 Y0.724 Z-7.495 F1200.000
G1 X-4.217 Y1.281 Z-7.587 F1200.000
G1 X-4.011 Y1.818 Z-7.673 F1200.000
G1 X-3.737 Y2.324 Z-7.750 F1200.000
G1 X-3.399 Y2.792 Z-7.818 F1200.000
G1 X-3.003 Y3.213 Z-7.876 F1200.000
G1 X-2.556 Y3.580 Z-7.923 F1200.000
G1 X-2.064 Y3.888 Z-7.957 F1200.000
G1 X-1.537 Y4.131 Z-7.978 F1200.000
G1 X-0.982 Y4.304 Z-7.986 F1200.000
G1 X-0.432 Y4.394 Z-8.046 F1200.000
G1 X0.124 Y4.413 Z-8.109 F1200.000
G1 X0.679 Y4.362 Z-8.175 F1200.000
G1 X1.222 Y4.242 Z-8.241 F1200.000
G1 X1.746 Y4.055 Z-8.307 F1200.000
G1 X2.243 Y3.803 Z-8.372 F1200.000
G1 X2.704 Y3.490 Z-8.435 F1200.000
G1 X3.122 Y3.122 Z-8.495 F1200.000
G1 X3.509 Y2.679 Z-8.516 F1200.000
G1 X3.834 Y2.189 Z-8.541 F1200.000
G1 X4.091 Y1.660 Z-8.570 F1200.000
G1 X4.275 Y1.102 Z-8.602 F1200.000
G1 X4.383 Y0.524 Z-8.637 F1200.000
G1 X4.414 Y-0.063 Z-8.674 F1200.000
G1 X4.367 Y-0.648 Z-8.712 F1200.000
G1 X4.242 Y-1.222 Z-8.750 F1200.000
G1 X4.043 Y-1.775 Z-8.789 F1200.000
G1 X3.771 Y-2.296 Z-8.827 F1200.000
G1 X3.433 Y-2.776 Z-8.864 F1200.000
G1 X3.034 Y-3.207 Z-8.898 F1200.000
G1 X2.581 Y-3.582 Z-8.931 F1200.000
G1 X2.082 Y-3.893 Z-8.959 F1200.000
G1 X1.546 Y-4.135 Z-8.985 F1200.000
G1 X0.982 Y-4.304 Z-9.006 F1200.000
G1 X0.411 Y-4.394 Z-9.009 F1200.000
G1 X-0.167 Y-4.409 Z-9.019 F1200.000
G1 X-0.742 Y-4.348 Z-9.035 F1200.000
G1 X-1.304 Y-4.214 Z-9.056 F1200.000
G1 X-1.843 Y-4.008 Z-9.084 F1200.000
G1 X-2.351 Y-3.733 Z-9.116 F1200.000
G1 X-2.819 Y-3.395 Z-9.153 F1200.000
G1 X-3.238 Y-2.999 Z-9.194 F1200.000
G1 X-3.602 Y-2.551 Z-9.238 F1200.000
G1 X-3.904 Y-2.061 Z-9.285 F1200.000
G1 X-4.140 Y-1.535 Z-9.333 F1200.000
G1 X-4.304 Y-0.982 Z-9.382 F1200.000
G1 X-4.395 Y-0.413 Z-9.431 F1200.000
G1 X-4.411 Y0.163 Z-9.479 F1200.000
G1 X-4.352 Y0.736 Z-9.526 F1200.000
G1 X-4.218 Y1.297 Z-9.570 F1200.000
G1 X-4.012 Y1.836 Z-9.610 F1200.000
G1 X-3.738 Y2.343 Z-9.647 F1200.000
G1 X-3.400 Y2.811 Z-9.680 F1200.000
G1 X-3.003 Y3.231 Z-9.707 F1200.000
G1 X-2.555 Y3.596 Z-9.729 F1200.000
G1 X-2.063 Y3.900 Z-9.745 F1200.000
G1 X-1.536 Y4.137 Z-9.755 F1200.000
G1 X-0.982 Y4.304 Z-9.758 F1200.000
G1 X-0.433 Y4.394 Z-9.787 F1200.000
G1 X0.124 Y4.413 Z-9.817 F1200.000
G1 X0.678 Y4.363 Z-9.848 F1200.000
G1 X1.222 Y4.242 Z-9.879 F1200.000
G1 X1.747 Y4.055 Z-9.911 F1200.000
G1 X2.243 Y3.803 Z-9.942 F1200.000
G1 X2.704 Y3.490 Z-9.971 F1200.000
G1 X3.122 Y3.122 Z-10.000 F1200.000
G2 X0.982 Y-4.304 Z-10.000 I-3.122 J-3.122 K0.000 F1200.000
G2 X-0.982 Y4.304 Z-10.000 I-0.982 J4.304 K0.000 F1200.000
G2 X3.122 Y3.122 Z-10.000 I0.982 J-4.304 K0.000 F1200.000
G0 X3.122 Y3.122 Z6.000
(Finish operation: RampEntryDressup001)
(Begin operation: SELECT_Pocket_Shape)
(Path: SELECT_Pocket_Shape)
(SELECT_Pocket_Shape)
G0 Z6.000
G0 X-17.529 Y-1.950
G0 Z4.000
G1 X-17.529 Y-1.950 Z-2.165 F600.000
G1 X-17.529 Y-20.319 Z-2.165 F1200.000
G1 X-22.392 Y-20.319 Z-2.165 F1200.000
G1 X-22.392 Y-9.601 Z-2.165 F1200.000
G3 X-23.975 Y-8.018 Z-2.165 I-1.583 J-0.000 K0.000 F1200.000
G1 X-28.967 Y-8.018 Z-2.165 F1200.000
G3 X-30.550 Y-9.601 Z-2.165 I-0.000 J-1.582 K0.000 F1200.000
G1 X-30.550 Y-19.083 Z-2.165 F1200.000
G1 X-34.990 Y-19.083 Z-2.165 F1200.000
G1 X-34.990 Y-9.601 Z-2.165 F1200.000
G3 X-36.573 Y-8.018 Z-2.165 I-1.582 J0.000 K0.000 F1200.000
G1 X-41.972 Y-8.018 Z-2.165 F1200.000
G3 X-43.554 Y-9.601 Z-2.165 I0.000 J-1.583 K0.000 F1200.000
G1 X-43.554 Y-20.726 Z-2.165 F1200.000
G1 X-48.417 Y-20.726 Z-2.165 F1200.000
G1 X-48.417 Y-1.950 Z-2.165 F1200.000
G1 X-17.529 Y-1.950 Z-2.165 F1200.000
G0 Z6.000
G0 X-34.969 Z6.000
G0 X-34.969 Z4.000
G1 X-34.969 Y-1.950 Z-2.165 F600.000
G1 X-41.037 Y-8.018 Z-2.165 F1200.000
G1 X-36.573 Y-8.018 Z-2.165 F1200.000
G1 X-36.562 Y-8.020 Z-2.165 F1200.000
G1 X-30.493 Y-1.950 Z-2.165 F1200.000
G1 X-26.017 Y-1.950 Z-2.165 F1200.000
G1 X-34.990 Y-10.924 Z-2.165 F1200.000
G1 X-34.990 Y-15.400 Z-2.165 F1200.000
G1 X-30.550 Y-10.959 Z-2.165 F1200.000
G1 X-30.550 Y-9.601 Z-2.165 F1200.000
G2 X-28.967 Y-8.018 Z-2.165 I1.583 J0.000 K0.000 F1200.000
G1 X-27.609 Y-8.018 Z-2.165 F1200.000
G1 X-21.541 Y-1.950 Z-2.165 F1200.000
G1 X-17.529 Y-1.950 Z-2.165 F1200.000
G1 X-17.529 Y-2.415 Z-2.165 F1200.000
G1 X-23.289 Y-8.175 Z-2.165 F1200.000
G2 X-22.392 Y-9.601 Z-2.165 I-0.685 J-1.426 K0.000 F1200.000
G1 X-22.392 Y-11.754 Z-2.165 F1200.000
G1 X-17.529 Y-6.891 Z-2.165 F1200.000
G1 X-17.529 Y-11.367 Z-2.165 F1200.000
G1 X-22.392 Y-16.230 Z-2.165 F1200.000
G1 X-22.392 Y-20.319 Z-2.165 F1200.000
G1 X-22.005 Y-20.319 Z-2.165 F1200.000
G1 X-17.529 Y-15.843 Z-2.165 F1200.000
G1 X-17.529 Y-20.319 Z-2.165 F1200.000
G0 Z6.000
G0 X-30.550 Y-15.435 Z6.000
G0 X-30.550 Y-15.435 Z4.000
G1 X-30.550 Y-15.435 Z-2.165 F600.000
G1 X-30.550 Y-19.083 Z-2.165 F1200.000
G1 X-34.197 Y-19.083 Z-2.165 F1200.000
G1 X-30.550 Y-15.435 Z-2.165 F1200.000
G1 X-30.550 Y-10.959 Z-2.165 F1200.000
G1 X-34.990 Y-15.400 Z-2.165 F1200.000
G0 Z6.000
G0 X-43.554 Y-19.488 Z6.000
G0 X-43.554 Y-19.488 Z4.000
G1 X-43.554 Y-19.488 Z-2.165 F600.000
G1 X-43.554 Y-20.726 Z-2.165 F1200.000
G1 X-44.792 Y-20.726 Z-2.165 F1200.000
G1 X-43.554 Y-19.488 Z-2.165 F1200.000
G1 X-43.554 Y-15.012 Z-2.165 F1200.000
G1 X-48.417 Y-19.875 Z-2.165 F1200.000
G1 X-48.417 Y-15.399 Z-2.165 F1200.000
G1 X-43.554 Y-10.536 Z-2.165 F1200.000
G2 X-43.515 Y-9.249 Z-2.165 I5.732 J0.468 K0.000 F1200.000
G2 X-41.972 Y-8.018 Z-2.165 I1.543 J-0.352 K0.000 F1200.000
G1 X-41.037 Y-8.018 Z-2.165 F1200.000
G1 X-34.969 Y-1.950 Z-2.165 F1200.000
G1 X-39.445 Y-1.950 Z-2.165 F1200.000
G1 X-48.417 Y-10.923 Z-2.165 F1200.000
G1 X-48.417 Y-6.447 Z-2.165 F1200.000
G1 X-43.921 Y-1.950 Z-2.165 F1200.000
G1 X-48.396 Y-1.950 Z-2.165 F1200.000
G1 X-48.417 Y-1.971 Z-2.165 F1200.000
G2 X-48.396 Y-1.950 Z-2.165 I0.011 J0.011 K0.000 F1200.000
G1 X-48.396 Y-1.950 Z-3.000 F600.000
G3 X-48.417 Y-1.971 Z-3.000 I-0.011 J-0.011 K0.000 F1200.000
G1 X-48.396 Y-1.950 Z-3.000 F1200.000
G1 X-43.921 Y-1.950 Z-3.000 F1200.000
G1 X-48.417 Y-6.447 Z-3.000 F1200.000
G1 X-48.417 Y-10.923 Z-3.000 F1200.000
G1 X-39.445 Y-1.950 Z-3.000 F1200.000
G1 X-34.969 Y-1.950 Z-3.000 F1200.000
G1 X-41.037 Y-8.018 Z-3.000 F1200.000
G1 X-41.972 Y-8.018 Z-3.000 F1200.000
G3 X-43.515 Y-9.249 Z-3.000 I-0.000 J-1.582 K0.000 F1200.000
G3 X-43.554 Y-10.536 Z-3.000 I5.693 J-0.820 K0.000 F1200.000
G1 X-48.417 Y-15.399 Z-3.000 F1200.000
G1 X-48.417 Y-19.875 Z-3.000 F1200.000
G1 X-43.554 Y-15.012 Z-3.000 F1200.000
G1 X-43.554 Y-19.488 Z-3.000 F1200.000
G1 X-44.792 Y-20.726 Z-3.000 F1200.000
G1 X-43.554 Y-20.726 Z-3.000 F1200.000
G1 X-43.554 Y-19.488 Z-3.000 F1200.000
G0 Z6.000
G0 X-43.554 Z6.000
G0 X-43.554 Z4.000
G1 X-43.554 Y-19.488 Z-3.000 F600.000
G1 X-43.554 Y-20.726 Z-3.000 F1200.000
G1 X-48.417 Y-20.726 Z-3.000 F1200.000
G1 X-48.417 Y-1.950 Z-3.000 F1200.000
G1 X-17.529 Y-1.950 Z-3.000 F1200.000
G1 X-17.529 Y-20.319 Z-3.000 F1200.000
G1 X-22.392 Y-20.319 Z-3.000 F1200.000
G1 X-22.392 Y-9.601 Z-3.000 F1200.000
G3 X-23.975 Y-8.018 Z-3.000 I-1.583 J-0.000 K0.000 F1200.000
G1 X-28.967 Y-8.018 Z-3.000 F1200.000
G3 X-30.550 Y-9.601 Z-3.000 I-0.000 J-1.582 K0.000 F1200.000
G1 X-30.550 Y-19.083 Z-3.000 F1200.000
G1 X-34.990 Y-19.083 Z-3.000 F1200.000
G1 X-34.990 Y-9.601 Z-3.000 F1200.000
G3 X-36.573 Y-8.018 Z-3.000 I-1.582 J0.000 K0.000 F1200.000
G1 X-41.972 Y-8.018 Z-3.000 F1200.000
G3 X-43.554 Y-9.601 Z-3.000 I0.000 J-1.583 K0.000 F1200.000
G1 X-43.554 Y-19.488 Z-3.000 F1200.000
G0 Z6.000
G0 X-34.990 Y-15.400 Z6.000
G0 X-34.990 Y-15.400 Z4.000
G1 X-34.990 Y-15.400 Z-3.000 F600.000
G1 X-30.550 Y-10.959 Z-3.000 F1200.000
G1 X-30.550 Y-15.435 Z-3.000 F1200.000
G1 X-34.197 Y-19.083 Z-3.000 F1200.000
G1 X-30.550 Y-19.083 Z-3.000 F1200.000
G1 X-30.550 Y-15.435 Z-3.000 F1200.000
G0 Z6.000
G0 X-17.529 Y-20.319 Z6.000
G0 X-17.529 Y-20.319 Z4.000
G1 X-17.529 Y-20.319 Z-3.000 F600.000
G1 X-17.529 Y-15.843 Z-3.000 F1200.000
G1 X-22.005 Y-20.319 Z-3.000 F1200.000
G1 X-22.392 Y-20.319 Z-3.000 F1200.000
G1 X-22.392 Y-16.230 Z-3.000 F1200.000
G1 X-17.529 Y-11.367 Z-3.000 F1200.000
G1 X-17.529 Y-6.891 Z-3.000 F1200.000
G1 X-22.392 Y-11.754 Z-3.000 F1200.000
G1 X-22.392 Y-9.601 Z-3.000 F1200.000
G3 X-23.289 Y-8.175 Z-3.000 I-1.582 J0.000 K0.000 F1200.000
G1 X-17.529 Y-2.415 Z-3.000 F1200.000
G1 X-17.529 Y-1.950 Z-3.000 F1200.000
G1 X-21.541 Y-1.950 Z-3.000 F1200.000
G1 X-27.609 Y-8.018 Z-3.000 F1200.000
G1 X-28.967 Y-8.018 Z-3.000 F1200.000
G3 X-30.550 Y-9.601 Z-3.000 I-0.000 J-1.583 K0.000 F1200.000
G1 X-30.550 Y-10.959 Z-3.000 F1200.000
G1 X-34.990 Y-15.400 Z-3.000 F1200.000
G1 X-34.990 Y-10.924 Z-3.000 F1200.000
G1 X-26.017 Y-1.950 Z-3.000 F1200.000
G1 X-30.493 Y-1.950 Z-3.000 F1200.000
G1 X-36.562 Y-8.020 Z-3.000 F1200.000
G1 X-36.573 Y-8.018 Z-3.000 F1200.000
G1 X-41.037 Y-8.018 Z-3.000 F1200.000
G1 X-34.969 Y-1.950 Z-3.000 F1200.000
G0 Z6.000
G0 Z6.000
G0 X-34.969 Y-1.950
G0 X-43.100 Y4.877
G0 X-43.100 Y4.877 Z4.000
G1 X-43.100 Y4.877 Z-2.165 F600.000
G1 X-48.417 Y4.877 Z-2.165 F1200.000
G1 X-48.417 Y23.089 Z-2.165 F1200.000
G1 X-17.529 Y23.089 Z-2.165 F1200.000
G1 X-17.529 Y16.849 Z-2.165 F1200.000
G1 X-41.518 Y16.849 Z-2.165 F1200.000
G3 X-43.100 Y15.266 Z-2.165 I0.000 J-1.583 K0.000 F1200.000
G1 X-43.100 Y4.877 Z-2.165 F1200.000
G0 Z6.000
G0 X-44.077 Z6.000
G0 X-44.077 Z4.000
G1 X-44.077 Y4.877 Z-2.165 F600.000
G1 X-48.417 Y9.217 Z-2.165 F1200.000
G1 X-48.417 Y4.877 Z-2.165 F1200.000
G1 X-44.077 Y4.877 Z-2.165 F1200.000
G1 X-43.100 Y4.877 Z-2.165 F1200.000
G1 X-43.100 Y8.376 Z-2.165 F1200.000
G1 X-48.417 Y13.693 Z-2.165 F1200.000
G1 X-48.417 Y18.169 Z-2.165 F1200.000
G1 X-43.100 Y12.852 Z-2.165 F1200.000
G1 X-43.100 Y15.266 Z-2.165 F1200.000
G2 X-42.364 Y16.592 Z-2.165 I1.546 J0.008 K0.000 F1200.000
G1 X-48.417 Y22.645 Z-2.165 F1200.000
G1 X-48.417 Y23.089 Z-2.165 F1200.000
G1 X-44.385 Y23.089 Z-2.165 F1200.000
G1 X-38.145 Y16.849 Z-2.165 F1200.000
G1 X-33.669 Y16.849 Z-2.165 F1200.000
G1 X-39.909 Y23.089 Z-2.165 F1200.000
G1 X-35.433 Y23.089 Z-2.165 F1200.000
G1 X-29.193 Y16.849 Z-2.165 F1200.000
G1 X-24.717 Y16.849 Z-2.165 F1200.000
G1 X-30.957 Y23.089 Z-2.165 F1200.000
G1 X-26.481 Y23.089 Z-2.165 F1200.000
G1 X-20.241 Y16.849 Z-2.165 F1200.000
G1 X-17.529 Y16.849 Z-2.165 F1200.000
G1 X-17.529 Y18.613 Z-2.165 F1200.000
G1 X-22.005 Y23.089 Z-2.165 F1200.000
G1 X-17.529 Y23.089 Z-2.165 F1200.000
G1 X-17.529 Y23.089 Z-3.000 F600.000
G1 X-17.529 Y16.849 Z-3.000 F1200.000
G1 X-41.518 Y16.849 Z-3.000 F1200.000
G3 X-43.100 Y15.266 Z-3.000 I0.000 J-1.583 K0.000 F1200.000
G1 X-43.100 Y4.877 Z-3.000 F1200.000
G1 X-48.417 Y4.877 Z-3.000 F1200.000
G1 X-48.417 Y23.089 Z-3.000 F1200.000
G1 X-17.529 Y23.089 Z-3.000 F1200.000
G1 X-17.529 Y23.089 Z-3.000 F600.000
G1 X-22.005 Y23.089 Z-3.000 F1200.000
G1 X-17.529 Y18.613 Z-3.000 F1200.000
G1 X-17.529 Y16.849 Z-3.000 F1200.000
G1 X-20.241 Y16.849 Z-3.000 F1200.000
G1 X-26.481 Y23.089 Z-3.000 F1200.000
G1 X-30.957 Y23.089 Z-3.000 F1200.000
G1 X-24.717 Y16.849 Z-3.000 F1200.000
G1 X-29.193 Y16.849 Z-3.000 F1200.000
G1 X-35.433 Y23.089 Z-3.000 F1200.000
G1 X-39.909 Y23.089 Z-3.000 F1200.000
G1 X-33.669 Y16.849 Z-3.000 F1200.000
G1 X-38.145 Y16.849 Z-3.000 F1200.000
G1 X-44.385 Y23.089 Z-3.000 F1200.000
G1 X-48.417 Y23.089 Z-3.000 F1200.000
G1 X-48.417 Y22.645 Z-3.000 F1200.000
G1 X-42.364 Y16.592 Z-3.000 F1200.000
G3 X-43.100 Y15.266 Z-3.000 I0.810 J-1.317 K0.000 F1200.000
G1 X-43.100 Y12.852 Z-3.000 F1200.000
G1 X-48.417 Y18.169 Z-3.000 F1200.000
G1 X-48.417 Y13.693 Z-3.000 F1200.000
G1 X-43.100 Y8.376 Z-3.000 F1200.000
G1 X-43.100 Y4.877 Z-3.000 F1200.000
G1 X-44.077 Y4.877 Z-3.000 F1200.000
G1 X-48.417 Y4.877 Z-3.000 F1200.000
G1 X-48.417 Y9.217 Z-3.000 F1200.000
G1 X-44.077 Y4.877 Z-3.000 F1200.000
G0 Z6.000
G0 Z6.000
G0 X-44.077 Y4.877
G0 Y31.356
G0 Y31.356 Z4.000
G1 X-44.077 Y31.356 Z-2.165 F600.000
G1 X-48.417 Y31.356 Z-2.165 F1200.000
G1 X-48.417 Y50.131 Z-2.165 F1200.000
G1 X-17.529 Y50.131 Z-2.165 F1200.000
G1 X-17.529 Y31.762 Z-2.165 F1200.000
G1 X-22.392 Y31.762 Z-2.165 F1200.000
G1 X-22.392 Y42.480 Z-2.165 F1200.000
G3 X-23.975 Y44.063 Z-2.165 I-1.583 J-0.000 K0.000 F1200.000
G1 X-28.967 Y44.063 Z-2.165 F1200.000
G3 X-30.550 Y42.480 Z-2.165 I-0.000 J-1.582 K0.000 F1200.000
G1 X-30.550 Y32.999 Z-2.165 F1200.000
G1 X-34.990 Y32.999 Z-2.165 F1200.000
G1 X-34.990 Y42.480 Z-2.165 F1200.000
G3 X-36.573 Y44.063 Z-2.165 I-1.582 J0.000 K0.000 F1200.000
G1 X-41.972 Y44.063 Z-2.165 F1200.000
G3 X-43.554 Y42.480 Z-2.165 I0.000 J-1.583 K0.000 F1200.000
G1 X-43.554 Y31.356 Z-2.165 F1200.000
G1 X-44.077 Y31.356 Z-2.165 F1200.000
G0 Z6.000
G0 X-48.417 Y31.783 Z6.000
G0 X-48.417 Y31.783 Z4.000
G1 X-48.417 Y31.783 Z-2.165 F600.000
G1 X-47.990 Y31.356 Z-2.165 F1200.000
G1 X-48.417 Y31.356 Z-2.165 F1200.000
G1 X-48.417 Y31.783 Z-2.165 F1200.000
G1 X-48.417 Y36.259 Z-2.165 F1200.000
G1 X-43.554 Y31.396 Z-2.165 F1200.000
G1 X-43.554 Y35.872 Z-2.165 F1200.000
G1 X-48.417 Y40.735 Z-2.165 F1200.000
G1 X-48.417 Y45.211 Z-2.165 F1200.000
G1 X-43.554 Y40.348 Z-2.165 F1200.000
G1 X-43.554 Y42.480 Z-2.165 F1200.000
G2 X-42.642 Y43.912 Z-2.165 I1.575 J0.002 K0.000 F1200.000
G1 X-48.417 Y49.687 Z-2.165 F1200.000
G1 X-48.417 Y50.131 Z-2.165 F1200.000
G1 X-44.385 Y50.131 Z-2.165 F1200.000
G1 X-38.317 Y44.063 Z-2.165 F1200.000
G0 Z6.000
G0 X-34.990 Y36.260 Z6.000
G0 X-34.990 Y36.260 Z4.000
G1 X-34.990 Y36.260 Z-2.165 F600.000
G1 X-31.729 Y32.999 Z-2.165 F1200.000
G1 X-34.990 Y32.999 Z-2.165 F1200.000
G1 X-34.990 Y36.260 Z-2.165 F1200.000
G1 X-34.990 Y40.736 Z-2.165 F1200.000
G1 X-30.550 Y36.296 Z-2.165 F1200.000
G1 X-30.550 Y40.772 Z-2.165 F1200.000
G1 X-39.909 Y50.131 Z-2.165 F1200.000
G1 X-35.433 Y50.131 Z-2.165 F1200.000
G1 X-29.324 Y44.022 Z-2.165 F1200.000
G2 X-28.967 Y44.063 Z-2.165 I0.269 J-0.761 K0.000 F1200.000
G1 X-24.889 Y44.063 Z-2.165 F1200.000
G1 X-30.957 Y50.131 Z-2.165 F1200.000
G1 X-26.481 Y50.131 Z-2.165 F1200.000
G1 X-17.529 Y41.179 Z-2.165 F1200.000
G1 X-17.529 Y45.655 Z-2.165 F1200.000
G1 X-22.005 Y50.131 Z-2.165 F1200.000
G1 X-17.529 Y50.131 Z-2.165 F1200.000
G0 Z6.000
G0 X-22.392 Y41.566 Z6.000
G0 X-22.392 Y41.566 Z4.000
G1 X-22.392 Y41.566 Z-2.165 F600.000
G1 X-17.529 Y36.703 Z-2.165 F1200.000
G1 X-17.529 Y32.227 Z-2.165 F1200.000
G1 X-22.392 Y37.090 Z-2.165 F1200.000
G1 X-22.392 Y32.614 Z-2.165 F1200.000
G1 X-22.392 Y31.762 Z-2.165 F1200.000
G1 X-21.541 Y31.762 Z-2.165 F1200.000
G1 X-22.392 Y32.614 Z-2.165 F1200.000
G1 X-22.392 Y32.614 Z-3.000 F600.000
G1 X-21.541 Y31.762 Z-3.000 F1200.000
G1 X-22.392 Y31.762 Z-3.000 F1200.000
G1 X-22.392 Y32.614 Z-3.000 F1200.000
G1 X-22.392 Y37.090 Z-3.000 F1200.000
G1 X-17.529 Y32.227 Z-3.000 F1200.000
G1 X-17.529 Y36.703 Z-3.000 F1200.000
G1 X-22.392 Y41.566 Z-3.000 F1200.000
G1 X-22.392 Y41.566 Z-3.000 F600.000
G1 X-22.392 Y42.480 Z-3.000 F1200.000
G3 X-23.975 Y44.063 Z-3.000 I-1.583 J-0.000 K0.000 F1200.000
G1 X-28.967 Y44.063 Z-3.000 F1200.000
G3 X-30.550 Y42.480 Z-3.000 I-0.000 J-1.582 K0.000 F1200.000
G1 X-30.550 Y32.999 Z-3.000 F1200.000
G1 X-34.990 Y32.999 Z-3.000 F1200.000
G1 X-34.990 Y42.480 Z-3.000 F1200.000
G3 X-36.573 Y44.063 Z-3.000 I-1.582 J0.000 K0.000 F1200.000
G1 X-41.972 Y44.063 Z-3.000 F1200.000
G3 X-43.554 Y42.480 Z-3.000 I0.000 J-1.583 K0.000 F1200.000
G1 X-43.554 Y31.356 Z-3.000 F1200.000
G1 X-48.417 Y31.356 Z-3.000 F1200.000
G1 X-48.417 Y50.131 Z-3.000 F1200.000
G1 X-17.529 Y50.131 Z-3.000 F1200.000
G1 X-17.529 Y31.762 Z-3.000 F1200.000
G1 X-22.392 Y31.762 Z-3.000 F1200.000
G1 X-22.392 Y41.566 Z-3.000 F1200.000
G0 Z6.000
G0 X-17.529 Y50.131 Z6.000
G0 X-17.529 Y50.131 Z4.000
G1 X-17.529 Y50.131 Z-3.000 F600.000
G1 X-22.005 Y50.131 Z-3.000 F1200.000
G1 X-17.529 Y45.655 Z-3.000 F1200.000
G1 X-17.529 Y41.179 Z-3.000 F1200.000
G1 X-26.481 Y50.131 Z-3.000 F1200.000
G1 X-30.957 Y50.131 Z-3.000 F1200.000
G1 X-24.889 Y44.063 Z-3.000 F1200.000
G1 X-28.967 Y44.063 Z-3.000 F1200.000
G3 X-29.324 Y44.022 Z-3.000 I-0.088 J-0.802 K0.000 F1200.000
G1 X-35.433 Y50.131 Z-3.000 F1200.000
G1 X-39.909 Y50.131 Z-3.000 F1200.000
G1 X-30.550 Y40.772 Z-3.000 F1200.000
G1 X-30.550 Y36.296 Z-3.000 F1200.000
G1 X-34.990 Y40.736 Z-3.000 F1200.000
G1 X-34.990 Y36.260 Z-3.000 F1200.000
G1 X-34.990 Y32.999 Z-3.000 F1200.000
G1 X-31.729 Y32.999 Z-3.000 F1200.000
G1 X-34.990 Y36.260 Z-3.000 F1200.000
G0 Z6.000
G0 X-38.317 Y44.063 Z6.000
G0 X-38.317 Y44.063 Z4.000
G1 X-38.317 Y44.063 Z-3.000 F600.000
G1 X-44.385 Y50.131 Z-3.000 F1200.000
G1 X-48.417 Y50.131 Z-3.000 F1200.000
G1 X-48.417 Y49.687 Z-3.000 F1200.000
G1 X-42.642 Y43.912 Z-3.000 F1200.000
G3 X-43.554 Y42.480 Z-3.000 I0.663 J-1.429 K0.000 F1200.000
G1 X-43.554 Y40.348 Z-3.000 F1200.000
G1 X-48.417 Y45.211 Z-3.000 F1200.000
G1 X-48.417 Y40.735 Z-3.000 F1200.000
G1 X-43.554 Y35.872 Z-3.000 F1200.000
G1 X-43.554 Y31.396 Z-3.000 F1200.000
G1 X-48.417 Y36.259 Z-3.000 F1200.000
G1 X-48.417 Y31.783 Z-3.000 F1200.000
G1 X-48.417 Y31.356 Z-3.000 F1200.000
G1 X-47.990 Y31.356 Z-3.000 F1200.000
G1 X-48.417 Y31.783 Z-3.000 F1200.000
G0 Z6.000
G0 Z6.000
G0 X-48.417 Y31.783
G0 X-42.275 Y58.211
G0 X-42.275 Y58.211 Z4.000
G1 X-42.275 Y58.211 Z-2.165 F600.000
G2 X-46.804 Y60.998 Z-2.165 I1.895 J8.152 K0.000 F1200.000
G2 X-48.623 Y64.398 Z-2.165 I7.963 J6.447 K0.000 F1200.000
G2 X-48.802 Y74.594 Z-2.165 I18.035 J5.416 K0.000 F1200.000
G2 X-46.415 Y78.973 Z-2.165 I10.048 J-2.638 K0.000 F1200.000
G2 X-40.753 Y81.703 Z-2.165 I6.510 J-6.265 K0.000 F1200.000
G1 X-40.753 Y75.191 Z-2.165 F1200.000
G3 X-43.540 Y73.169 Z-2.165 I1.231 J-4.628 K0.000 F1200.000
G3 X-44.414 Y68.947 Z-2.165 I5.217 J-3.280 K0.000 F1200.000
G3 X-42.757 Y65.584 Z-2.165 I5.418 J0.578 K0.000 F1200.000
G3 X-37.265 Y65.523 Z-2.165 I2.779 J2.956 K0.000 F1200.000
G3 X-35.510 Y68.655 Z-2.165 I-5.353 J5.057 K0.000 F1200.000
G3 X-34.267 Y73.236 Z-2.165 I-100.030 J29.591 K0.000 F1200.000
G2 X-32.650 Y77.466 Z-2.165 I20.439 J-5.392 K0.000 F1200.000
G2 X-28.677 Y80.911 Z-2.165 I6.309 J-3.262 K0.000 F1200.000
G2 X-24.084 Y81.297 Z-2.165 I3.192 J-10.441 K0.000 F1200.000
G2 X-19.360 Y79.035 Z-2.165 I-0.812 J-7.758 K0.000 F1200.000
G2 X-17.318 Y75.542 Z-2.165 I-6.681 J-6.249 K0.000 F1200.000
G2 X-16.528 Y70.154 Z-2.165 I-15.709 J-5.054 K0.000 F1200.000
G2 X-17.299 Y64.982 Z-2.165 I-16.105 J-0.245 K0.000 F1200.000
G2 X-19.499 Y61.388 Z-2.165 I-8.533 J2.753 K0.000 F1200.000
G2 X-24.489 Y59.143 Z-2.165 I-5.739 J6.086 K0.000 F1200.000
G1 X-24.489 Y65.405 Z-2.165 F1200.000
G3 X-22.022 Y67.296 Z-2.165 I-1.214 J4.140 K0.000 F1200.000
G3 X-21.877 Y73.039 Z-2.165 I-5.259 J3.005 K0.000 F1200.000
G3 X-27.610 Y74.148 Z-2.165 I-3.289 J-1.630 K0.000 F1200.000
G3 X-29.164 Y71.670 Z-2.165 I4.253 J-4.393 K0.000 F1200.000
G3 X-30.439 Y67.318 Z-2.165 I39.711 J-13.998 K0.000 F1200.000
G2 X-32.506 Y61.875 Z-2.165 I-22.135 J5.293 K0.000 F1200.000
G2 X-36.719 Y58.365 Z-2.165 I-6.524 J3.547 K0.000 F1200.000
G2 X-39.738 Y57.944 Z-2.165 I-2.846 J9.373 K0.000 F1200.000
G2 X-41.206 Y58.034 Z-2.165 I-0.004 J11.942 K0.000 F1200.000
G2 X-42.275 Y58.211 Z-2.165 I0.825 J8.328 K0.000 F1200.000
G0 Z6.000
G0 X-35.358 Y58.957 Z6.000
G0 X-35.358 Y58.957 Z4.000
G1 X-35.358 Y58.957 Z-2.165 F600.000
G3 X-32.627 Y61.688 Z-2.165 I-3.819 J6.550 K0.000 F1200.000
G1 X-35.358 Y58.957 Z-2.165 F1200.000
G2 X-37.639 Y58.134 Z-2.165 I-3.631 J6.489 K0.000 F1200.000
G2 X-40.793 Y57.998 Z-2.165 I-2.044 J10.800 K0.000 F1200.000
G1 X-30.062 Y68.729 Z-2.165 F1200.000
G2 X-28.816 Y72.474 Z-2.165 I23.689 J-5.799 K0.000 F1200.000
G2 X-26.847 Y74.678 Z-2.165 I4.475 J-2.017 K0.000 F1200.000
G2 X-23.925 Y74.866 Z-2.165 I1.677 J-3.263 K0.000 F1200.000
G1 X-19.563 Y79.228 Z-2.165 F1200.000
G3 X-22.358 Y80.909 Z-2.165 I-5.007 J-5.161 K0.000 F1200.000
G1 X-36.118 Y67.149 Z-2.165 F1200.000
G3 X-34.945 Y70.638 Z-2.165 I-15.710 J7.226 K0.000 F1200.000
G2 X-34.168 Y73.575 Z-2.165 I48.214 J-11.185 K0.000 F1200.000
G1 X-26.394 Y81.349 Z-2.165 F1200.000
G3 X-31.286 Y79.302 Z-2.165 I0.248 J-7.462 K0.000 F1200.000
G3 X-32.650 Y77.466 Z-2.165 I5.978 J-5.866 K0.000 F1200.000
G3 X-34.168 Y73.575 Z-2.165 I15.895 J-8.443 K0.000 F1200.000
G0 Z6.000
G0 X-40.753 Y75.191 Z6.000
G0 X-40.753 Y75.191 Z4.000
G1 X-40.753 Y75.191 Z-2.165 F600.000
G1 X-40.753 Y75.942 Z-2.165 F1200.000
G1 X-42.117 Y74.578 Z-2.165 F1200.000
G2 X-40.753 Y75.191 Z-2.165 I2.487 J-3.707 K0.000 F1200.000
G0 Z6.000
G0 Y80.418 Z6.000
G0 Y80.418 Z4.000
G1 X-40.753 Y80.418 Z-2.165 F600.000
G1 X-40.753 Y81.703 Z-2.165 F1200.000
G3 X-41.744 Y81.545 Z-2.165 I0.638 J-7.167 K0.000 F1200.000
G3 X-48.022 Y76.631 Z-2.165 I1.708 J-8.651 K0.000 F1200.000
G3 X-49.313 Y71.858 Z-2.165 I12.393 J-5.913 K0.000 F1200.000
G1 X-40.753 Y80.418 Z-2.165 F1200.000
G1 X-40.753 Y75.942 Z-2.165 F1200.000
G1 X-42.117 Y74.578 Z-2.165 F1200.000
G3 X-43.571 Y73.124 Z-2.165 I2.462 J-3.916 K0.000 F1200.000
G1 X-49.278 Y67.417 Z-2.165 F1200.000
G3 X-48.410 Y63.809 Z-2.165 I14.546 J1.594 K0.000 F1200.000
G1 X-44.216 Y68.003 Z-2.165 F1200.000
G3 X-42.431 Y65.312 Z-2.165 I4.882 J1.301 K0.000 F1200.000
G1 X-46.776 Y60.967 Z-2.165 F1200.000
G3 X-44.296 Y58.971 Z-2.165 I6.035 J4.960 K0.000 F1200.000
G1 X-38.542 Y64.725 Z-2.165 F1200.000
G0 Z6.000
G0 X-24.489 Y65.350 Z6.000
G0 X-24.489 Y65.350 Z4.000
G1 X-24.489 Y65.350 Z-2.165 F600.000
G1 X-24.410 Y65.429 Z-2.165 F1200.000
G3 X-24.489 Y65.350 Z-2.165 I-0.028 J-0.052 K0.000 F1200.000
G1 X-24.489 Y60.874 Z-2.165 F1200.000
G1 X-16.576 Y68.787 Z-2.165 F1200.000
G2 X-17.299 Y64.982 Z-2.165 I-14.983 J0.876 K0.000 F1200.000
G2 X-19.499 Y61.388 Z-2.165 I-8.533 J2.753 K0.000 F1200.000
G0 Z6.000
G0 X-21.554 Y68.285 Z6.000
G0 X-21.554 Y68.285 Z4.000
G1 X-21.554 Y68.285 Z-2.165 F600.000
G1 X-16.746 Y73.093 Z-2.165 F1200.000
G3 X-17.734 Y76.581 Z-2.165 I-11.918 J-1.493 K0.000 F1200.000
G1 X-21.687 Y72.628 Z-2.165 F1200.000
G3 X-23.925 Y74.866 Z-2.165 I-3.551 J-1.313 K0.000 F1200.000
G1 X-19.563 Y79.228 Z-2.165 F1200.000
G0 Z6.000
G0 Z6.000
G0 X-19.563 Y79.228
G0 X-31.432 Y-27.335
G0 X-31.432 Y-27.335 Z4.000
G1 X-31.432 Y-27.335 Z-2.165 F600.000
G2 X-29.770 Y-27.604 Z-2.165 I-1.885 J-16.926 K0.000 F1200.000
G2 X-19.532 Y-34.837 Z-2.165 I-3.027 J-15.146 K0.000 F1200.000
G2 X-17.641 Y-47.398 Z-2.165 I-15.046 J-8.688 K0.000 F1200.000
G2 X-28.418 Y-58.606 Z-2.165 I-14.506 J3.163 K0.000 F1200.000
G1 X-28.418 Y-52.255 Z-2.165 F1200.000
G3 X-24.872 Y-49.574 Z-2.165 I-4.099 J9.107 K0.000 F1200.000
G3 X-27.130 Y-35.474 Z-2.165 I-7.414 J6.044 K0.000 F1200.000
G3 X-34.001 Y-33.747 Z-2.165 I-6.123 J-9.831 K0.000 F1200.000
G3 X-40.935 Y-36.578 Z-2.165 I0.365 J-10.801 K0.000 F1200.000
G3 X-43.582 Y-46.046 Z-2.165 I6.689 J-6.974 K0.000 F1200.000
G3 X-37.717 Y-52.348 Z-2.165 I8.957 J2.455 K0.000 F1200.000
G1 X-37.717 Y-58.757 Z-2.165 F1200.000
G2 X-39.684 Y-58.135 Z-2.165 I4.004 J16.084 K0.000 F1200.000
G2 X-48.030 Y-50.300 Z-2.165 I5.214 J13.917 K0.000 F1200.000
G2 X-48.876 Y-39.135 Z-2.165 I15.997 J6.827 K0.000 F1200.000
G2 X-41.115 Y-29.119 Z-2.165 I15.102 J-3.688 K0.000 F1200.000
G2 X-31.432 Y-27.335 Z-2.165 I7.797 J-15.142 K0.000 F1200.000
G0 Z6.000
G0 X-30.248 Y-27.519 Z6.000
G0 X-30.248 Y-27.519 Z4.000
G1 X-30.248 Y-27.519 Z-2.165 F600.000
G1 X-37.031 Y-34.302 Z-2.165 F1200.000
G2 X-32.054 Y-33.802 Z-2.165 I3.657 J-11.369 K0.000 F1200.000
G1 X-26.784 Y-28.531 Z-2.165 F1200.000
G2 X-23.903 Y-30.126 Z-2.165 I-5.760 J-13.801 K0.000 F1200.000
G1 X-28.512 Y-34.736 Z-2.165 F1200.000
G2 X-25.800 Y-36.500 Z-2.165 I-3.872 J-8.920 K0.000 F1200.000
G1 X-21.510 Y-32.210 Z-2.165 F1200.000
G2 X-19.583 Y-34.758 Z-2.165 I-10.528 J-9.968 K0.000 F1200.000
G1 X-23.840 Y-39.016 Z-2.165 F1200.000
G2 X-22.792 Y-42.443 Z-2.165 I-8.164 J-4.371 K0.000 F1200.000
G1 X-18.163 Y-37.814 Z-2.165 F1200.000
G2 X-17.338 Y-41.466 Z-2.165 I-15.126 J-5.334 K0.000 F1200.000
G1 X-23.764 Y-47.891 Z-2.165 F1200.000
G0 Z6.000
G0 X-28.418 Y-52.545 Z6.000
G0 X-28.418 Y-52.545 Z4.000
G1 X-28.418 Y-52.545 Z-2.165 F600.000
G1 X-27.835 Y-51.963 Z-2.165 F1200.000
G1 X-28.418 Y-52.255 Z-2.165 F1200.000
G1 X-28.418 Y-52.545 Z-2.165 F1200.000
G1 X-28.418 Y-57.021 Z-2.165 F1200.000
G1 X-17.391 Y-45.995 Z-2.165 F1200.000
G2 X-17.641 Y-47.398 Z-2.165 I-11.336 J1.291 K0.000 F1200.000
G2 X-21.897 Y-54.976 Z-2.165 I-14.634 J3.235 K0.000 F1200.000
G0 Z6.000
G0 X-38.795 Y-58.446 Z6.000
G0 X-38.795 Y-58.446 Z4.000
G1 X-38.795 Y-58.446 Z-2.165 F600.000
G3 X-37.717 Y-58.757 Z-2.165 I3.026 J8.488 K0.000 F1200.000
G1 X-37.717 Y-57.369 Z-2.165 F1200.000
G1 X-38.795 Y-58.446 Z-2.165 F1200.000
G2 X-41.901 Y-57.077 Z-2.165 I4.783 J15.059 K0.000 F1200.000
G1 X-37.717 Y-52.893 Z-2.165 F1200.000
G1 X-37.717 Y-52.348 Z-2.165 F1200.000
G2 X-40.258 Y-50.957 Z-2.165 I3.270 J8.991 K0.000 F1200.000
G1 X-44.491 Y-55.190 Z-2.165 F1200.000
G2 X-46.593 Y-52.817 Z-2.165 I9.570 J10.597 K0.000 F1200.000
G1 X-42.426 Y-48.649 Z-2.165 F1200.000
G2 X-43.708 Y-45.455 Z-2.165 I7.203 J4.745 K0.000 F1200.000
G1 X-48.181 Y-49.929 Z-2.165 F1200.000
G2 X-49.175 Y-46.447 Z-2.165 I13.093 J5.622 K0.000 F1200.000
G1 X-43.494 Y-40.766 Z-2.165 F1200.000
G2 X-37.031 Y-34.302 Z-2.165 I9.236 J-2.773 K0.000 F1200.000
G1 X-30.248 Y-27.519 Z-2.165 F1200.000
G3 X-34.481 Y-27.277 Z-2.165 I-3.096 J-16.983 K0.000 F1200.000
G1 X-49.364 Y-42.160 Z-2.165 F1200.000
G2 X-47.778 Y-36.098 Z-2.165 I16.803 J-1.158 K0.000 F1200.000
G1 X-40.497 Y-28.817 Z-2.165 F1200.000
G3 X-47.778 Y-36.098 Z-2.165 I6.527 J-13.808 K0.000 F1200.000
G0 Z6.000
G0 Z6.000
G0 X-47.778 Y-36.098
G0 Y-73.844
G0 Y-73.844 Z4.000
G1 X-47.778 Y-73.844 Z-2.165 F600.000
G1 X-24.304 Y-73.844 Z-2.165 F1200.000
G3 X-22.721 Y-72.261 Z-2.165 I0.000 J1.582 K0.000 F1200.000
G1 X-22.721 Y-64.705 Z-2.165 F1200.000
G1 X-17.529 Y-64.705 Z-2.165 F1200.000
G1 X-17.529 Y-89.130 Z-2.165 F1200.000
G1 X-22.721 Y-89.130 Z-2.165 F1200.000
G1 X-22.721 Y-81.573 Z-2.165 F1200.000
G3 X-24.304 Y-79.990 Z-2.165 I-1.582 J0.000 K0.000 F1200.000
G1 X-48.417 Y-79.990 Z-2.165 F1200.000
G1 X-48.417 Y-73.844 Z-2.165 F1200.000
G1 X-47.778 Y-73.844 Z-2.165 F1200.000
G0 Z6.000
G0 X-48.417 Y-75.258 Z6.000
G0 X-48.417 Y-75.258 Z4.000
G1 X-48.417 Y-75.258 Z-2.165 F600.000
G1 X-48.417 Y-73.844 Z-2.165 F1200.000
G1 X-47.003 Y-73.844 Z-2.165 F1200.000
G1 X-48.417 Y-75.258 Z-2.165 F1200.000
G1 X-48.417 Y-79.734 Z-2.165 F1200.000
G1 X-42.527 Y-73.844 Z-2.165 F1200.000
G1 X-38.051 Y-73.844 Z-2.165 F1200.000
G1 X-44.198 Y-79.990 Z-2.165 F1200.000
G1 X-39.722 Y-79.990 Z-2.165 F1200.000
G1 X-33.575 Y-73.844 Z-2.165 F1200.000
G1 X-29.100 Y-73.844 Z-2.165 F1200.000
G1 X-35.246 Y-79.990 Z-2.165 F1200.000
G1 X-30.770 Y-79.990 Z-2.165 F1200.000
G1 X-24.624 Y-73.844 Z-2.165 F1200.000
G0 Z6.000
G0 X-22.721 Y-67.465 Z6.000
G0 X-22.721 Y-67.465 Z4.000
G1 X-22.721 Y-67.465 Z-2.165 F600.000
G1 X-22.721 Y-64.705 Z-2.165 F1200.000
G1 X-19.960 Y-64.705 Z-2.165 F1200.000
G1 X-22.721 Y-67.465 Z-2.165 F1200.000
G1 X-22.721 Y-71.941 Z-2.165 F1200.000
G1 X-17.529 Y-66.750 Z-2.165 F1200.000
G1 X-17.529 Y-71.226 Z-2.165 F1200.000
G1 X-26.294 Y-79.990 Z-2.165 F1200.000
G1 X-24.304 Y-79.990 Z-2.165 F1200.000
G2 X-22.835 Y-81.008 Z-2.165 I0.010 J-1.554 K0.000 F1200.000
G1 X-17.529 Y-75.702 Z-2.165 F1200.000
G1 X-17.529 Y-80.178 Z-2.165 F1200.000
G1 X-22.721 Y-85.369 Z-2.165 F1200.000
G1 X-22.721 Y-89.130 Z-2.165 F1200.000
G1 X-22.005 Y-89.130 Z-2.165 F1200.000
G1 X-17.529 Y-84.654 Z-2.165 F1200.000
G1 X-17.529 Y-89.130 Z-2.165 F1200.000
G1 X-17.529 Y-89.130 Z-3.000 F600.000
G1 X-17.529 Y-84.654 Z-3.000 F1200.000
G1 X-22.005 Y-89.130 Z-3.000 F1200.000
G1 X-22.721 Y-89.130 Z-3.000 F1200.000
G1 X-22.721 Y-85.369 Z-3.000 F1200.000
G1 X-17.529 Y-80.178 Z-3.000 F1200.000
G1 X-17.529 Y-75.702 Z-3.000 F1200.000
G1 X-22.835 Y-81.008 Z-3.000 F1200.000
G3 X-24.304 Y-79.990 Z-3.000 I-1.458 J-0.536 K0.000 F1200.000
G1 X-26.294 Y-79.990 Z-3.000 F1200.000
G1 X-17.529 Y-71.226 Z-3.000 F1200.000
G1 X-17.529 Y-66.750 Z-3.000 F1200.000
G1 X-22.721 Y-71.941 Z-3.000 F1200.000
G1 X-22.721 Y-67.465 Z-3.000 F1200.000
G1 X-19.960 Y-64.705 Z-3.000 F1200.000
G1 X-22.721 Y-64.705 Z-3.000 F1200.000
G1 X-22.721 Y-67.465 Z-3.000 F1200.000
G1 X-22.721 Y-67.465 Z-3.000 F600.000
G1 X-22.721 Y-64.705 Z-3.000 F1200.000
G1 X-17.529 Y-64.705 Z-3.000 F1200.000
G1 X-17.529 Y-89.130 Z-3.000 F1200.000
G1 X-22.721 Y-89.130 Z-3.000 F1200.000
G1 X-22.721 Y-81.573 Z-3.000 F1200.000
G3 X-24.304 Y-79.990 Z-3.000 I-1.582 J0.000 K0.000 F1200.000
G1 X-48.417 Y-79.990 Z-3.000 F1200.000
G1 X-48.417 Y-73.844 Z-3.000 F1200.000
G1 X-24.304 Y-73.844 Z-3.000 F1200.000
G3 X-22.721 Y-72.261 Z-3.000 I0.000 J1.582 K0.000 F1200.000
G1 X-22.721 Y-67.465 Z-3.000 F1200.000
G0 Z6.000
G0 X-24.624 Y-73.844 Z6.000
G0 X-24.624 Y-73.844 Z4.000
G1 X-24.624 Y-73.844 Z-3.000 F600.000
G1 X-30.770 Y-79.990 Z-3.000 F1200.000
G1 X-35.246 Y-79.990 Z-3.000 F1200.000
G1 X-29.100 Y-73.844 Z-3.000 F1200.000
G1 X-33.575 Y-73.844 Z-3.000 F1200.000
G1 X-39.722 Y-79.990 Z-3.000 F1200.000
G1 X-44.198 Y-79.990 Z-3.000 F1200.000
G1 X-38.051 Y-73.844 Z-3.000 F1200.000
G1 X-42.527 Y-73.844 Z-3.000 F1200.000
G1 X-48.417 Y-79.734 Z-3.000 F1200.000
G1 X-48.417 Y-75.258 Z-3.000 F1200.000
G1 X-47.003 Y-73.844 Z-3.000 F1200.000
G1 X-48.417 Y-73.844 Z-3.000 F1200.000
G1 X-48.417 Y-75.258 Z-3.000 F1200.000
G0 Z6.000
G0 Z6.000
(Finish operation: SELECT_Pocket_Shape)
(Begin postamble)
M5
G17 G90
M2
