(Exported by FreeCAD)
(Post Processor: grbl_post)
(Output Time:2022-05-18 21:32:19.418870)
(Begin preamble)
G17 G90
G21
(Begin operation: Fixture)
(Path: Fixture)
G54
(Finish operation: Fixture)
(Begin operation: TC: endmill_FC1D317)
(Path: TC: endmill_FC1D317)
(TC: endmill_FC1D317)
(Begin toolchange)
( M6 T1.0 )
M3 S10000.0
(Finish operation: TC: endmill_FC1D317)
(Begin operation: RampEntryDressup)
(Path: RampEntryDressup)
G0 X0.000 Y0.000 Z6.000
G0 X3.122 Y3.122 Z6.000
G0 X3.122 Y3.122 Z4.000
G1 X3.508 Y2.669 Z3.911 F1200.000
G1 X3.832 Y2.173 Z3.806 F1200.000
G1 X4.088 Y1.641 Z3.687 F1200.000
G1 X4.272 Y1.083 Z3.556 F1200.000
G1 X4.380 Y0.508 Z3.414 F1200.000
G1 X4.412 Y-0.074 Z3.265 F1200.000
G1 X4.366 Y-0.654 Z3.111 F1200.000
G1 X4.242 Y-1.222 Z2.954 F1200.000
G1 X4.045 Y-1.769 Z2.797 F1200.000
G1 X3.775 Y-2.284 Z2.643 F1200.000
G1 X3.439 Y-2.761 Z2.494 F1200.000
G1 X3.041 Y-3.190 Z2.352 F1200.000
G1 X2.589 Y-3.565 Z2.221 F1200.000
G1 X2.089 Y-3.878 Z2.102 F1200.000
G1 X1.551 Y-4.126 Z1.997 F1200.000
G1 X0.982 Y-4.304 Z1.908 F1200.000
G1 X0.396 Y-4.369 Z1.885 F1200.000
G1 X-0.192 Y-4.364 Z1.837 F1200.000
G1 X-0.773 Y-4.289 Z1.767 F1200.000
G1 X-1.338 Y-4.144 Z1.673 F1200.000
G1 X-1.877 Y-3.933 Z1.560 F1200.000
G1 X-2.383 Y-3.658 Z1.427 F1200.000
G1 X-2.846 Y-3.324 Z1.277 F1200.000
G1 X-3.260 Y-2.936 Z1.113 F1200.000
G1 X-3.618 Y-2.501 Z0.937 F1200.000
G1 X-3.914 Y-2.025 Z0.752 F1200.000
G1 X-4.144 Y-1.516 Z0.561 F1200.000
G1 X-4.304 Y-0.982 Z0.367 F1200.000
G1 X-4.392 Y-0.432 Z0.173 F1200.000
G1 X-4.405 Y0.126 Z-0.018 F1200.000
G1 X-4.345 Y0.684 Z-0.203 F1200.000
G1 X-4.211 Y1.231 Z-0.379 F1200.000
G1 X-4.006 Y1.760 Z-0.543 F1200.000
G1 X-3.734 Y2.262 Z-0.693 F1200.000
G1 X-3.398 Y2.729 Z-0.826 F1200.000
G1 X-3.004 Y3.153 Z-0.939 F1200.000
G1 X-2.558 Y3.528 Z-1.032 F1200.000
G1 X-2.067 Y3.849 Z-1.103 F1200.000
G1 X-1.539 Y4.109 Z-1.151 F1200.000
G1 X-0.982 Y4.304 Z-1.174 F1200.000
G1 X-0.431 Y4.393 Z-1.291 F1200.000
G1 X0.126 Y4.413 Z-1.414 F1200.000
G1 X0.679 Y4.362 Z-1.541 F1200.000
G1 X1.222 Y4.242 Z-1.670 F1200.000
G1 X1.746 Y4.055 Z-1.798 F1200.000
G1 X2.241 Y3.803 Z-1.925 F1200.000
G1 X2.703 Y3.491 Z-2.048 F1200.000
G1 X3.122 Y3.122 Z-2.165 F1200.000
G1 X3.509 Y2.677 Z-2.210 F1200.000
G1 X3.833 Y2.185 Z-2.263 F1200.000
G1 X4.090 Y1.655 Z-2.324 F1200.000
G1 X4.274 Y1.097 Z-2.391 F1200.000
G1 X4.383 Y0.520 Z-2.464 F1200.000
G1 X4.414 Y-0.065 Z-2.541 F1200.000
G1 X4.367 Y-0.650 Z-2.621 F1200.000
G1 X4.242 Y-1.222 Z-2.702 F1200.000
G1 X4.043 Y-1.773 Z-2.783 F1200.000
G1 X3.772 Y-2.293 Z-2.863 F1200.000
G1 X3.434 Y-2.772 Z-2.940 F1200.000
G1 X3.035 Y-3.203 Z-3.013 F1200.000
G1 X2.582 Y-3.578 Z-3.080 F1200.000
G1 X2.083 Y-3.889 Z-3.141 F1200.000
G1 X1.547 Y-4.133 Z-3.194 F1200.000
G1 X0.982 Y-4.304 Z-3.239 F1200.000
G1 X0.408 Y-4.388 Z-3.247 F1200.000
G1 X-0.173 Y-4.398 Z-3.268 F1200.000
G1 X-0.749 Y-4.334 Z-3.303 F1200.000
G1 X-1.312 Y-4.198 Z-3.349 F1200.000
G1 X-1.851 Y-3.990 Z-3.407 F1200.000
G1 X-2.358 Y-3.715 Z-3.475 F1200.000
G1 X-2.825 Y-3.378 Z-3.552 F1200.000
G1 X-3.243 Y-2.984 Z-3.638 F1200.000
G1 X-3.606 Y-2.540 Z-3.730 F1200.000
G1 X-3.906 Y-2.052 Z-3.827 F1200.000
G1 X-4.141 Y-1.530 Z-3.928 F1200.000
G1 X-4.304 Y-0.982 Z-4.030 F1200.000
G1 X-4.395 Y-0.418 Z-4.132 F1200.000
G1 X-4.410 Y0.154 Z-4.233 F1200.000
G1 X-4.350 Y0.724 Z-4.330 F1200.000
G1 X-4.217 Y1.281 Z-4.422 F1200.000
G1 X-4.011 Y1.818 Z-4.508 F1200.000
G1 X-3.737 Y2.324 Z-4.585 F1200.000
G1 X-3.399 Y2.792 Z-4.653 F1200.000
G1 X-3.003 Y3.213 Z-4.711 F1200.000
G1 X-2.556 Y3.580 Z-4.758 F1200.000
G1 X-2.064 Y3.888 Z-4.792 F1200.000
G1 X-1.537 Y4.131 Z-4.813 F1200.000
G1 X-0.982 Y4.304 Z-4.821 F1200.000
G1 X-0.432 Y4.394 Z-4.881 F1200.000
G1 X0.124 Y4.413 Z-4.944 F1200.000
G1 X0.679 Y4.362 Z-5.010 F1200.000
G1 X1.222 Y4.242 Z-5.076 F1200.000
G1 X1.746 Y4.055 Z-5.142 F1200.000
G1 X2.243 Y3.803 Z-5.207 F1200.000
G1 X2.704 Y3.490 Z-5.270 F1200.000
G1 X3.122 Y3.122 Z-5.330 F1200.000
G1 X3.509 Y2.677 Z-5.375 F1200.000
G1 X3.833 Y2.185 Z-5.428 F1200.000
G1 X4.090 Y1.655 Z-5.489 F1200.000
G1 X4.274 Y1.097 Z-5.556 F1200.000
G1 X4.383 Y0.520 Z-5.629 F1200.000
G1 X4.414 Y-0.065 Z-5.706 F1200.000
G1 X4.367 Y-0.650 Z-5.786 F1200.000
G1 X4.242 Y-1.222 Z-5.867 F1200.000
G1 X4.043 Y-1.773 Z-5.948 F1200.000
G1 X3.772 Y-2.293 Z-6.028 F1200.000
G1 X3.434 Y-2.772 Z-6.105 F1200.000
G1 X3.035 Y-3.203 Z-6.178 F1200.000
G1 X2.582 Y-3.578 Z-6.245 F1200.000
G1 X2.083 Y-3.889 Z-6.306 F1200.000
G1 X1.547 Y-4.133 Z-6.359 F1200.000
G1 X0.982 Y-4.304 Z-6.404 F1200.000
G1 X0.408 Y-4.388 Z-6.412 F1200.000
G1 X-0.173 Y-4.398 Z-6.433 F1200.000
G1 X-0.749 Y-4.334 Z-6.468 F1200.000
G1 X-1.312 Y-4.198 Z-6.514 F1200.000
G1 X-1.851 Y-3.990 Z-6.572 F1200.000
G1 X-2.358 Y-3.715 Z-6.640 F1200.000
G1 X-2.825 Y-3.378 Z-6.717 F1200.000
G1 X-3.243 Y-2.984 Z-6.803 F1200.000
G1 X-3.606 Y-2.540 Z-6.895 F1200.000
G1 X-3.906 Y-2.052 Z-6.992 F1200.000
G1 X-4.141 Y-1.530 Z-7.093 F1200.000
G1 X-4.304 Y-0.982 Z-7.195 F1200.000
G1 X-4.395 Y-0.418 Z-7.297 F1200.000
G1 X-4.410 Y0.154 Z-7.398 F1200.000
G1 X-4.350 Y0.724 Z-7.495 F1200.000
G1 X-4.217 Y1.281 Z-7.587 F1200.000
G1 X-4.011 Y1.818 Z-7.673 F1200.000
G1 X-3.737 Y2.324 Z-7.750 F1200.000
G1 X-3.399 Y2.792 Z-7.818 F1200.000
G1 X-3.003 Y3.213 Z-7.876 F1200.000
G1 X-2.556 Y3.580 Z-7.923 F1200.000
G1 X-2.064 Y3.888 Z-7.957 F1200.000
G1 X-1.537 Y4.131 Z-7.978 F1200.000
G1 X-0.982 Y4.304 Z-7.986 F1200.000
G1 X-0.432 Y4.394 Z-8.046 F1200.000
G1 X0.124 Y4.413 Z-8.109 F1200.000
G1 X0.679 Y4.362 Z-8.175 F1200.000
G1 X1.222 Y4.242 Z-8.241 F1200.000
G1 X1.746 Y4.055 Z-8.307 F1200.000
G1 X2.243 Y3.803 Z-8.372 F1200.000
G1 X2.704 Y3.490 Z-8.435 F1200.000
G1 X3.122 Y3.122 Z-8.495 F1200.000
G1 X3.509 Y2.679 Z-8.516 F1200.000
G1 X3.834 Y2.189 Z-8.541 F1200.000
G1 X4.091 Y1.660 Z-8.570 F1200.000
G1 X4.275 Y1.102 Z-8.602 F1200.000
G1 X4.383 Y0.524 Z-8.637 F1200.000
G1 X4.414 Y-0.063 Z-8.674 F1200.000
G1 X4.367 Y-0.648 Z-8.712 F1200.000
G1 X4.242 Y-1.222 Z-8.750 F1200.000
G1 X4.043 Y-1.775 Z-8.789 F1200.000
G1 X3.771 Y-2.296 Z-8.827 F1200.000
G1 X3.433 Y-2.776 Z-8.864 F1200.000
G1 X3.034 Y-3.207 Z-8.898 F1200.000
G1 X2.581 Y-3.582 Z-8.931 F1200.000
G1 X2.082 Y-3.893 Z-8.959 F1200.000
G1 X1.546 Y-4.135 Z-8.985 F1200.000
G1 X0.982 Y-4.304 Z-9.006 F1200.000
G1 X0.411 Y-4.394 Z-9.009 F1200.000
G1 X-0.167 Y-4.409 Z-9.019 F1200.000
G1 X-0.742 Y-4.348 Z-9.035 F1200.000
G1 X-1.304 Y-4.214 Z-9.056 F1200.000
G1 X-1.843 Y-4.008 Z-9.084 F1200.000
G1 X-2.351 Y-3.733 Z-9.116 F1200.000
G1 X-2.819 Y-3.395 Z-9.153 F1200.000
G1 X-3.238 Y-2.999 Z-9.194 F1200.000
G1 X-3.602 Y-2.551 Z-9.238 F1200.000
G1 X-3.904 Y-2.061 Z-9.285 F1200.000
G1 X-4.140 Y-1.535 Z-9.333 F1200.000
G1 X-4.304 Y-0.982 Z-9.382 F1200.000
G1 X-4.395 Y-0.413 Z-9.431 F1200.000
G1 X-4.411 Y0.163 Z-9.479 F1200.000
G1 X-4.352 Y0.736 Z-9.526 F1200.000
G1 X-4.218 Y1.297 Z-9.570 F1200.000
G1 X-4.012 Y1.836 Z-9.610 F1200.000
G1 X-3.738 Y2.343 Z-9.647 F1200.000
G1 X-3.400 Y2.811 Z-9.680 F1200.000
G1 X-3.003 Y3.231 Z-9.707 F1200.000
G1 X-2.555 Y3.596 Z-9.729 F1200.000
G1 X-2.063 Y3.900 Z-9.745 F1200.000
G1 X-1.536 Y4.137 Z-9.755 F1200.000
G1 X-0.982 Y4.304 Z-9.758 F1200.000
G1 X-0.433 Y4.394 Z-9.787 F1200.000
G1 X0.124 Y4.413 Z-9.817 F1200.000
G1 X0.678 Y4.363 Z-9.848 F1200.000
G1 X1.222 Y4.242 Z-9.879 F1200.000
G1 X1.747 Y4.055 Z-9.911 F1200.000
G1 X2.243 Y3.803 Z-9.942 F1200.000
G1 X2.704 Y3.490 Z-9.971 F1200.000
G1 X3.122 Y3.122 Z-10.000 F1200.000
G2 X0.982 Y-4.304 Z-10.000 I-3.122 J-3.122 K0.000 F1200.000
G2 X-0.982 Y4.304 Z-10.000 I-0.982 J4.304 K0.000 F1200.000
G2 X3.122 Y3.122 Z-10.000 I0.982 J-4.304 K0.000 F1200.000
G0 X3.122 Y3.122 Z6.000
(Finish operation: RampEntryDressup)
(Begin operation: START_Pocket_Shape)
(Path: START_Pocket_Shape)
(START_Pocket_Shape)
G0 Z6.000
G0 X48.417 Y15.537
G0 Z4.000
G1 X48.417 Y15.537 Z-2.165 F600.000
G1 X48.417 Y8.815 Z-2.165 F1200.000
G1 X43.754 Y7.307 Z-2.165 F1200.000
G3 X42.659 Y5.801 Z-2.165 I0.487 J-1.506 K0.000 F1200.000
G1 X42.659 Y-6.124 Z-2.165 F1200.000
G3 X43.754 Y-7.629 Z-2.165 I1.583 J0.000 K0.000 F1200.000
G1 X48.417 Y-9.137 Z-2.165 F1200.000
G1 X48.417 Y-15.611 Z-2.165 F1200.000
G1 X17.529 Y-3.616 Z-2.165 F1200.000
G1 X17.529 Y3.287 Z-2.165 F1200.000
G1 X48.417 Y15.537 Z-2.165 F1200.000
G0 Z6.000
G0 Y11.245 Z6.000
G0 Y11.245 Z4.000
G1 X48.417 Y11.245 Z-2.165 F600.000
G1 X44.827 Y7.654 Z-2.165 F1200.000
G1 X48.417 Y8.815 Z-2.165 F1200.000
G1 X48.417 Y11.245 Z-2.165 F1200.000
G0 Z6.000
G0 X40.695 Y12.474 Z6.000
G0 X40.695 Y12.474 Z4.000
G1 X40.695 Y12.474 Z-2.165 F600.000
G1 X31.498 Y3.277 Z-2.165 F1200.000
G1 X36.449 Y5.039 Z-2.165 F1200.000
G2 X37.664 Y4.967 Z-2.165 I0.524 J-1.442 K0.000 F1200.000
G1 X48.113 Y15.416 Z-2.165 F1200.000
G1 X48.417 Y15.537 Z-2.165 F1200.000
G1 X48.417 Y11.245 Z-2.165 F1200.000
G1 X44.827 Y7.654 Z-2.165 F1200.000
G3 X43.451 Y7.173 Z-2.165 I1.599 J-6.775 K0.000 F1200.000
G3 X42.659 Y5.486 Z-2.165 I0.858 J-1.433 K0.000 F1200.000
G1 X38.562 Y1.389 Z-2.165 F1200.000
G1 X38.562 Y-3.087 Z-2.165 F1200.000
G1 X42.659 Y1.010 Z-2.165 F1200.000
G1 X42.659 Y-3.466 Z-2.165 F1200.000
G1 X35.521 Y-10.603 Z-2.165 F1200.000
G1 X38.745 Y-11.855 Z-2.165 F1200.000
G1 X43.251 Y-7.350 Z-2.165 F1200.000
G3 X43.754 Y-7.629 Z-2.165 I0.909 J1.042 K0.000 F1200.000
G1 X46.545 Y-8.532 Z-2.165 F1200.000
G1 X41.969 Y-13.107 Z-2.165 F1200.000
G1 X45.193 Y-14.359 Z-2.165 F1200.000
G1 X48.417 Y-11.135 Z-2.165 F1200.000
G1 X48.417 Y-15.611 Z-2.165 F1200.000
G0 Z6.000
G0 X38.084 Y-5.004 Z6.000
G0 X38.084 Y-5.004 Z4.000
G1 X38.084 Y-5.004 Z-2.165 F600.000
G3 X38.562 Y-3.870 Z-2.165 I-1.104 J1.134 K0.000 F1200.000
G1 X38.562 Y3.548 Z-2.165 F1200.000
G3 X36.449 Y5.039 Z-2.165 I-1.583 J0.000 K0.000 F1200.000
G1 X25.980 Y1.314 Z-2.165 F1200.000
G3 X25.984 Y-1.669 Z-2.165 I0.530 J-1.491 K0.000 F1200.000
G1 X36.453 Y-5.362 Z-2.165 F1200.000
G3 X37.114 Y-5.447 Z-2.165 I0.526 J1.492 K0.000 F1200.000
G3 X38.084 Y-5.004 Z-2.165 I-0.135 J1.577 K0.000 F1200.000
G0 Z6.000
G0 X36.330 Y-5.319 Z6.000
G0 X36.330 Y-5.319 Z4.000
G1 X36.330 Y-5.319 Z-2.165 F600.000
G1 X32.297 Y-9.351 Z-2.165 F1200.000
G1 X29.073 Y-8.099 Z-2.165 F1200.000
G1 X33.021 Y-4.152 Z-2.165 F1200.000
G1 X29.712 Y-2.985 Z-2.165 F1200.000
G1 X25.849 Y-6.847 Z-2.165 F1200.000
G1 X22.625 Y-5.595 Z-2.165 F1200.000
G1 X26.403 Y-1.817 Z-2.165 F1200.000
G2 X25.390 Y-1.295 Z-2.165 I0.382 J1.984 K0.000 F1200.000
G2 X25.980 Y1.314 Z-2.165 I1.120 J1.118 K0.000 F1200.000
G1 X31.498 Y3.277 Z-2.165 F1200.000
G1 X40.695 Y12.474 Z-2.165 F1200.000
G1 X33.277 Y9.532 Z-2.165 F1200.000
G1 X19.401 Y-4.343 Z-2.165 F1200.000
G1 X17.529 Y-3.616 Z-2.165 F1200.000
G1 X17.529 Y-1.740 Z-2.165 F1200.000
G1 X25.859 Y6.590 Z-2.165 F1200.000
G1 X18.441 Y3.648 Z-2.165 F1200.000
G1 X17.529 Y2.736 Z-2.165 F1200.000
G1 X17.529 Y3.287 Z-2.165 F1200.000
G1 X18.441 Y3.648 Z-2.165 F1200.000
G1 X18.441 Y3.648 Z-4.000 F600.000
G1 X17.529 Y3.287 Z-4.000 F1200.000
G1 X17.529 Y2.736 Z-4.000 F1200.000
G1 X18.441 Y3.648 Z-4.000 F1200.000
G1 X25.859 Y6.590 Z-4.000 F1200.000
G1 X17.529 Y-1.740 Z-4.000 F1200.000
G1 X17.529 Y-3.616 Z-4.000 F1200.000
G1 X19.401 Y-4.343 Z-4.000 F1200.000
G1 X33.277 Y9.532 Z-4.000 F1200.000
G1 X40.695 Y12.474 Z-4.000 F1200.000
G1 X31.498 Y3.277 Z-4.000 F1200.000
G1 X25.980 Y1.314 Z-4.000 F1200.000
G3 X25.390 Y-1.295 Z-4.000 I0.530 J-1.491 K0.000 F1200.000
G3 X26.403 Y-1.817 Z-4.000 I1.395 J1.462 K0.000 F1200.000
G1 X22.625 Y-5.595 Z-4.000 F1200.000
G1 X25.849 Y-6.847 Z-4.000 F1200.000
G1 X29.712 Y-2.985 Z-4.000 F1200.000
G1 X33.021 Y-4.152 Z-4.000 F1200.000
G1 X29.073 Y-8.099 Z-4.000 F1200.000
G1 X32.297 Y-9.351 Z-4.000 F1200.000
G1 X36.330 Y-5.319 Z-4.000 F1200.000
G0 Z6.000
G0 Y-5.319 Z6.000
G0 Y-5.319 Z4.000
G1 X36.330 Y-5.319 Z-4.000 F600.000
G1 X36.453 Y-5.362 Z-4.000 F1200.000
G3 X37.114 Y-5.447 Z-4.000 I0.526 J1.492 K0.000 F1200.000
G3 X38.562 Y-3.870 Z-4.000 I-0.135 J1.577 K0.000 F1200.000
G1 X38.562 Y3.548 Z-4.000 F1200.000
G3 X36.449 Y5.039 Z-4.000 I-1.583 J0.000 K0.000 F1200.000
G1 X25.980 Y1.314 Z-4.000 F1200.000
G3 X25.984 Y-1.669 Z-4.000 I0.530 J-1.491 K0.000 F1200.000
G1 X36.330 Y-5.319 Z-4.000 F1200.000
G0 Z6.000
G0 X34.441 Y-10.184 Z6.000
G0 X34.441 Y-10.184 Z4.000
G1 X34.441 Y-10.184 Z-4.000 F600.000
G1 X17.529 Y-3.616 Z-4.000 F1200.000
G1 X17.529 Y3.287 Z-4.000 F1200.000
G1 X48.417 Y15.537 Z-4.000 F1200.000
G1 X48.417 Y8.815 Z-4.000 F1200.000
G1 X43.754 Y7.307 Z-4.000 F1200.000
G3 X42.659 Y5.801 Z-4.000 I0.487 J-1.506 K0.000 F1200.000
G1 X42.659 Y-6.124 Z-4.000 F1200.000
G3 X43.754 Y-7.629 Z-4.000 I1.583 J0.000 K0.000 F1200.000
G1 X48.417 Y-9.137 Z-4.000 F1200.000
G1 X48.417 Y-15.611 Z-4.000 F1200.000
G1 X34.441 Y-10.184 Z-4.000 F1200.000
G0 Z6.000
G0 X48.417 Y-15.611 Z6.000
G0 X48.417 Y-15.611 Z4.000
G1 X48.417 Y-15.611 Z-4.000 F600.000
G1 X48.417 Y-11.135 Z-4.000 F1200.000
G1 X45.193 Y-14.359 Z-4.000 F1200.000
G1 X41.969 Y-13.107 Z-4.000 F1200.000
G1 X46.545 Y-8.532 Z-4.000 F1200.000
G1 X43.754 Y-7.629 Z-4.000 F1200.000
G2 X43.251 Y-7.350 Z-4.000 I0.405 J1.322 K0.000 F1200.000
G1 X38.745 Y-11.855 Z-4.000 F1200.000
G1 X35.521 Y-10.603 Z-4.000 F1200.000
G1 X42.659 Y-3.466 Z-4.000 F1200.000
G1 X42.659 Y1.010 Z-4.000 F1200.000
G1 X38.562 Y-3.087 Z-4.000 F1200.000
G1 X38.562 Y1.389 Z-4.000 F1200.000
G1 X42.659 Y5.486 Z-4.000 F1200.000
G2 X43.451 Y7.173 Z-4.000 I1.651 J0.254 K0.000 F1200.000
G2 X44.827 Y7.654 Z-4.000 I2.974 J-6.294 K0.000 F1200.000
G1 X48.417 Y11.245 Z-4.000 F1200.000
G1 X48.417 Y15.537 Z-4.000 F1200.000
G1 X48.113 Y15.416 Z-4.000 F1200.000
G1 X37.664 Y4.967 Z-4.000 F1200.000
G3 X36.449 Y5.039 Z-4.000 I-0.690 J-1.370 K0.000 F1200.000
G1 X31.498 Y3.277 Z-4.000 F1200.000
G1 X40.695 Y12.474 Z-4.000 F1200.000
G0 Z6.000
G0 X45.171 Y7.998 Z6.000
G0 X45.171 Y7.998 Z4.000
G1 X45.171 Y7.998 Z-4.000 F600.000
G1 X44.827 Y7.654 Z-4.000 F1200.000
G1 X48.417 Y8.815 Z-4.000 F1200.000
G1 X48.417 Y11.245 Z-4.000 F1200.000
G1 X45.171 Y7.998 Z-4.000 F1200.000
G0 Z6.000
G0 Z6.000
G0 X45.171 Y7.998
G0 Y22.971
G0 Y22.971 Z4.000
G1 X45.171 Y22.971 Z-2.165 F600.000
G1 X17.529 Y22.971 Z-2.165 F1200.000
G1 X17.529 Y35.942 Z-2.165 F1200.000
G2 X18.062 Y39.715 Z-2.165 I12.910 J0.103 K0.000 F1200.000
G2 X22.510 Y45.488 Z-2.165 I9.468 J-2.694 K0.000 F1200.000
G2 X29.416 Y46.838 Z-2.165 I5.551 J-10.056 K0.000 F1200.000
G2 X36.516 Y42.290 Z-2.165 I-0.842 J-9.130 K0.000 F1200.000
G3 X38.603 Y41.770 Z-2.165 I1.324 J0.866 K0.000 F1200.000
G1 X48.417 Y47.163 Z-2.165 F1200.000
G1 X48.417 Y40.442 Z-2.165 F1200.000
G1 X39.050 Y35.428 Z-2.165 F1200.000
G3 X38.214 Y34.033 Z-2.165 I0.747 J-1.395 K0.000 F1200.000
G1 X38.214 Y30.668 Z-2.165 F1200.000
G3 X39.797 Y29.086 Z-2.165 I1.582 J-0.000 K0.000 F1200.000
G1 X48.417 Y29.086 Z-2.165 F1200.000
G1 X48.417 Y22.971 Z-2.165 F1200.000
G1 X45.171 Y22.971 Z-2.165 F1200.000
G0 Z6.000
G0 X48.417 Z6.000
G0 X48.417 Z4.000
G1 X48.417 Y22.971 Z-2.165 F600.000
G1 X48.417 Y27.447 Z-2.165 F1200.000
G1 X43.942 Y22.971 Z-2.165 F1200.000
G1 X39.466 Y22.971 Z-2.165 F1200.000
G1 X45.581 Y29.086 Z-2.165 F1200.000
G1 X41.105 Y29.086 Z-2.165 F1200.000
G1 X34.990 Y22.971 Z-2.165 F1200.000
G1 X30.514 Y22.971 Z-2.165 F1200.000
G1 X38.214 Y30.671 Z-2.165 F1200.000
G1 X38.214 Y34.033 Z-2.165 F1200.000
G2 X39.050 Y35.428 Z-2.165 I1.582 J0.000 K0.000 F1200.000
G1 X47.488 Y39.945 Z-2.165 F1200.000
G1 X48.417 Y40.875 Z-2.165 F1200.000
G1 X48.417 Y45.351 Z-2.165 F1200.000
G1 X33.531 Y30.464 Z-2.165 F1200.000
G1 X33.554 Y30.668 Z-2.165 F1200.000
G3 X33.554 Y34.923 Z-2.165 I-226.448 J2.113 K0.000 F1200.000
G3 X33.553 Y34.962 Z-2.165 I-1.026 J-0.014 K0.000 F1200.000
G1 X42.505 Y43.914 Z-2.165 F1200.000
G1 X38.603 Y41.770 Z-2.165 F1200.000
G2 X36.472 Y42.357 Z-2.165 I-0.762 J1.391 K0.000 F1200.000
G1 X32.510 Y38.395 Z-2.165 F1200.000
G3 X29.911 Y40.272 Z-2.165 I-4.076 J-2.905 K0.000 F1200.000
G1 X34.410 Y44.771 Z-2.165 F1200.000
G3 X31.537 Y46.374 Z-2.165 I-5.594 J-6.647 K0.000 F1200.000
G1 X24.401 Y39.238 Z-2.165 F1200.000
G3 X23.974 Y38.811 Z-2.165 I2.531 J-2.959 K0.000 F1200.000
G1 X17.529 Y32.366 Z-2.165 F1200.000
G1 X17.529 Y35.942 Z-2.165 F1200.000
G1 X17.567 Y36.880 Z-2.165 F1200.000
G1 X27.578 Y46.891 Z-2.165 F1200.000
G3 X20.577 Y43.999 Z-2.165 I0.129 J-10.232 K0.000 F1200.000
G3 X18.062 Y39.715 Z-2.165 I7.244 J-7.134 K0.000 F1200.000
G3 X17.567 Y36.880 Z-2.165 I11.377 J-3.445 K0.000 F1200.000
G0 Z6.000
G0 X17.529 Y32.366 Z6.000
G0 X17.529 Y32.366 Z4.000
G1 X17.529 Y32.366 Z-2.165 F600.000
G1 X23.974 Y38.811 Z-2.165 F1200.000
G3 X22.671 Y35.817 Z-2.165 I4.162 J-3.592 K0.000 F1200.000
G3 X22.612 Y32.973 Z-2.165 I21.320 J-1.866 K0.000 F1200.000
G1 X17.529 Y27.890 Z-2.165 F1200.000
G1 X17.529 Y23.414 Z-2.165 F1200.000
G1 X23.415 Y29.300 Z-2.165 F1200.000
G3 X24.194 Y29.086 Z-2.165 I0.696 J1.005 K0.000 F1200.000
G1 X27.677 Y29.086 Z-2.165 F1200.000
G1 X21.562 Y22.971 Z-2.165 F1200.000
G1 X26.038 Y22.971 Z-2.165 F1200.000
G1 X32.176 Y29.109 Z-2.165 F1200.000
G0 Z6.000
G0 X32.177 Y29.099 Z6.000
G0 X32.177 Y29.099 Z4.000
G1 X32.177 Y29.099 Z-2.165 F600.000
G3 X33.554 Y30.668 Z-2.165 I-0.205 J1.569 K0.000 F1200.000
G1 X33.554 Y34.894 Z-2.165 F1200.000
G3 X33.552 Y34.983 Z-2.165 I-1.583 J-0.000 K0.000 F1200.000
G3 X32.410 Y38.537 Z-2.165 I-5.916 J0.060 K0.000 F1200.000
G3 X28.174 Y40.558 Z-2.165 I-4.174 J-3.299 K0.000 F1200.000
G3 X23.885 Y38.708 Z-2.165 I-0.240 J-5.340 K0.000 F1200.000
G3 X22.612 Y34.939 Z-2.165 I4.637 J-3.666 K0.000 F1200.000
G3 X22.612 Y30.668 Z-2.165 I99.258 J-2.151 K0.000 F1200.000
G3 X24.194 Y29.086 Z-2.165 I1.582 J0.000 K0.000 F1200.000
G1 X31.972 Y29.086 Z-2.165 F1200.000
G3 X32.177 Y29.099 Z-2.165 I0.000 J1.582 K0.000 F1200.000
G0 Z6.000
G0 X47.488 Y39.945 Z6.000
G0 X47.488 Y39.945 Z4.000
G1 X47.488 Y39.945 Z-2.165 F600.000
G1 X48.417 Y40.442 Z-2.165 F1200.000
G1 X48.417 Y40.875 Z-2.165 F1200.000
G1 X47.488 Y39.945 Z-2.165 F1200.000
G0 Z6.000
G0 Z6.000
G0 X47.488 Y39.945
G0 Y61.813
G0 Y61.813 Z4.000
G1 X47.488 Y61.813 Z-2.165 F600.000
G1 X24.304 Y61.813 Z-2.165 F1200.000
G3 X22.721 Y60.230 Z-2.165 I-0.000 J-1.582 K0.000 F1200.000
G1 X22.721 Y52.673 Z-2.165 F1200.000
G1 X17.529 Y52.673 Z-2.165 F1200.000
G1 X17.529 Y77.098 Z-2.165 F1200.000
G1 X22.721 Y77.098 Z-2.165 F1200.000
G1 X22.721 Y69.541 Z-2.165 F1200.000
G3 X24.304 Y67.959 Z-2.165 I1.582 J-0.000 K0.000 F1200.000
G1 X48.417 Y67.959 Z-2.165 F1200.000
G1 X48.417 Y61.813 Z-2.165 F1200.000
G1 X47.488 Y61.813 Z-2.165 F1200.000
G0 Z6.000
G0 X48.417 Z6.000
G0 X48.417 Z4.000
G1 X48.417 Y61.813 Z-2.165 F600.000
G1 X48.417 Y66.289 Z-2.165 F1200.000
G1 X43.942 Y61.813 Z-2.165 F1200.000
G1 X39.466 Y61.813 Z-2.165 F1200.000
G1 X45.612 Y67.959 Z-2.165 F1200.000
G1 X41.136 Y67.959 Z-2.165 F1200.000
G1 X34.990 Y61.813 Z-2.165 F1200.000
G1 X30.514 Y61.813 Z-2.165 F1200.000
G1 X36.660 Y67.959 Z-2.165 F1200.000
G1 X32.184 Y67.959 Z-2.165 F1200.000
G1 X26.038 Y61.813 Z-2.165 F1200.000
G1 X24.304 Y61.813 Z-2.165 F1200.000
G3 X22.721 Y60.230 Z-2.165 I-0.000 J-1.583 K0.000 F1200.000
G1 X22.721 Y58.496 Z-2.165 F1200.000
G1 X17.529 Y53.304 Z-2.165 F1200.000
G1 X17.529 Y57.780 Z-2.165 F1200.000
G1 X27.708 Y67.959 Z-2.165 F1200.000
G1 X24.304 Y67.959 Z-2.165 F1200.000
G2 X23.477 Y68.204 Z-2.165 I-0.064 J1.304 K0.000 F1200.000
G1 X17.529 Y62.256 Z-2.165 F1200.000
G1 X17.529 Y66.732 Z-2.165 F1200.000
G1 X22.721 Y71.924 Z-2.165 F1200.000
G1 X22.721 Y76.400 Z-2.165 F1200.000
G1 X17.529 Y71.208 Z-2.165 F1200.000
G1 X17.529 Y75.684 Z-2.165 F1200.000
G1 X18.943 Y77.098 Z-2.165 F1200.000
G1 X17.529 Y77.098 Z-2.165 F1200.000
G1 X17.529 Y75.684 Z-2.165 F1200.000
G0 Z6.000
G0 X22.721 Y54.020 Z6.000
G0 X22.721 Y54.020 Z4.000
G1 X22.721 Y54.020 Z-2.165 F600.000
G1 X22.721 Y52.673 Z-2.165 F1200.000
G1 X21.374 Y52.673 Z-2.165 F1200.000
G1 X22.721 Y54.020 Z-2.165 F1200.000
G1 X22.721 Y58.496 Z-2.165 F1200.000
G1 X17.529 Y53.304 Z-2.165 F1200.000
G1 X17.529 Y53.304 Z-4.000 F600.000
G1 X22.721 Y58.496 Z-4.000 F1200.000
G1 X22.721 Y54.020 Z-4.000 F1200.000
G1 X21.374 Y52.673 Z-4.000 F1200.000
G1 X22.721 Y52.673 Z-4.000 F1200.000
G1 X22.721 Y54.020 Z-4.000 F1200.000
G1 X22.721 Y54.020 Z-4.000 F600.000
G1 X22.721 Y52.673 Z-4.000 F1200.000
G1 X17.529 Y52.673 Z-4.000 F1200.000
G1 X17.529 Y77.098 Z-4.000 F1200.000
G1 X22.721 Y77.098 Z-4.000 F1200.000
G1 X22.721 Y69.541 Z-4.000 F1200.000
G3 X24.304 Y67.959 Z-4.000 I1.582 J-0.000 K0.000 F1200.000
G1 X48.417 Y67.959 Z-4.000 F1200.000
G1 X48.417 Y61.813 Z-4.000 F1200.000
G1 X24.304 Y61.813 Z-4.000 F1200.000
G3 X22.721 Y60.230 Z-4.000 I-0.000 J-1.582 K0.000 F1200.000
G1 X22.721 Y54.020 Z-4.000 F1200.000
G0 Z6.000
G0 X17.529 Y75.684 Z6.000
G0 X17.529 Y75.684 Z4.000
G1 X17.529 Y75.684 Z-4.000 F600.000
G1 X17.529 Y77.098 Z-4.000 F1200.000
G1 X18.943 Y77.098 Z-4.000 F1200.000
G1 X17.529 Y75.684 Z-4.000 F1200.000
G1 X17.529 Y71.208 Z-4.000 F1200.000
G1 X22.721 Y76.400 Z-4.000 F1200.000
G1 X22.721 Y71.924 Z-4.000 F1200.000
G1 X17.529 Y66.732 Z-4.000 F1200.000
G1 X17.529 Y62.256 Z-4.000 F1200.000
G1 X23.477 Y68.204 Z-4.000 F1200.000
G3 X24.304 Y67.959 Z-4.000 I0.763 J1.059 K0.000 F1200.000
G1 X27.708 Y67.959 Z-4.000 F1200.000
G1 X17.529 Y57.780 Z-4.000 F1200.000
G1 X17.529 Y53.304 Z-4.000 F1200.000
G1 X22.721 Y58.496 Z-4.000 F1200.000
G1 X22.721 Y60.230 Z-4.000 F1200.000
G2 X24.304 Y61.813 Z-4.000 I1.583 J-0.000 K0.000 F1200.000
G1 X26.038 Y61.813 Z-4.000 F1200.000
G1 X32.184 Y67.959 Z-4.000 F1200.000
G1 X36.660 Y67.959 Z-4.000 F1200.000
G1 X30.514 Y61.813 Z-4.000 F1200.000
G1 X34.990 Y61.813 Z-4.000 F1200.000
G1 X41.136 Y67.959 Z-4.000 F1200.000
G1 X45.612 Y67.959 Z-4.000 F1200.000
G1 X39.466 Y61.813 Z-4.000 F1200.000
G1 X43.942 Y61.813 Z-4.000 F1200.000
G1 X48.417 Y66.289 Z-4.000 F1200.000
G1 X48.417 Y61.813 Z-4.000 F1200.000
G0 Z6.000
G0 Z6.000
G0 X48.417 Y61.813
G0 X22.721 Y-20.054
G0 X22.721 Y-20.054 Z4.000
G1 X22.721 Y-20.054 Z-2.165 F600.000
G1 X22.721 Y-27.610 Z-2.165 F1200.000
G3 X24.304 Y-29.193 Z-2.165 I1.582 J-0.000 K0.000 F1200.000
G1 X48.417 Y-29.193 Z-2.165 F1200.000
G1 X48.417 Y-35.339 Z-2.165 F1200.000
G1 X24.304 Y-35.339 Z-2.165 F1200.000
G3 X22.721 Y-36.922 Z-2.165 I-0.000 J-1.582 K0.000 F1200.000
G1 X22.721 Y-44.479 Z-2.165 F1200.000
G1 X17.529 Y-44.479 Z-2.165 F1200.000
G1 X17.529 Y-20.054 Z-2.165 F1200.000
G1 X22.721 Y-20.054 Z-2.165 F1200.000
G0 Z6.000
G0 X17.529 Y-21.468 Z6.000
G0 X17.529 Y-21.468 Z4.000
G1 X17.529 Y-21.468 Z-2.165 F600.000
G1 X17.529 Y-20.054 Z-2.165 F1200.000
G1 X18.943 Y-20.054 Z-2.165 F1200.000
G1 X17.529 Y-21.468 Z-2.165 F1200.000
G1 X17.529 Y-25.944 Z-2.165 F1200.000
G1 X22.721 Y-20.752 Z-2.165 F1200.000
G1 X22.721 Y-25.228 Z-2.165 F1200.000
G1 X17.529 Y-30.420 Z-2.165 F1200.000
G1 X17.529 Y-34.896 Z-2.165 F1200.000
G1 X23.477 Y-28.948 Z-2.165 F1200.000
G3 X24.304 Y-29.193 Z-2.165 I0.763 J1.059 K0.000 F1200.000
G1 X27.708 Y-29.193 Z-2.165 F1200.000
G1 X17.529 Y-39.372 Z-2.165 F1200.000
G1 X17.529 Y-43.848 Z-2.165 F1200.000
G1 X22.721 Y-38.656 Z-2.165 F1200.000
G1 X22.721 Y-36.922 Z-2.165 F1200.000
G2 X24.304 Y-35.339 Z-2.165 I1.583 J-0.000 K0.000 F1200.000
G1 X26.038 Y-35.339 Z-2.165 F1200.000
G1 X32.184 Y-29.193 Z-2.165 F1200.000
G1 X36.660 Y-29.193 Z-2.165 F1200.000
G1 X30.514 Y-35.339 Z-2.165 F1200.000
G1 X34.990 Y-35.339 Z-2.165 F1200.000
G1 X41.136 Y-29.193 Z-2.165 F1200.000
G1 X45.612 Y-29.193 Z-2.165 F1200.000
G1 X39.466 Y-35.339 Z-2.165 F1200.000
G1 X43.942 Y-35.339 Z-2.165 F1200.000
G1 X48.417 Y-30.863 Z-2.165 F1200.000
G1 X48.417 Y-35.339 Z-2.165 F1200.000
G0 Z6.000
G0 X22.721 Y-43.132 Z6.000
G0 X22.721 Y-43.132 Z4.000
G1 X22.721 Y-43.132 Z-2.165 F600.000
G1 X22.721 Y-44.479 Z-2.165 F1200.000
G1 X21.374 Y-44.479 Z-2.165 F1200.000
G1 X22.721 Y-43.132 Z-2.165 F1200.000
G1 X22.721 Y-38.656 Z-2.165 F1200.000
G1 X17.529 Y-43.848 Z-2.165 F1200.000
G1 X17.529 Y-43.848 Z-4.000 F600.000
G1 X22.721 Y-38.656 Z-4.000 F1200.000
G1 X22.721 Y-43.132 Z-4.000 F1200.000
G1 X21.374 Y-44.479 Z-4.000 F1200.000
G1 X22.721 Y-44.479 Z-4.000 F1200.000
G1 X22.721 Y-43.132 Z-4.000 F1200.000
G1 X22.721 Y-43.132 Z-4.000 F600.000
G1 X22.721 Y-44.479 Z-4.000 F1200.000
G1 X17.529 Y-44.479 Z-4.000 F1200.000
G1 X17.529 Y-20.054 Z-4.000 F1200.000
G1 X22.721 Y-20.054 Z-4.000 F1200.000
G1 X22.721 Y-27.610 Z-4.000 F1200.000
G3 X24.304 Y-29.193 Z-4.000 I1.582 J-0.000 K0.000 F1200.000
G1 X48.417 Y-29.193 Z-4.000 F1200.000
G1 X48.417 Y-35.339 Z-4.000 F1200.000
G1 X24.304 Y-35.339 Z-4.000 F1200.000
G3 X22.721 Y-36.922 Z-4.000 I-0.000 J-1.582 K0.000 F1200.000
G1 X22.721 Y-43.132 Z-4.000 F1200.000
G0 Z6.000
G0 X17.529 Y-21.468 Z6.000
G0 X17.529 Y-21.468 Z4.000
G1 X17.529 Y-21.468 Z-4.000 F600.000
G1 X17.529 Y-20.054 Z-4.000 F1200.000
G1 X18.943 Y-20.054 Z-4.000 F1200.000
G1 X17.529 Y-21.468 Z-4.000 F1200.000
G1 X17.529 Y-25.944 Z-4.000 F1200.000
G1 X22.721 Y-20.752 Z-4.000 F1200.000
G1 X22.721 Y-25.228 Z-4.000 F1200.000
G1 X17.529 Y-30.420 Z-4.000 F1200.000
G1 X17.529 Y-34.896 Z-4.000 F1200.000
G1 X23.477 Y-28.948 Z-4.000 F1200.000
G3 X24.304 Y-29.193 Z-4.000 I0.763 J1.059 K0.000 F1200.000
G1 X27.708 Y-29.193 Z-4.000 F1200.000
G1 X17.529 Y-39.372 Z-4.000 F1200.000
G1 X17.529 Y-43.848 Z-4.000 F1200.000
G1 X22.721 Y-38.656 Z-4.000 F1200.000
G1 X22.721 Y-36.922 Z-4.000 F1200.000
G2 X24.304 Y-35.339 Z-4.000 I1.583 J-0.000 K0.000 F1200.000
G1 X26.038 Y-35.339 Z-4.000 F1200.000
G1 X32.184 Y-29.193 Z-4.000 F1200.000
G1 X36.660 Y-29.193 Z-4.000 F1200.000
G1 X30.514 Y-35.339 Z-4.000 F1200.000
G1 X34.990 Y-35.339 Z-4.000 F1200.000
G1 X41.136 Y-29.193 Z-4.000 F1200.000
G1 X45.612 Y-29.193 Z-4.000 F1200.000
G1 X39.466 Y-35.339 Z-4.000 F1200.000
G1 X43.942 Y-35.339 Z-4.000 F1200.000
G1 X48.417 Y-30.863 Z-4.000 F1200.000
G1 X48.417 Y-35.339 Z-4.000 F1200.000
G0 Z6.000
G0 Z6.000
G0 X48.417 Y-35.339
G0 X43.139 Y-50.461
G0 X43.139 Y-50.461 Z4.000
G1 X43.139 Y-50.461 Z-2.165 F600.000
G2 X46.804 Y-52.998 Z-2.165 I-2.758 J-7.901 K0.000 F1200.000
G2 X48.623 Y-56.398 Z-2.165 I-7.963 J-6.447 K0.000 F1200.000
G2 X48.802 Y-66.594 Z-2.165 I-18.035 J-5.416 K0.000 F1200.000
G2 X46.415 Y-70.973 Z-2.165 I-10.048 J2.638 K0.000 F1200.000
G2 X40.753 Y-73.703 Z-2.165 I-6.510 J6.265 K0.000 F1200.000
G1 X40.753 Y-67.191 Z-2.165 F1200.000
G3 X43.971 Y-64.367 Z-2.165 I-1.261 J4.681 K0.000 F1200.000
G3 X44.260 Y-60.166 Z-2.165 I-5.996 J2.524 K0.000 F1200.000
G3 X42.403 Y-57.292 Z-2.165 I-4.970 J-1.174 K0.000 F1200.000
G3 X36.830 Y-57.993 Z-2.165 I-2.428 J-3.200 K0.000 F1200.000
G3 X35.261 Y-61.470 Z-2.165 I8.302 J-5.839 K0.000 F1200.000
G3 X34.267 Y-65.236 Z-2.165 I84.148 J-24.207 K0.000 F1200.000
G2 X32.650 Y-69.466 Z-2.165 I-20.439 J5.392 K0.000 F1200.000
G2 X28.677 Y-72.911 Z-2.165 I-6.309 J3.262 K0.000 F1200.000
G2 X24.084 Y-73.297 Z-2.165 I-3.192 J10.441 K0.000 F1200.000
G2 X19.360 Y-71.035 Z-2.165 I0.812 J7.758 K0.000 F1200.000
G2 X17.318 Y-67.542 Z-2.165 I6.681 J6.249 K0.000 F1200.000
G2 X16.528 Y-62.154 Z-2.165 I15.709 J5.054 K0.000 F1200.000
G2 X17.299 Y-56.982 Z-2.165 I16.105 J0.245 K0.000 F1200.000
G2 X19.499 Y-53.388 Z-2.165 I8.533 J-2.753 K0.000 F1200.000
G2 X24.489 Y-51.143 Z-2.165 I5.739 J-6.086 K0.000 F1200.000
G1 X24.489 Y-57.405 Z-2.165 F1200.000
G3 X22.022 Y-59.296 Z-2.165 I1.214 J-4.140 K0.000 F1200.000
G3 X21.877 Y-65.039 Z-2.165 I5.259 J-3.005 K0.000 F1200.000
G3 X27.610 Y-66.148 Z-2.165 I3.289 J1.630 K0.000 F1200.000
G3 X29.164 Y-63.670 Z-2.165 I-4.253 J4.393 K0.000 F1200.000
G3 X30.439 Y-59.318 Z-2.165 I-39.661 J13.984 K0.000 F1200.000
G2 X32.408 Y-54.045 Z-2.165 I22.600 J-5.435 K0.000 F1200.000
G2 X36.060 Y-50.609 Z-2.165 I6.830 J-3.601 K0.000 F1200.000
G2 X41.206 Y-50.034 Z-2.165 I3.705 J-9.851 K0.000 F1200.000
G2 X43.139 Y-50.461 Z-2.165 I-0.825 J-8.328 K0.000 F1200.000
G0 Z6.000
G0 X34.599 Y-51.457 Z6.000
G0 X34.599 Y-51.457 Z4.000
G1 X34.599 Y-51.457 Z-2.165 F600.000
G1 X33.201 Y-52.855 Z-2.165 F1200.000
G2 X34.599 Y-51.457 Z-2.165 I5.576 J-4.178 K0.000 F1200.000
G2 X36.060 Y-50.609 Z-2.165 I3.868 J-4.983 K0.000 F1200.000
G2 X40.554 Y-49.978 Z-2.165 I3.629 J-9.519 K0.000 F1200.000
G1 X30.155 Y-60.377 Z-2.165 F1200.000
G0 Z6.000
G0 X34.275 Y-65.209 Z6.000
G0 X34.275 Y-65.209 Z4.000
G1 X34.275 Y-65.209 Z-2.165 F600.000
G2 X32.248 Y-70.122 Z-2.165 I-17.003 J4.139 K0.000 F1200.000
G2 X27.274 Y-73.250 Z-2.165 I-5.839 J3.767 K0.000 F1200.000
G2 X26.125 Y-73.359 Z-2.165 I-1.274 J7.352 K0.000 F1200.000
G1 X34.275 Y-65.209 Z-2.165 F1200.000
G2 X35.261 Y-61.470 Z-2.165 I84.456 J-20.274 K0.000 F1200.000
G2 X36.417 Y-58.591 Z-2.165 I11.102 J-2.786 K0.000 F1200.000
G1 X22.163 Y-72.845 Z-2.165 F1200.000
G0 Z6.000
G0 X23.988 Y-57.592 Z6.000
G0 X23.988 Y-57.592 Z4.000
G1 X23.988 Y-57.592 Z-2.165 F600.000
G2 X24.489 Y-57.405 Z-2.165 I1.068 J-2.103 K0.000 F1200.000
G1 X24.489 Y-57.090 Z-2.165 F1200.000
G1 X23.988 Y-57.592 Z-2.165 F1200.000
G0 Z6.000
G0 X24.489 Y-52.614 Z6.000
G0 X24.489 Y-52.614 Z4.000
G1 X24.489 Y-52.614 Z-2.165 F600.000
G1 X24.489 Y-51.143 Z-2.165 F1200.000
G3 X23.394 Y-51.328 Z-2.165 I0.654 J-7.192 K0.000 F1200.000
G3 X18.065 Y-55.259 Z-2.165 I1.615 J-7.767 K0.000 F1200.000
G3 X16.599 Y-60.505 Z-2.165 I11.250 J-5.972 K0.000 F1200.000
G1 X24.489 Y-52.614 Z-2.165 F1200.000
G1 X24.489 Y-57.090 Z-2.165 F1200.000
G1 X23.988 Y-57.592 Z-2.165 F1200.000
G3 X21.745 Y-59.834 Z-2.165 I1.681 J-3.923 K0.000 F1200.000
G1 X16.712 Y-64.868 Z-2.165 F1200.000
G3 X17.656 Y-68.400 Z-2.165 I12.746 J1.516 K0.000 F1200.000
G1 X21.608 Y-64.448 Z-2.165 F1200.000
G3 X21.877 Y-65.039 Z-2.165 I5.506 J2.154 K0.000 F1200.000
G3 X23.741 Y-66.791 Z-2.165 I3.318 J1.662 K0.000 F1200.000
G1 X19.430 Y-71.101 Z-2.165 F1200.000
G3 X22.163 Y-72.845 Z-2.165 I5.174 J5.097 K0.000 F1200.000
G1 X36.417 Y-58.591 Z-2.165 F1200.000
G2 X38.060 Y-56.948 Z-2.165 I3.934 J-2.291 K0.000 F1200.000
G1 X44.126 Y-50.882 Z-2.165 F1200.000
G2 X46.653 Y-52.831 Z-2.165 I-3.309 J-6.904 K0.000 F1200.000
G1 X42.278 Y-57.206 Z-2.165 F1200.000
G2 X44.147 Y-59.812 Z-2.165 I-2.778 J-3.967 K0.000 F1200.000
G1 X48.337 Y-55.623 Z-2.165 F1200.000
G2 X49.244 Y-59.191 Z-2.165 I-12.609 J-5.107 K0.000 F1200.000
G1 X43.867 Y-64.568 Z-2.165 F1200.000
G0 Z6.000
G0 X40.753 Y-67.683 Z6.000
G0 X40.753 Y-67.683 Z4.000
G1 X40.753 Y-67.683 Z-2.165 F600.000
G1 X41.537 Y-66.899 Z-2.165 F1200.000
G2 X40.753 Y-67.191 Z-2.165 I-1.548 J2.953 K0.000 F1200.000
G1 X40.753 Y-67.683 Z-2.165 F1200.000
G1 X40.753 Y-72.159 Z-2.165 F1200.000
G1 X49.344 Y-63.568 Z-2.165 F1200.000
G2 X48.802 Y-66.594 Z-2.165 I-15.861 J1.277 K0.000 F1200.000
G2 X46.415 Y-70.973 Z-2.165 I-10.048 J2.638 K0.000 F1200.000
G0 Z6.000
G0 Z6.000
(Finish operation: START_Pocket_Shape)
(Begin postamble)
M5
G17 G90
M2
