(Exported by FreeCAD)
(Post Processor: grbl_post)
(Output Time:2022-05-17 22:05:19.516317)
(Begin preamble)
G17 G90
G21
(Begin operation: Fixture)
(Path: Fixture)
G54
(Finish operation: Fixture)
(Begin operation: TC: endmill_FC1D317)
(Path: TC: endmill_FC1D317)
(TC: endmill_FC1D317)
(Begin toolchange)
( M6 T1.0 )
M3 S0.0
(Finish operation: TC: endmill_FC1D317)
(Begin operation: RampEntryDressup)
(Path: RampEntryDressup)
G0 X0.000 Y0.000 Z6.000
G0 X3.122 Y3.122 Z6.000
G0 X3.122 Y3.122 Z4.000
G1 X3.509 Y2.675 Z3.943
G1 X3.833 Y2.182 Z3.876
G1 X4.090 Y1.652 Z3.799
G1 X4.274 Y1.094 Z3.714
G1 X4.382 Y0.518 Z3.622
G1 X4.413 Y-0.067 Z3.525
G1 X4.367 Y-0.651 Z3.424
G1 X4.242 Y-1.222 Z3.321
G1 X4.043 Y-1.772 Z3.219
G1 X3.773 Y-2.291 Z3.118
G1 X3.435 Y-2.770 Z3.021
G1 X3.037 Y-3.200 Z2.929
G1 X2.584 Y-3.575 Z2.844
G1 X2.085 Y-3.887 Z2.767
G1 X1.548 Y-4.132 Z2.699
G1 X0.982 Y-4.304 Z2.643
G1 X0.405 Y-4.384 Z2.631
G1 X-0.177 Y-4.391 Z2.603
G1 X-0.755 Y-4.324 Z2.560
G1 X-1.318 Y-4.185 Z2.501
G1 X-1.857 Y-3.977 Z2.427
G1 X-2.364 Y-3.702 Z2.341
G1 X-2.830 Y-3.366 Z2.244
G1 X-3.247 Y-2.973 Z2.136
G1 X-3.608 Y-2.531 Z2.020
G1 X-3.908 Y-2.046 Z1.898
G1 X-4.141 Y-1.527 Z1.771
G1 X-4.304 Y-0.982 Z1.643
G1 X-4.394 Y-0.421 Z1.514
G1 X-4.409 Y0.148 Z1.388
G1 X-4.349 Y0.715 Z1.266
G1 X-4.215 Y1.270 Z1.150
G1 X-4.010 Y1.805 Z1.042
G1 X-3.736 Y2.310 Z0.944
G1 X-3.399 Y2.777 Z0.858
G1 X-3.003 Y3.199 Z0.785
G1 X-2.556 Y3.569 Z0.726
G1 X-2.065 Y3.879 Z0.682
G1 X-1.537 Y4.126 Z0.654
G1 X-0.982 Y4.304 Z0.643
G1 X-0.432 Y4.394 Z0.567
G1 X0.125 Y4.413 Z0.487
G1 X0.679 Y4.362 Z0.405
G1 X1.222 Y4.242 Z0.321
G1 X1.746 Y4.055 Z0.238
G1 X2.242 Y3.803 Z0.156
G1 X2.703 Y3.490 Z0.076
G1 X3.122 Y3.122 Z0.000
G1 X3.509 Y2.679 Z-0.014
G1 X3.834 Y2.189 Z-0.031
G1 X4.091 Y1.660 Z-0.050
G1 X4.275 Y1.102 Z-0.071
G1 X4.384 Y0.525 Z-0.094
G1 X4.414 Y-0.062 Z-0.119
G1 X4.367 Y-0.648 Z-0.144
G1 X4.242 Y-1.222 Z-0.170
G1 X4.043 Y-1.775 Z-0.195
G1 X3.771 Y-2.296 Z-0.221
G1 X3.433 Y-2.776 Z-0.245
G1 X3.033 Y-3.208 Z-0.268
G1 X2.580 Y-3.582 Z-0.289
G1 X2.081 Y-3.893 Z-0.309
G1 X1.546 Y-4.135 Z-0.325
G1 X0.982 Y-4.304 Z-0.339
G1 X0.412 Y-4.395 Z-0.341
G1 X-0.166 Y-4.411 Z-0.348
G1 X-0.741 Y-4.351 Z-0.358
G1 X-1.302 Y-4.217 Z-0.373
G1 X-1.842 Y-4.011 Z-0.391
G1 X-2.350 Y-3.736 Z-0.413
G1 X-2.818 Y-3.398 Z-0.437
G1 X-3.237 Y-3.001 Z-0.464
G1 X-3.601 Y-2.553 Z-0.494
G1 X-3.904 Y-2.062 Z-0.525
G1 X-4.139 Y-1.535 Z-0.557
G1 X-4.304 Y-0.982 Z-0.589
G1 X-4.396 Y-0.413 Z-0.622
G1 X-4.412 Y0.164 Z-0.654
G1 X-4.352 Y0.738 Z-0.685
G1 X-4.219 Y1.299 Z-0.714
G1 X-4.013 Y1.839 Z-0.741
G1 X-3.738 Y2.346 Z-0.766
G1 X-3.400 Y2.814 Z-0.787
G1 X-3.003 Y3.234 Z-0.806
G1 X-2.555 Y3.599 Z-0.820
G1 X-2.063 Y3.902 Z-0.831
G1 X-1.536 Y4.138 Z-0.837
G1 X-0.982 Y4.304 Z-0.839
G1 X-0.433 Y4.394 Z-0.858
G1 X0.124 Y4.413 Z-0.878
G1 X0.678 Y4.363 Z-0.899
G1 X1.222 Y4.242 Z-0.920
G1 X1.747 Y4.055 Z-0.941
G1 X2.243 Y3.803 Z-0.961
G1 X2.704 Y3.490 Z-0.981
G1 X3.122 Y3.122 Z-1.000
G1 X3.509 Y2.679 Z-1.014
G1 X3.834 Y2.189 Z-1.031
G1 X4.091 Y1.660 Z-1.050
G1 X4.275 Y1.102 Z-1.071
G1 X4.384 Y0.525 Z-1.094
G1 X4.414 Y-0.062 Z-1.119
G1 X4.367 Y-0.648 Z-1.144
G1 X4.242 Y-1.222 Z-1.170
G1 X4.043 Y-1.775 Z-1.195
G1 X3.771 Y-2.296 Z-1.221
G1 X3.433 Y-2.776 Z-1.245
G1 X3.033 Y-3.208 Z-1.268
G1 X2.580 Y-3.582 Z-1.289
G1 X2.081 Y-3.893 Z-1.309
G1 X1.546 Y-4.135 Z-1.325
G1 X0.982 Y-4.304 Z-1.339
G1 X0.412 Y-4.395 Z-1.341
G1 X-0.166 Y-4.411 Z-1.348
G1 X-0.741 Y-4.351 Z-1.358
G1 X-1.302 Y-4.217 Z-1.373
G1 X-1.842 Y-4.011 Z-1.391
G1 X-2.350 Y-3.736 Z-1.413
G1 X-2.818 Y-3.398 Z-1.437
G1 X-3.237 Y-3.001 Z-1.464
G1 X-3.601 Y-2.553 Z-1.494
G1 X-3.904 Y-2.062 Z-1.525
G1 X-4.139 Y-1.535 Z-1.557
G1 X-4.304 Y-0.982 Z-1.589
G1 X-4.396 Y-0.413 Z-1.622
G1 X-4.412 Y0.164 Z-1.654
G1 X-4.352 Y0.738 Z-1.685
G1 X-4.219 Y1.299 Z-1.714
G1 X-4.013 Y1.839 Z-1.741
G1 X-3.738 Y2.346 Z-1.766
G1 X-3.400 Y2.814 Z-1.787
G1 X-3.003 Y3.234 Z-1.806
G1 X-2.555 Y3.599 Z-1.820
G1 X-2.063 Y3.902 Z-1.831
G1 X-1.536 Y4.138 Z-1.837
G1 X-0.982 Y4.304 Z-1.839
G1 X-0.433 Y4.394 Z-1.858
G1 X0.124 Y4.413 Z-1.878
G1 X0.678 Y4.363 Z-1.899
G1 X1.222 Y4.242 Z-1.920
G1 X1.747 Y4.055 Z-1.941
G1 X2.243 Y3.803 Z-1.961
G1 X2.704 Y3.490 Z-1.981
G1 X3.122 Y3.122 Z-2.000
G1 X3.509 Y2.679 Z-2.014
G1 X3.834 Y2.189 Z-2.031
G1 X4.091 Y1.660 Z-2.050
G1 X4.275 Y1.102 Z-2.071
G1 X4.384 Y0.525 Z-2.094
G1 X4.414 Y-0.062 Z-2.119
G1 X4.367 Y-0.648 Z-2.144
G1 X4.242 Y-1.222 Z-2.170
G1 X4.043 Y-1.775 Z-2.195
G1 X3.771 Y-2.296 Z-2.221
G1 X3.433 Y-2.776 Z-2.245
G1 X3.033 Y-3.208 Z-2.268
G1 X2.580 Y-3.582 Z-2.289
G1 X2.081 Y-3.893 Z-2.309
G1 X1.546 Y-4.135 Z-2.325
G1 X0.982 Y-4.304 Z-2.339
G1 X0.412 Y-4.395 Z-2.341
G1 X-0.166 Y-4.411 Z-2.348
G1 X-0.741 Y-4.351 Z-2.358
G1 X-1.302 Y-4.217 Z-2.373
G1 X-1.842 Y-4.011 Z-2.391
G1 X-2.350 Y-3.736 Z-2.413
G1 X-2.818 Y-3.398 Z-2.437
G1 X-3.237 Y-3.001 Z-2.464
G1 X-3.601 Y-2.553 Z-2.494
G1 X-3.904 Y-2.062 Z-2.525
G1 X-4.139 Y-1.535 Z-2.557
G1 X-4.304 Y-0.982 Z-2.589
G1 X-4.396 Y-0.413 Z-2.622
G1 X-4.412 Y0.164 Z-2.654
G1 X-4.352 Y0.738 Z-2.685
G1 X-4.219 Y1.299 Z-2.714
G1 X-4.013 Y1.839 Z-2.741
G1 X-3.738 Y2.346 Z-2.766
G1 X-3.400 Y2.814 Z-2.787
G1 X-3.003 Y3.234 Z-2.806
G1 X-2.555 Y3.599 Z-2.820
G1 X-2.063 Y3.902 Z-2.831
G1 X-1.536 Y4.138 Z-2.837
G1 X-0.982 Y4.304 Z-2.839
G1 X-0.433 Y4.394 Z-2.858
G1 X0.124 Y4.413 Z-2.878
G1 X0.678 Y4.363 Z-2.899
G1 X1.222 Y4.242 Z-2.920
G1 X1.747 Y4.055 Z-2.941
G1 X2.243 Y3.803 Z-2.961
G1 X2.704 Y3.490 Z-2.981
G1 X3.122 Y3.122 Z-3.000
G1 X3.509 Y2.679 Z-3.014
G1 X3.834 Y2.189 Z-3.031
G1 X4.091 Y1.660 Z-3.050
G1 X4.275 Y1.102 Z-3.071
G1 X4.384 Y0.525 Z-3.094
G1 X4.414 Y-0.062 Z-3.119
G1 X4.367 Y-0.648 Z-3.144
G1 X4.242 Y-1.222 Z-3.170
G1 X4.043 Y-1.775 Z-3.195
G1 X3.771 Y-2.296 Z-3.221
G1 X3.433 Y-2.776 Z-3.245
G1 X3.033 Y-3.208 Z-3.268
G1 X2.580 Y-3.582 Z-3.289
G1 X2.081 Y-3.893 Z-3.309
G1 X1.546 Y-4.135 Z-3.325
G1 X0.982 Y-4.304 Z-3.339
G1 X0.412 Y-4.395 Z-3.341
G1 X-0.166 Y-4.411 Z-3.348
G1 X-0.741 Y-4.351 Z-3.358
G1 X-1.302 Y-4.217 Z-3.373
G1 X-1.842 Y-4.011 Z-3.391
G1 X-2.350 Y-3.736 Z-3.413
G1 X-2.818 Y-3.398 Z-3.437
G1 X-3.237 Y-3.001 Z-3.464
G1 X-3.601 Y-2.553 Z-3.494
G1 X-3.904 Y-2.062 Z-3.525
G1 X-4.139 Y-1.535 Z-3.557
G1 X-4.304 Y-0.982 Z-3.589
G1 X-4.396 Y-0.413 Z-3.622
G1 X-4.412 Y0.164 Z-3.654
G1 X-4.352 Y0.738 Z-3.685
G1 X-4.219 Y1.299 Z-3.714
G1 X-4.013 Y1.839 Z-3.741
G1 X-3.738 Y2.346 Z-3.766
G1 X-3.400 Y2.814 Z-3.787
G1 X-3.003 Y3.234 Z-3.806
G1 X-2.555 Y3.599 Z-3.820
G1 X-2.063 Y3.902 Z-3.831
G1 X-1.536 Y4.138 Z-3.837
G1 X-0.982 Y4.304 Z-3.839
G1 X-0.433 Y4.394 Z-3.858
G1 X0.124 Y4.413 Z-3.878
G1 X0.678 Y4.363 Z-3.899
G1 X1.222 Y4.242 Z-3.920
G1 X1.747 Y4.055 Z-3.941
G1 X2.243 Y3.803 Z-3.961
G1 X2.704 Y3.490 Z-3.981
G1 X3.122 Y3.122 Z-4.000
G1 X3.509 Y2.679 Z-4.014
G1 X3.834 Y2.189 Z-4.031
G1 X4.091 Y1.660 Z-4.050
G1 X4.275 Y1.102 Z-4.071
G1 X4.384 Y0.525 Z-4.094
G1 X4.414 Y-0.062 Z-4.119
G1 X4.367 Y-0.648 Z-4.144
G1 X4.242 Y-1.222 Z-4.170
G1 X4.043 Y-1.775 Z-4.195
G1 X3.771 Y-2.296 Z-4.221
G1 X3.433 Y-2.776 Z-4.245
G1 X3.033 Y-3.208 Z-4.268
G1 X2.580 Y-3.582 Z-4.289
G1 X2.081 Y-3.893 Z-4.309
G1 X1.546 Y-4.135 Z-4.325
G1 X0.982 Y-4.304 Z-4.339
G1 X0.412 Y-4.395 Z-4.341
G1 X-0.166 Y-4.411 Z-4.348
G1 X-0.741 Y-4.351 Z-4.358
G1 X-1.302 Y-4.217 Z-4.373
G1 X-1.842 Y-4.011 Z-4.391
G1 X-2.350 Y-3.736 Z-4.413
G1 X-2.818 Y-3.398 Z-4.437
G1 X-3.237 Y-3.001 Z-4.464
G1 X-3.601 Y-2.553 Z-4.494
G1 X-3.904 Y-2.062 Z-4.525
G1 X-4.139 Y-1.535 Z-4.557
G1 X-4.304 Y-0.982 Z-4.589
G1 X-4.396 Y-0.413 Z-4.622
G1 X-4.412 Y0.164 Z-4.654
G1 X-4.352 Y0.738 Z-4.685
G1 X-4.219 Y1.299 Z-4.714
G1 X-4.013 Y1.839 Z-4.741
G1 X-3.738 Y2.346 Z-4.766
G1 X-3.400 Y2.814 Z-4.787
G1 X-3.003 Y3.234 Z-4.806
G1 X-2.555 Y3.599 Z-4.820
G1 X-2.063 Y3.902 Z-4.831
G1 X-1.536 Y4.138 Z-4.837
G1 X-0.982 Y4.304 Z-4.839
G1 X-0.433 Y4.394 Z-4.858
G1 X0.124 Y4.413 Z-4.878
G1 X0.678 Y4.363 Z-4.899
G1 X1.222 Y4.242 Z-4.920
G1 X1.747 Y4.055 Z-4.941
G1 X2.243 Y3.803 Z-4.961
G1 X2.704 Y3.490 Z-4.981
G1 X3.122 Y3.122 Z-5.000
G1 X3.509 Y2.679 Z-5.014
G1 X3.834 Y2.189 Z-5.031
G1 X4.091 Y1.660 Z-5.050
G1 X4.275 Y1.102 Z-5.071
G1 X4.384 Y0.525 Z-5.094
G1 X4.414 Y-0.062 Z-5.119
G1 X4.367 Y-0.648 Z-5.144
G1 X4.242 Y-1.222 Z-5.170
G1 X4.043 Y-1.775 Z-5.195
G1 X3.771 Y-2.296 Z-5.221
G1 X3.433 Y-2.776 Z-5.245
G1 X3.033 Y-3.208 Z-5.268
G1 X2.580 Y-3.582 Z-5.289
G1 X2.081 Y-3.893 Z-5.309
G1 X1.546 Y-4.135 Z-5.325
G1 X0.982 Y-4.304 Z-5.339
G1 X0.412 Y-4.395 Z-5.341
G1 X-0.166 Y-4.411 Z-5.348
G1 X-0.741 Y-4.351 Z-5.358
G1 X-1.302 Y-4.217 Z-5.373
G1 X-1.842 Y-4.011 Z-5.391
G1 X-2.350 Y-3.736 Z-5.413
G1 X-2.818 Y-3.398 Z-5.437
G1 X-3.237 Y-3.001 Z-5.464
G1 X-3.601 Y-2.553 Z-5.494
G1 X-3.904 Y-2.062 Z-5.525
G1 X-4.139 Y-1.535 Z-5.557
G1 X-4.304 Y-0.982 Z-5.589
G1 X-4.396 Y-0.413 Z-5.622
G1 X-4.412 Y0.164 Z-5.654
G1 X-4.352 Y0.738 Z-5.685
G1 X-4.219 Y1.299 Z-5.714
G1 X-4.013 Y1.839 Z-5.741
G1 X-3.738 Y2.346 Z-5.766
G1 X-3.400 Y2.814 Z-5.787
G1 X-3.003 Y3.234 Z-5.806
G1 X-2.555 Y3.599 Z-5.820
G1 X-2.063 Y3.902 Z-5.831
G1 X-1.536 Y4.138 Z-5.837
G1 X-0.982 Y4.304 Z-5.839
G1 X-0.433 Y4.394 Z-5.858
G1 X0.124 Y4.413 Z-5.878
G1 X0.678 Y4.363 Z-5.899
G1 X1.222 Y4.242 Z-5.920
G1 X1.747 Y4.055 Z-5.941
G1 X2.243 Y3.803 Z-5.961
G1 X2.704 Y3.490 Z-5.981
G1 X3.122 Y3.122 Z-6.000
G1 X3.509 Y2.679 Z-6.014
G1 X3.834 Y2.189 Z-6.031
G1 X4.091 Y1.660 Z-6.050
G1 X4.275 Y1.102 Z-6.071
G1 X4.384 Y0.525 Z-6.094
G1 X4.414 Y-0.062 Z-6.119
G1 X4.367 Y-0.648 Z-6.144
G1 X4.242 Y-1.222 Z-6.170
G1 X4.043 Y-1.775 Z-6.195
G1 X3.771 Y-2.296 Z-6.221
G1 X3.433 Y-2.776 Z-6.245
G1 X3.033 Y-3.208 Z-6.268
G1 X2.580 Y-3.582 Z-6.289
G1 X2.081 Y-3.893 Z-6.309
G1 X1.546 Y-4.135 Z-6.325
G1 X0.982 Y-4.304 Z-6.339
G1 X0.412 Y-4.395 Z-6.341
G1 X-0.166 Y-4.411 Z-6.348
G1 X-0.741 Y-4.351 Z-6.358
G1 X-1.302 Y-4.217 Z-6.373
G1 X-1.842 Y-4.011 Z-6.391
G1 X-2.350 Y-3.736 Z-6.413
G1 X-2.818 Y-3.398 Z-6.437
G1 X-3.237 Y-3.001 Z-6.464
G1 X-3.601 Y-2.553 Z-6.494
G1 X-3.904 Y-2.062 Z-6.525
G1 X-4.139 Y-1.535 Z-6.557
G1 X-4.304 Y-0.982 Z-6.589
G1 X-4.396 Y-0.413 Z-6.622
G1 X-4.412 Y0.164 Z-6.654
G1 X-4.352 Y0.738 Z-6.685
G1 X-4.219 Y1.299 Z-6.714
G1 X-4.013 Y1.839 Z-6.741
G1 X-3.738 Y2.346 Z-6.766
G1 X-3.400 Y2.814 Z-6.787
G1 X-3.003 Y3.234 Z-6.806
G1 X-2.555 Y3.599 Z-6.820
G1 X-2.063 Y3.902 Z-6.831
G1 X-1.536 Y4.138 Z-6.837
G1 X-0.982 Y4.304 Z-6.839
G1 X-0.433 Y4.394 Z-6.858
G1 X0.124 Y4.413 Z-6.878
G1 X0.678 Y4.363 Z-6.899
G1 X1.222 Y4.242 Z-6.920
G1 X1.747 Y4.055 Z-6.941
G1 X2.243 Y3.803 Z-6.961
G1 X2.704 Y3.490 Z-6.981
G1 X3.122 Y3.122 Z-7.000
G1 X3.509 Y2.679 Z-7.014
G1 X3.834 Y2.189 Z-7.031
G1 X4.091 Y1.660 Z-7.050
G1 X4.275 Y1.102 Z-7.071
G1 X4.384 Y0.525 Z-7.094
G1 X4.414 Y-0.062 Z-7.119
G1 X4.367 Y-0.648 Z-7.144
G1 X4.242 Y-1.222 Z-7.170
G1 X4.043 Y-1.775 Z-7.195
G1 X3.771 Y-2.296 Z-7.221
G1 X3.433 Y-2.776 Z-7.245
G1 X3.033 Y-3.208 Z-7.268
G1 X2.580 Y-3.582 Z-7.289
G1 X2.081 Y-3.893 Z-7.309
G1 X1.546 Y-4.135 Z-7.325
G1 X0.982 Y-4.304 Z-7.339
G1 X0.412 Y-4.395 Z-7.341
G1 X-0.166 Y-4.411 Z-7.348
G1 X-0.741 Y-4.351 Z-7.358
G1 X-1.302 Y-4.217 Z-7.373
G1 X-1.842 Y-4.011 Z-7.391
G1 X-2.350 Y-3.736 Z-7.413
G1 X-2.818 Y-3.398 Z-7.437
G1 X-3.237 Y-3.001 Z-7.464
G1 X-3.601 Y-2.553 Z-7.494
G1 X-3.904 Y-2.062 Z-7.525
G1 X-4.139 Y-1.535 Z-7.557
G1 X-4.304 Y-0.982 Z-7.589
G1 X-4.396 Y-0.413 Z-7.622
G1 X-4.412 Y0.164 Z-7.654
G1 X-4.352 Y0.738 Z-7.685
G1 X-4.219 Y1.299 Z-7.714
G1 X-4.013 Y1.839 Z-7.741
G1 X-3.738 Y2.346 Z-7.766
G1 X-3.400 Y2.814 Z-7.787
G1 X-3.003 Y3.234 Z-7.806
G1 X-2.555 Y3.599 Z-7.820
G1 X-2.063 Y3.902 Z-7.831
G1 X-1.536 Y4.138 Z-7.837
G1 X-0.982 Y4.304 Z-7.839
G1 X-0.433 Y4.394 Z-7.858
G1 X0.124 Y4.413 Z-7.878
G1 X0.678 Y4.363 Z-7.899
G1 X1.222 Y4.242 Z-7.920
G1 X1.747 Y4.055 Z-7.941
G1 X2.243 Y3.803 Z-7.961
G1 X2.704 Y3.490 Z-7.981
G1 X3.122 Y3.122 Z-8.000
G1 X3.509 Y2.679 Z-8.014
G1 X3.834 Y2.189 Z-8.031
G1 X4.091 Y1.660 Z-8.050
G1 X4.275 Y1.102 Z-8.071
G1 X4.384 Y0.525 Z-8.094
G1 X4.414 Y-0.062 Z-8.119
G1 X4.367 Y-0.648 Z-8.144
G1 X4.242 Y-1.222 Z-8.170
G1 X4.043 Y-1.775 Z-8.195
G1 X3.771 Y-2.296 Z-8.221
G1 X3.433 Y-2.776 Z-8.245
G1 X3.033 Y-3.208 Z-8.268
G1 X2.580 Y-3.582 Z-8.289
G1 X2.081 Y-3.893 Z-8.309
G1 X1.546 Y-4.135 Z-8.325
G1 X0.982 Y-4.304 Z-8.339
G1 X0.412 Y-4.395 Z-8.341
G1 X-0.166 Y-4.411 Z-8.348
G1 X-0.741 Y-4.351 Z-8.358
G1 X-1.302 Y-4.217 Z-8.373
G1 X-1.842 Y-4.011 Z-8.391
G1 X-2.350 Y-3.736 Z-8.413
G1 X-2.818 Y-3.398 Z-8.437
G1 X-3.237 Y-3.001 Z-8.464
G1 X-3.601 Y-2.553 Z-8.494
G1 X-3.904 Y-2.062 Z-8.525
G1 X-4.139 Y-1.535 Z-8.557
G1 X-4.304 Y-0.982 Z-8.589
G1 X-4.396 Y-0.413 Z-8.622
G1 X-4.412 Y0.164 Z-8.654
G1 X-4.352 Y0.738 Z-8.685
G1 X-4.219 Y1.299 Z-8.714
G1 X-4.013 Y1.839 Z-8.741
G1 X-3.738 Y2.346 Z-8.766
G1 X-3.400 Y2.814 Z-8.787
G1 X-3.003 Y3.234 Z-8.806
G1 X-2.555 Y3.599 Z-8.820
G1 X-2.063 Y3.902 Z-8.831
G1 X-1.536 Y4.138 Z-8.837
G1 X-0.982 Y4.304 Z-8.839
G1 X-0.433 Y4.394 Z-8.858
G1 X0.124 Y4.413 Z-8.878
G1 X0.678 Y4.363 Z-8.899
G1 X1.222 Y4.242 Z-8.920
G1 X1.747 Y4.055 Z-8.941
G1 X2.243 Y3.803 Z-8.961
G1 X2.704 Y3.490 Z-8.981
G1 X3.122 Y3.122 Z-9.000
G1 X3.509 Y2.679 Z-9.014
G1 X3.834 Y2.189 Z-9.031
G1 X4.091 Y1.660 Z-9.050
G1 X4.275 Y1.102 Z-9.071
G1 X4.384 Y0.525 Z-9.094
G1 X4.414 Y-0.062 Z-9.119
G1 X4.367 Y-0.648 Z-9.144
G1 X4.242 Y-1.222 Z-9.170
G1 X4.043 Y-1.775 Z-9.195
G1 X3.771 Y-2.296 Z-9.221
G1 X3.433 Y-2.776 Z-9.245
G1 X3.033 Y-3.208 Z-9.268
G1 X2.580 Y-3.582 Z-9.289
G1 X2.081 Y-3.893 Z-9.309
G1 X1.546 Y-4.135 Z-9.325
G1 X0.982 Y-4.304 Z-9.339
G1 X0.412 Y-4.395 Z-9.341
G1 X-0.166 Y-4.411 Z-9.348
G1 X-0.741 Y-4.351 Z-9.358
G1 X-1.302 Y-4.217 Z-9.373
G1 X-1.842 Y-4.011 Z-9.391
G1 X-2.350 Y-3.736 Z-9.413
G1 X-2.818 Y-3.398 Z-9.437
G1 X-3.237 Y-3.001 Z-9.464
G1 X-3.601 Y-2.553 Z-9.494
G1 X-3.904 Y-2.062 Z-9.525
G1 X-4.139 Y-1.535 Z-9.557
G1 X-4.304 Y-0.982 Z-9.589
G1 X-4.396 Y-0.413 Z-9.622
G1 X-4.412 Y0.164 Z-9.654
G1 X-4.352 Y0.738 Z-9.685
G1 X-4.219 Y1.299 Z-9.714
G1 X-4.013 Y1.839 Z-9.741
G1 X-3.738 Y2.346 Z-9.766
G1 X-3.400 Y2.814 Z-9.787
G1 X-3.003 Y3.234 Z-9.806
G1 X-2.555 Y3.599 Z-9.820
G1 X-2.063 Y3.902 Z-9.831
G1 X-1.536 Y4.138 Z-9.837
G1 X-0.982 Y4.304 Z-9.839
G1 X-0.433 Y4.394 Z-9.858
G1 X0.124 Y4.413 Z-9.878
G1 X0.678 Y4.363 Z-9.899
G1 X1.222 Y4.242 Z-9.920
G1 X1.747 Y4.055 Z-9.941
G1 X2.243 Y3.803 Z-9.961
G1 X2.704 Y3.490 Z-9.981
G1 X3.122 Y3.122 Z-10.000
G2 X0.982 Y-4.304 Z-10.000 I-3.122 J-3.122 K0.000
G2 X-0.982 Y4.304 Z-10.000 I-0.982 J4.304 K0.000
G2 X3.122 Y3.122 Z-10.000 I0.982 J-4.304 K0.000
G0 X3.122 Y3.122 Z6.000
(Finish operation: RampEntryDressup)
(Begin operation: START_Pocket_Shape)
(Path: START_Pocket_Shape)
(START_Pocket_Shape)
G0 Z6.000
G0 X33.417 Y6.103
G0 Z4.000
G1 X33.417 Y6.103 Z0.000
G1 X33.417 Y4.483 Z0.000
G1 X31.634 Y3.906 Z0.000
G3 X30.538 Y2.401 Z0.000 I0.487 J-1.506 K0.000
G1 X30.538 Y-3.562 Z0.000
G3 X31.634 Y-5.068 Z0.000 I1.583 J0.000 K0.000
G1 X33.417 Y-5.644 Z0.000
G1 X33.417 Y-7.149 Z0.000
G1 X19.556 Y-1.767 Z0.000
G1 X19.556 Y0.606 Z0.000
G1 X33.417 Y6.103 Z0.000
G0 Z6.000
G0 X29.620 Y2.382 Z6.000
G0 X29.620 Y2.382 Z4.000
G1 X29.620 Y2.382 Z0.000
G3 X27.959 Y2.765 Z0.000 I-1.130 J-1.108 K0.000
G1 X22.725 Y0.903 Z0.000
G3 X22.729 Y-2.081 Z0.000 I0.530 J-1.491 K0.000
G1 X27.963 Y-3.927 Z0.000
G3 X28.625 Y-4.012 Z0.000 I0.526 J1.492 K0.000
G3 X30.072 Y-2.435 Z0.000 I-0.135 J1.577 K0.000
G1 X30.072 Y1.274 Z0.000
G3 X29.620 Y2.382 Z0.000 I-1.583 J0.000 K0.000
G0 Z6.000
G0 X30.072 Y-1.543 Z6.000
G0 X30.072 Y-1.543 Z4.000
G1 X30.072 Y-1.543 Z0.000
G1 X30.538 Y-1.077 Z0.000
G1 X30.538 Y2.401 Z0.000
G2 X31.634 Y3.906 Z0.000 I1.583 J-0.000 K0.000
G1 X33.417 Y4.483 Z0.000
G1 X33.417 Y6.103 Z0.000
G1 X33.127 Y5.988 Z0.000
G1 X29.567 Y2.428 Z0.000
G3 X27.959 Y2.765 Z0.000 I-1.077 J-1.135 K0.000
G1 X24.030 Y1.367 Z0.000
G1 X25.710 Y3.046 Z0.000
G0 Z6.000
G0 X20.521 Y-2.142 Z6.000
G0 X20.521 Y-2.142 Z4.000
G1 X20.521 Y-2.142 Z0.000
G1 X19.556 Y-1.767 Z0.000
G1 X19.556 Y0.606 Z0.000
G1 X25.710 Y3.046 Z0.000
G1 X24.030 Y1.367 Z0.000
G1 X22.725 Y0.903 Z0.000
G3 X21.722 Y-0.941 Z0.000 I0.518 J-1.476 K0.000
G1 X20.521 Y-2.142 Z0.000
G1 X23.745 Y-3.394 Z0.000
G1 X24.451 Y-2.688 Z0.000
G1 X27.760 Y-3.856 Z0.000
G1 X26.969 Y-4.646 Z0.000
G1 X30.193 Y-5.898 Z0.000
G1 X31.231 Y-4.860 Z0.000
G3 X31.634 Y-5.068 Z0.000 I0.688 J0.844 K0.000
G1 X33.417 Y-5.644 Z0.000
G1 X33.417 Y-7.149 Z0.000
G1 X33.417 Y-7.149 Z-1.000
G1 X33.417 Y-5.644 Z-1.000
G1 X31.634 Y-5.068 Z-1.000
G2 X31.231 Y-4.860 Z-1.000 I0.285 J1.051 K0.000
G1 X30.193 Y-5.898 Z-1.000
G1 X26.969 Y-4.646 Z-1.000
G1 X27.760 Y-3.856 Z-1.000
G1 X24.451 Y-2.688 Z-1.000
G1 X23.745 Y-3.394 Z-1.000
G1 X20.521 Y-2.142 Z-1.000
G1 X21.722 Y-0.941 Z-1.000
G2 X22.725 Y0.903 Z-1.000 I1.521 J0.367 K0.000
G1 X24.030 Y1.367 Z-1.000
G1 X25.710 Y3.046 Z-1.000
G1 X19.556 Y0.606 Z-1.000
G1 X19.556 Y-1.767 Z-1.000
G1 X20.521 Y-2.142 Z-1.000
G1 X20.521 Y-2.142 Z-1.000
G1 X19.556 Y-1.767 Z-1.000
G1 X19.556 Y0.606 Z-1.000
G1 X33.417 Y6.103 Z-1.000
G1 X33.417 Y4.483 Z-1.000
G1 X31.634 Y3.906 Z-1.000
G3 X30.538 Y2.401 Z-1.000 I0.487 J-1.506 K0.000
G1 X30.538 Y-3.562 Z-1.000
G3 X31.634 Y-5.068 Z-1.000 I1.583 J0.000 K0.000
G1 X33.417 Y-5.644 Z-1.000
G1 X33.417 Y-7.149 Z-1.000
G1 X20.521 Y-2.142 Z-1.000
G0 Z6.000
G0 X21.879 Y-1.370 Z6.000
G0 X21.879 Y-1.370 Z4.000
G1 X21.879 Y-1.370 Z-1.000
G3 X22.729 Y-2.081 Z-1.000 I1.376 J0.782 K0.000
G1 X27.963 Y-3.927 Z-1.000
G3 X28.625 Y-4.012 Z-1.000 I0.526 J1.492 K0.000
G3 X30.072 Y-2.435 Z-1.000 I-0.135 J1.577 K0.000
G1 X30.072 Y1.274 Z-1.000
G3 X27.959 Y2.765 Z-1.000 I-1.583 J0.000 K0.000
G1 X22.725 Y0.903 Z-1.000
G3 X21.879 Y-1.370 Z-1.000 I0.530 J-1.491 K0.000
G0 Z6.000
G0 X25.710 Y3.046 Z6.000
G0 X25.710 Y3.046 Z4.000
G1 X25.710 Y3.046 Z-1.000
G1 X24.030 Y1.367 Z-1.000
G1 X27.959 Y2.765 Z-1.000
G2 X29.567 Y2.428 Z-1.000 I0.530 J-1.473 K0.000
G1 X33.127 Y5.988 Z-1.000
G1 X33.417 Y6.103 Z-1.000
G1 X33.417 Y4.483 Z-1.000
G1 X31.634 Y3.906 Z-1.000
G3 X30.538 Y2.401 Z-1.000 I0.487 J-1.506 K0.000
G1 X30.538 Y-1.077 Z-1.000
G1 X30.072 Y-1.543 Z-1.000
G1 X30.072 Y-1.543 Z-2.000
G1 X30.538 Y-1.077 Z-2.000
G1 X30.538 Y2.401 Z-2.000
G2 X31.634 Y3.906 Z-2.000 I1.583 J-0.000 K0.000
G1 X33.417 Y4.483 Z-2.000
G1 X33.417 Y6.103 Z-2.000
G1 X33.127 Y5.988 Z-2.000
G1 X29.567 Y2.428 Z-2.000
G3 X27.959 Y2.765 Z-2.000 I-1.077 J-1.135 K0.000
G1 X24.030 Y1.367 Z-2.000
G1 X25.710 Y3.046 Z-2.000
G1 X25.710 Y3.046 Z-2.000
G1 X33.417 Y6.103 Z-2.000
G1 X33.417 Y4.483 Z-2.000
G1 X31.634 Y3.906 Z-2.000
G3 X30.538 Y2.401 Z-2.000 I0.487 J-1.506 K0.000
G1 X30.538 Y-3.562 Z-2.000
G3 X31.634 Y-5.068 Z-2.000 I1.583 J0.000 K0.000
G1 X33.417 Y-5.644 Z-2.000
G1 X33.417 Y-7.149 Z-2.000
G1 X19.556 Y-1.767 Z-2.000
G1 X19.556 Y0.606 Z-2.000
G1 X25.710 Y3.046 Z-2.000
G0 Z6.000
G0 X26.051 Y2.086 Z6.000
G0 X26.051 Y2.086 Z4.000
G1 X26.051 Y2.086 Z-2.000
G1 X22.725 Y0.903 Z-2.000
G3 X22.729 Y-2.081 Z-2.000 I0.530 J-1.491 K0.000
G1 X27.963 Y-3.927 Z-2.000
G3 X28.625 Y-4.012 Z-2.000 I0.526 J1.492 K0.000
G3 X30.072 Y-2.435 Z-2.000 I-0.135 J1.577 K0.000
G1 X30.072 Y1.274 Z-2.000
G3 X27.959 Y2.765 Z-2.000 I-1.583 J0.000 K0.000
G1 X26.051 Y2.086 Z-2.000
G0 Z6.000
G0 X20.521 Y-2.142 Z6.000
G0 X20.521 Y-2.142 Z4.000
G1 X20.521 Y-2.142 Z-2.000
G1 X19.556 Y-1.767 Z-2.000
G1 X19.556 Y0.606 Z-2.000
G1 X25.710 Y3.046 Z-2.000
G1 X24.030 Y1.367 Z-2.000
G1 X22.725 Y0.903 Z-2.000
G3 X21.722 Y-0.941 Z-2.000 I0.518 J-1.476 K0.000
G1 X20.521 Y-2.142 Z-2.000
G1 X23.745 Y-3.394 Z-2.000
G1 X24.451 Y-2.688 Z-2.000
G1 X27.760 Y-3.856 Z-2.000
G1 X26.969 Y-4.646 Z-2.000
G1 X30.193 Y-5.898 Z-2.000
G1 X31.231 Y-4.860 Z-2.000
G3 X31.634 Y-5.068 Z-2.000 I0.688 J0.844 K0.000
G1 X33.417 Y-5.644 Z-2.000
G1 X33.417 Y-7.149 Z-2.000
G1 X33.417 Y-7.149 Z-3.000
G1 X33.417 Y-5.644 Z-3.000
G1 X31.634 Y-5.068 Z-3.000
G2 X31.231 Y-4.860 Z-3.000 I0.285 J1.051 K0.000
G1 X30.193 Y-5.898 Z-3.000
G1 X26.969 Y-4.646 Z-3.000
G1 X27.760 Y-3.856 Z-3.000
G1 X24.451 Y-2.688 Z-3.000
G1 X23.745 Y-3.394 Z-3.000
G1 X20.521 Y-2.142 Z-3.000
G1 X21.722 Y-0.941 Z-3.000
G2 X22.725 Y0.903 Z-3.000 I1.521 J0.367 K0.000
G1 X24.030 Y1.367 Z-3.000
G1 X25.710 Y3.046 Z-3.000
G1 X19.556 Y0.606 Z-3.000
G1 X19.556 Y-1.767 Z-3.000
G1 X20.521 Y-2.142 Z-3.000
G1 X20.521 Y-2.142 Z-3.000
G1 X19.556 Y-1.767 Z-3.000
G1 X19.556 Y0.606 Z-3.000
G1 X33.417 Y6.103 Z-3.000
G1 X33.417 Y4.483 Z-3.000
G1 X31.634 Y3.906 Z-3.000
G3 X30.538 Y2.401 Z-3.000 I0.487 J-1.506 K0.000
G1 X30.538 Y-3.562 Z-3.000
G3 X31.634 Y-5.068 Z-3.000 I1.583 J0.000 K0.000
G1 X33.417 Y-5.644 Z-3.000
G1 X33.417 Y-7.149 Z-3.000
G1 X20.521 Y-2.142 Z-3.000
G0 Z6.000
G0 X21.879 Y-1.370 Z6.000
G0 X21.879 Y-1.370 Z4.000
G1 X21.879 Y-1.370 Z-3.000
G3 X22.729 Y-2.081 Z-3.000 I1.376 J0.782 K0.000
G1 X27.963 Y-3.927 Z-3.000
G3 X28.625 Y-4.012 Z-3.000 I0.526 J1.492 K0.000
G3 X30.072 Y-2.435 Z-3.000 I-0.135 J1.577 K0.000
G1 X30.072 Y1.274 Z-3.000
G3 X27.959 Y2.765 Z-3.000 I-1.583 J0.000 K0.000
G1 X22.725 Y0.903 Z-3.000
G3 X21.879 Y-1.370 Z-3.000 I0.530 J-1.491 K0.000
G0 Z6.000
G0 X25.710 Y3.046 Z6.000
G0 X25.710 Y3.046 Z4.000
G1 X25.710 Y3.046 Z-3.000
G1 X24.030 Y1.367 Z-3.000
G1 X27.959 Y2.765 Z-3.000
G2 X29.567 Y2.428 Z-3.000 I0.530 J-1.473 K0.000
G1 X33.127 Y5.988 Z-3.000
G1 X33.417 Y6.103 Z-3.000
G1 X33.417 Y4.483 Z-3.000
G1 X31.634 Y3.906 Z-3.000
G3 X30.538 Y2.401 Z-3.000 I0.487 J-1.506 K0.000
G1 X30.538 Y-1.077 Z-3.000
G1 X30.072 Y-1.543 Z-3.000
G1 X30.072 Y-1.543 Z-4.000
G1 X30.538 Y-1.077 Z-4.000
G1 X30.538 Y2.401 Z-4.000
G2 X31.634 Y3.906 Z-4.000 I1.583 J-0.000 K0.000
G1 X33.417 Y4.483 Z-4.000
G1 X33.417 Y6.103 Z-4.000
G1 X33.127 Y5.988 Z-4.000
G1 X29.567 Y2.428 Z-4.000
G3 X27.959 Y2.765 Z-4.000 I-1.077 J-1.135 K0.000
G1 X24.030 Y1.367 Z-4.000
G1 X25.710 Y3.046 Z-4.000
G1 X25.710 Y3.046 Z-4.000
G1 X33.417 Y6.103 Z-4.000
G1 X33.417 Y4.483 Z-4.000
G1 X31.634 Y3.906 Z-4.000
G3 X30.538 Y2.401 Z-4.000 I0.487 J-1.506 K0.000
G1 X30.538 Y-3.562 Z-4.000
G3 X31.634 Y-5.068 Z-4.000 I1.583 J0.000 K0.000
G1 X33.417 Y-5.644 Z-4.000
G1 X33.417 Y-7.149 Z-4.000
G1 X19.556 Y-1.767 Z-4.000
G1 X19.556 Y0.606 Z-4.000
G1 X25.710 Y3.046 Z-4.000
G0 Z6.000
G0 X26.051 Y2.086 Z6.000
G0 X26.051 Y2.086 Z4.000
G1 X26.051 Y2.086 Z-4.000
G1 X22.725 Y0.903 Z-4.000
G3 X22.729 Y-2.081 Z-4.000 I0.530 J-1.491 K0.000
G1 X27.963 Y-3.927 Z-4.000
G3 X28.625 Y-4.012 Z-4.000 I0.526 J1.492 K0.000
G3 X30.072 Y-2.435 Z-4.000 I-0.135 J1.577 K0.000
G1 X30.072 Y1.274 Z-4.000
G3 X27.959 Y2.765 Z-4.000 I-1.583 J0.000 K0.000
G1 X26.051 Y2.086 Z-4.000
G0 Z6.000
G0 X20.521 Y-2.142 Z6.000
G0 X20.521 Y-2.142 Z4.000
G1 X20.521 Y-2.142 Z-4.000
G1 X19.556 Y-1.767 Z-4.000
G1 X19.556 Y0.606 Z-4.000
G1 X25.710 Y3.046 Z-4.000
G1 X24.030 Y1.367 Z-4.000
G1 X22.725 Y0.903 Z-4.000
G3 X21.722 Y-0.941 Z-4.000 I0.518 J-1.476 K0.000
G1 X20.521 Y-2.142 Z-4.000
G1 X23.745 Y-3.394 Z-4.000
G1 X24.451 Y-2.688 Z-4.000
G1 X27.760 Y-3.856 Z-4.000
G1 X26.969 Y-4.646 Z-4.000
G1 X30.193 Y-5.898 Z-4.000
G1 X31.231 Y-4.860 Z-4.000
G3 X31.634 Y-5.068 Z-4.000 I0.688 J0.844 K0.000
G1 X33.417 Y-5.644 Z-4.000
G1 X33.417 Y-7.149 Z-4.000
G0 Z6.000
G0 Z6.000
G0 X33.417 Y-7.149
G0 X33.417 Y11.777
G0 X33.417 Y11.777 Z4.000
G1 X33.417 Y11.777 Z0.000
G1 X19.556 Y11.777 Z0.000
G1 X19.556 Y17.469 Z0.000
G2 X21.082 Y21.155 Z0.000 I4.793 J0.175 K0.000
G2 X24.082 Y22.163 Z0.000 I2.828 J-3.447 K0.000
G2 X27.610 Y20.190 Z0.000 I0.138 J-3.894 K0.000
G3 X29.682 Y19.691 Z0.000 I1.310 J0.888 K0.000
G1 X33.417 Y21.744 Z0.000
G1 X33.417 Y20.195 Z0.000
G1 X29.151 Y17.912 Z0.000
G3 X28.316 Y16.516 Z0.000 I0.747 J-1.395 K0.000
G1 X28.316 Y14.834 Z0.000
G3 X29.898 Y13.252 Z0.000 I1.583 J-0.000 K0.000
G1 X33.417 Y13.252 Z0.000
G1 X33.417 Y11.777 Z0.000
G1 X33.417 Y11.777 Z0.000
G1 X33.417 Y13.252 Z0.000
G1 X30.417 Y13.252 Z0.000
G1 X28.942 Y11.777 Z0.000
G1 X24.466 Y11.777 Z0.000
G1 X25.941 Y13.252 Z0.000
G1 X22.097 Y13.252 Z0.000
G2 X21.567 Y13.354 Z0.000 I-0.042 J1.213 K0.000
G1 X19.990 Y11.777 Z0.000
G1 X19.556 Y11.777 Z0.000
G1 X19.556 Y15.819 Z0.000
G1 X19.556 Y17.469 Z0.000
G2 X21.082 Y21.155 Z0.000 I4.793 J0.175 K0.000
G2 X25.627 Y21.890 Z0.000 I2.946 J-3.793 K0.000
G1 X24.292 Y20.555 Z0.000
G3 X21.755 Y19.775 Z0.000 I-0.316 J-3.489 K0.000
G3 X20.515 Y16.778 Z0.000 I2.447 J-2.768 K0.000
G1 X19.556 Y15.819 Z0.000
G0 Z6.000
G0 X20.494 Y15.822 Z6.000
G0 X20.494 Y15.822 Z4.000
G1 X20.494 Y15.822 Z0.000
G3 X20.515 Y14.834 Z0.000 I27.076 J0.081 K0.000
G3 X22.097 Y13.252 Z0.000 I1.583 J-0.000 K0.000
G1 X25.986 Y13.252 Z0.000
G3 X27.568 Y14.834 Z0.000 I-0.000 J1.583 K0.000
G1 X27.568 Y16.947 Z0.000
G3 X27.238 Y18.567 Z0.000 I-4.058 J0.017 K0.000
G3 X23.784 Y20.563 Z0.000 I-3.119 J-1.411 K0.000
G3 X20.518 Y17.044 Z0.000 I0.160 J-3.424 K0.000
G3 X20.494 Y15.822 Z0.000 I27.052 J-1.142 K0.000
G0 Z6.000
G0 X27.568 Y14.879 Z6.000
G0 X27.568 Y14.879 Z4.000
G1 X27.568 Y14.879 Z0.000
G1 X28.316 Y15.627 Z0.000
G2 X28.353 Y16.855 Z0.000 I5.688 J0.445 K0.000
G2 X29.151 Y17.912 Z0.000 I1.546 J-0.339 K0.000
G1 X32.270 Y19.581 Z0.000
G1 X33.417 Y20.729 Z0.000
G1 X33.417 Y21.744 Z0.000
G1 X29.682 Y19.691 Z0.000
G2 X28.008 Y19.795 Z0.000 I-0.757 J1.358 K0.000
G1 X27.083 Y18.870 Z0.000
G3 X24.292 Y20.555 Z0.000 I-2.902 J-1.654 K0.000
G1 X25.627 Y21.890 Z0.000
G0 Z6.000
G0 X32.270 Y19.581 Z6.000
G0 X32.270 Y19.581 Z4.000
G1 X32.270 Y19.581 Z0.000
G1 X33.417 Y20.195 Z0.000
G1 X33.417 Y20.729 Z0.000
G1 X32.270 Y19.581 Z0.000
G1 X32.270 Y19.581 Z-1.000
G1 X33.417 Y20.195 Z-1.000
G1 X33.417 Y20.729 Z-1.000
G1 X32.270 Y19.581 Z-1.000
G1 X32.270 Y19.581 Z-1.000
G1 X29.151 Y17.912 Z-1.000
G3 X28.316 Y16.516 Z-1.000 I0.747 J-1.395 K0.000
G1 X28.316 Y14.834 Z-1.000
G3 X29.898 Y13.252 Z-1.000 I1.583 J-0.000 K0.000
G1 X33.417 Y13.252 Z-1.000
G1 X33.417 Y11.777 Z-1.000
G1 X19.556 Y11.777 Z-1.000
G1 X19.556 Y17.469 Z-1.000
G2 X21.082 Y21.155 Z-1.000 I4.793 J0.175 K0.000
G2 X24.082 Y22.163 Z-1.000 I2.828 J-3.447 K0.000
G2 X27.610 Y20.190 Z-1.000 I0.138 J-3.894 K0.000
G3 X29.682 Y19.691 Z-1.000 I1.310 J0.888 K0.000
G1 X33.417 Y21.744 Z-1.000
G1 X33.417 Y20.195 Z-1.000
G1 X32.270 Y19.581 Z-1.000
G0 Z6.000
G0 X27.399 Y18.125 Z6.000
G0 X27.399 Y18.125 Z4.000
G1 X27.399 Y18.125 Z-1.000
G3 X27.238 Y18.567 Z-1.000 I-3.888 J-1.162 K0.000
G3 X23.784 Y20.563 Z-1.000 I-3.119 J-1.411 K0.000
G3 X20.518 Y17.044 Z-1.000 I0.160 J-3.424 K0.000
G3 X20.515 Y14.834 Z-1.000 I27.052 J-1.142 K0.000
G3 X22.097 Y13.252 Z-1.000 I1.583 J-0.000 K0.000
G1 X25.986 Y13.252 Z-1.000
G3 X27.568 Y14.834 Z-1.000 I-0.000 J1.583 K0.000
G1 X27.568 Y16.947 Z-1.000
G3 X27.399 Y18.125 Z-1.000 I-4.058 J0.017 K0.000
G0 Z6.000
G0 X27.568 Y14.879 Z6.000
G0 X27.568 Y14.879 Z4.000
G1 X27.568 Y14.879 Z-1.000
G1 X28.316 Y15.627 Z-1.000
G2 X28.353 Y16.855 Z-1.000 I5.688 J0.445 K0.000
G2 X29.151 Y17.912 Z-1.000 I1.546 J-0.339 K0.000
G1 X32.270 Y19.581 Z-1.000
G1 X33.417 Y20.729 Z-1.000
G1 X33.417 Y21.744 Z-1.000
G1 X29.682 Y19.691 Z-1.000
G2 X28.008 Y19.795 Z-1.000 I-0.757 J1.358 K0.000
G1 X27.083 Y18.870 Z-1.000
G3 X24.292 Y20.555 Z-1.000 I-2.902 J-1.654 K0.000
G1 X25.627 Y21.890 Z-1.000
G0 Z6.000
G0 X19.556 Y15.819 Z6.000
G0 X19.556 Y15.819 Z4.000
G1 X19.556 Y15.819 Z-1.000
G1 X20.515 Y16.778 Z-1.000
G2 X21.755 Y19.775 Z-1.000 I3.687 J0.230 K0.000
G2 X24.292 Y20.555 Z-1.000 I2.221 J-2.709 K0.000
G1 X25.627 Y21.890 Z-1.000
G3 X21.082 Y21.155 Z-1.000 I-1.599 J-4.529 K0.000
G3 X19.556 Y17.469 Z-1.000 I3.266 J-3.512 K0.000
G1 X19.556 Y15.819 Z-1.000
G1 X19.556 Y11.777 Z-1.000
G1 X19.990 Y11.777 Z-1.000
G1 X21.567 Y13.354 Z-1.000
G3 X22.097 Y13.252 Z-1.000 I0.489 J1.111 K0.000
G1 X25.941 Y13.252 Z-1.000
G1 X24.466 Y11.777 Z-1.000
G1 X28.942 Y11.777 Z-1.000
G1 X30.417 Y13.252 Z-1.000
G1 X33.417 Y13.252 Z-1.000
G1 X33.417 Y11.777 Z-1.000
G1 X33.417 Y11.777 Z-2.000
G1 X19.556 Y11.777 Z-2.000
G1 X19.556 Y17.469 Z-2.000
G2 X21.082 Y21.155 Z-2.000 I4.793 J0.175 K0.000
G2 X24.082 Y22.163 Z-2.000 I2.828 J-3.447 K0.000
G2 X27.610 Y20.190 Z-2.000 I0.138 J-3.894 K0.000
G3 X29.682 Y19.691 Z-2.000 I1.310 J0.888 K0.000
G1 X33.417 Y21.744 Z-2.000
G1 X33.417 Y20.195 Z-2.000
G1 X29.151 Y17.912 Z-2.000
G3 X28.316 Y16.516 Z-2.000 I0.747 J-1.395 K0.000
G1 X28.316 Y14.834 Z-2.000
G3 X29.898 Y13.252 Z-2.000 I1.583 J-0.000 K0.000
G1 X33.417 Y13.252 Z-2.000
G1 X33.417 Y11.777 Z-2.000
G1 X33.417 Y11.777 Z-2.000
G1 X33.417 Y13.252 Z-2.000
G1 X30.417 Y13.252 Z-2.000
G1 X28.942 Y11.777 Z-2.000
G1 X24.466 Y11.777 Z-2.000
G1 X25.941 Y13.252 Z-2.000
G1 X22.097 Y13.252 Z-2.000
G2 X21.567 Y13.354 Z-2.000 I-0.042 J1.213 K0.000
G1 X19.990 Y11.777 Z-2.000
G1 X19.556 Y11.777 Z-2.000
G1 X19.556 Y15.819 Z-2.000
G1 X19.556 Y17.469 Z-2.000
G2 X21.082 Y21.155 Z-2.000 I4.793 J0.175 K0.000
G2 X25.627 Y21.890 Z-2.000 I2.946 J-3.793 K0.000
G1 X24.292 Y20.555 Z-2.000
G3 X21.755 Y19.775 Z-2.000 I-0.316 J-3.489 K0.000
G3 X20.515 Y16.778 Z-2.000 I2.447 J-2.768 K0.000
G1 X19.556 Y15.819 Z-2.000
G0 Z6.000
G0 X20.494 Y15.822 Z6.000
G0 X20.494 Y15.822 Z4.000
G1 X20.494 Y15.822 Z-2.000
G3 X20.515 Y14.834 Z-2.000 I27.076 J0.081 K0.000
G3 X22.097 Y13.252 Z-2.000 I1.583 J-0.000 K0.000
G1 X25.986 Y13.252 Z-2.000
G3 X27.568 Y14.834 Z-2.000 I-0.000 J1.583 K0.000
G1 X27.568 Y16.947 Z-2.000
G3 X27.238 Y18.567 Z-2.000 I-4.058 J0.017 K0.000
G3 X23.784 Y20.563 Z-2.000 I-3.119 J-1.411 K0.000
G3 X20.518 Y17.044 Z-2.000 I0.160 J-3.424 K0.000
G3 X20.494 Y15.822 Z-2.000 I27.052 J-1.142 K0.000
G0 Z6.000
G0 X27.568 Y14.879 Z6.000
G0 X27.568 Y14.879 Z4.000
G1 X27.568 Y14.879 Z-2.000
G1 X28.316 Y15.627 Z-2.000
G2 X28.353 Y16.855 Z-2.000 I5.688 J0.445 K0.000
G2 X29.151 Y17.912 Z-2.000 I1.546 J-0.339 K0.000
G1 X32.270 Y19.581 Z-2.000
G1 X33.417 Y20.729 Z-2.000
G1 X33.417 Y21.744 Z-2.000
G1 X29.682 Y19.691 Z-2.000
G2 X28.008 Y19.795 Z-2.000 I-0.757 J1.358 K0.000
G1 X27.083 Y18.870 Z-2.000
G3 X24.292 Y20.555 Z-2.000 I-2.902 J-1.654 K0.000
G1 X25.627 Y21.890 Z-2.000
G0 Z6.000
G0 X32.270 Y19.581 Z6.000
G0 X32.270 Y19.581 Z4.000
G1 X32.270 Y19.581 Z-2.000
G1 X33.417 Y20.195 Z-2.000
G1 X33.417 Y20.729 Z-2.000
G1 X32.270 Y19.581 Z-2.000
G1 X32.270 Y19.581 Z-3.000
G1 X33.417 Y20.195 Z-3.000
G1 X33.417 Y20.729 Z-3.000
G1 X32.270 Y19.581 Z-3.000
G1 X32.270 Y19.581 Z-3.000
G1 X29.151 Y17.912 Z-3.000
G3 X28.316 Y16.516 Z-3.000 I0.747 J-1.395 K0.000
G1 X28.316 Y14.834 Z-3.000
G3 X29.898 Y13.252 Z-3.000 I1.583 J-0.000 K0.000
G1 X33.417 Y13.252 Z-3.000
G1 X33.417 Y11.777 Z-3.000
G1 X19.556 Y11.777 Z-3.000
G1 X19.556 Y17.469 Z-3.000
G2 X21.082 Y21.155 Z-3.000 I4.793 J0.175 K0.000
G2 X24.082 Y22.163 Z-3.000 I2.828 J-3.447 K0.000
G2 X27.610 Y20.190 Z-3.000 I0.138 J-3.894 K0.000
G3 X29.682 Y19.691 Z-3.000 I1.310 J0.888 K0.000
G1 X33.417 Y21.744 Z-3.000
G1 X33.417 Y20.195 Z-3.000
G1 X32.270 Y19.581 Z-3.000
G0 Z6.000
G0 X27.399 Y18.125 Z6.000
G0 X27.399 Y18.125 Z4.000
G1 X27.399 Y18.125 Z-3.000
G3 X27.238 Y18.567 Z-3.000 I-3.888 J-1.162 K0.000
G3 X23.784 Y20.563 Z-3.000 I-3.119 J-1.411 K0.000
G3 X20.518 Y17.044 Z-3.000 I0.160 J-3.424 K0.000
G3 X20.515 Y14.834 Z-3.000 I27.052 J-1.142 K0.000
G3 X22.097 Y13.252 Z-3.000 I1.583 J-0.000 K0.000
G1 X25.986 Y13.252 Z-3.000
G3 X27.568 Y14.834 Z-3.000 I-0.000 J1.583 K0.000
G1 X27.568 Y16.947 Z-3.000
G3 X27.399 Y18.125 Z-3.000 I-4.058 J0.017 K0.000
G0 Z6.000
G0 X27.568 Y14.879 Z6.000
G0 X27.568 Y14.879 Z4.000
G1 X27.568 Y14.879 Z-3.000
G1 X28.316 Y15.627 Z-3.000
G2 X28.353 Y16.855 Z-3.000 I5.688 J0.445 K0.000
G2 X29.151 Y17.912 Z-3.000 I1.546 J-0.339 K0.000
G1 X32.270 Y19.581 Z-3.000
G1 X33.417 Y20.729 Z-3.000
G1 X33.417 Y21.744 Z-3.000
G1 X29.682 Y19.691 Z-3.000
G2 X28.008 Y19.795 Z-3.000 I-0.757 J1.358 K0.000
G1 X27.083 Y18.870 Z-3.000
G3 X24.292 Y20.555 Z-3.000 I-2.902 J-1.654 K0.000
G1 X25.627 Y21.890 Z-3.000
G0 Z6.000
G0 X19.556 Y15.819 Z6.000
G0 X19.556 Y15.819 Z4.000
G1 X19.556 Y15.819 Z-3.000
G1 X20.515 Y16.778 Z-3.000
G2 X21.755 Y19.775 Z-3.000 I3.687 J0.230 K0.000
G2 X24.292 Y20.555 Z-3.000 I2.221 J-2.709 K0.000
G1 X25.627 Y21.890 Z-3.000
G3 X21.082 Y21.155 Z-3.000 I-1.599 J-4.529 K0.000
G3 X19.556 Y17.469 Z-3.000 I3.266 J-3.512 K0.000
G1 X19.556 Y15.819 Z-3.000
G1 X19.556 Y11.777 Z-3.000
G1 X19.990 Y11.777 Z-3.000
G1 X21.567 Y13.354 Z-3.000
G3 X22.097 Y13.252 Z-3.000 I0.489 J1.111 K0.000
G1 X25.941 Y13.252 Z-3.000
G1 X24.466 Y11.777 Z-3.000
G1 X28.942 Y11.777 Z-3.000
G1 X30.417 Y13.252 Z-3.000
G1 X33.417 Y13.252 Z-3.000
G1 X33.417 Y11.777 Z-3.000
G0 Z6.000
G0 Z6.000
G0 X33.417 Y11.777
G0 Y31.198
G0 Y31.198 Z4.000
G1 X33.417 Y31.198 Z0.000
G1 X22.152 Y31.198 Z0.000
G3 X20.569 Y29.615 Z0.000 I-0.000 J-1.583 K0.000
G1 X20.569 Y26.628 Z0.000
G1 X19.556 Y26.628 Z0.000
G1 X19.556 Y37.258 Z0.000
G1 X20.569 Y37.258 Z0.000
G1 X20.569 Y34.271 Z0.000
G3 X22.152 Y32.688 Z0.000 I1.583 J0.000 K0.000
G1 X33.417 Y32.688 Z0.000
G1 X33.417 Y31.198 Z0.000
G1 X33.417 Y31.198 Z0.000
G1 X33.417 Y32.688 Z0.000
G1 X30.432 Y32.688 Z0.000
G1 X28.942 Y31.198 Z0.000
G1 X24.466 Y31.198 Z0.000
G1 X25.956 Y32.688 Z0.000
G0 Z6.000
G0 X19.556 Y35.240 Z6.000
G0 X19.556 Y35.240 Z4.000
G1 X19.556 Y35.240 Z0.000
G1 X19.556 Y37.258 Z0.000
G1 X20.569 Y37.258 Z0.000
G1 X20.569 Y36.253 Z0.000
G1 X19.556 Y35.240 Z0.000
G1 X19.556 Y30.764 Z0.000
G1 X21.592 Y32.800 Z0.000
G3 X22.152 Y32.688 Z0.000 I0.525 J1.169 K0.000
G1 X25.956 Y32.688 Z0.000
G1 X24.466 Y31.198 Z0.000
G1 X22.152 Y31.198 Z0.000
G3 X20.569 Y29.615 Z0.000 I0.000 J-1.583 K0.000
G1 X20.569 Y27.301 Z0.000
G1 X19.896 Y26.628 Z0.000
G1 X20.569 Y26.628 Z0.000
G1 X20.569 Y27.301 Z0.000
G1 X20.569 Y27.301 Z-1.000
G1 X20.569 Y26.628 Z-1.000
G1 X19.896 Y26.628 Z-1.000
G1 X20.569 Y27.301 Z-1.000
G1 X20.569 Y29.615 Z-1.000
G2 X22.152 Y31.198 Z-1.000 I1.583 J0.000 K0.000
G1 X24.466 Y31.198 Z-1.000
G1 X25.956 Y32.688 Z-1.000
G1 X22.152 Y32.688 Z-1.000
G2 X21.592 Y32.800 Z-1.000 I-0.034 J1.281 K0.000
G1 X19.556 Y30.764 Z-1.000
G1 X19.556 Y35.240 Z-1.000
G1 X20.569 Y36.253 Z-1.000
G1 X20.569 Y37.258 Z-1.000
G1 X19.556 Y37.258 Z-1.000
G1 X19.556 Y35.240 Z-1.000
G1 X19.556 Y35.240 Z-1.000
G1 X19.556 Y37.258 Z-1.000
G1 X20.569 Y37.258 Z-1.000
G1 X20.569 Y34.271 Z-1.000
G3 X22.152 Y32.688 Z-1.000 I1.583 J0.000 K0.000
G1 X33.417 Y32.688 Z-1.000
G1 X33.417 Y31.198 Z-1.000
G1 X22.152 Y31.198 Z-1.000
G3 X20.569 Y29.615 Z-1.000 I-0.000 J-1.583 K0.000
G1 X20.569 Y26.628 Z-1.000
G1 X19.556 Y26.628 Z-1.000
G1 X19.556 Y35.240 Z-1.000
G0 Z6.000
G0 X25.956 Y32.688 Z6.000
G0 X25.956 Y32.688 Z4.000
G1 X25.956 Y32.688 Z-1.000
G1 X24.466 Y31.198 Z-1.000
G1 X28.942 Y31.198 Z-1.000
G1 X30.432 Y32.688 Z-1.000
G1 X33.417 Y32.688 Z-1.000
G1 X33.417 Y31.198 Z-1.000
G1 X33.417 Y31.198 Z-2.000
G1 X33.417 Y32.688 Z-2.000
G1 X30.432 Y32.688 Z-2.000
G1 X28.942 Y31.198 Z-2.000
G1 X24.466 Y31.198 Z-2.000
G1 X25.956 Y32.688 Z-2.000
G1 X25.956 Y32.688 Z-2.000
G1 X33.417 Y32.688 Z-2.000
G1 X33.417 Y31.198 Z-2.000
G1 X22.152 Y31.198 Z-2.000
G3 X20.569 Y29.615 Z-2.000 I-0.000 J-1.583 K0.000
G1 X20.569 Y26.628 Z-2.000
G1 X19.556 Y26.628 Z-2.000
G1 X19.556 Y37.258 Z-2.000
G1 X20.569 Y37.258 Z-2.000
G1 X20.569 Y34.271 Z-2.000
G3 X22.152 Y32.688 Z-2.000 I1.583 J0.000 K0.000
G1 X25.956 Y32.688 Z-2.000
G0 Z6.000
G0 X19.556 Y35.240 Z6.000
G0 X19.556 Y35.240 Z4.000
G1 X19.556 Y35.240 Z-2.000
G1 X19.556 Y37.258 Z-2.000
G1 X20.569 Y37.258 Z-2.000
G1 X20.569 Y36.253 Z-2.000
G1 X19.556 Y35.240 Z-2.000
G1 X19.556 Y30.764 Z-2.000
G1 X21.592 Y32.800 Z-2.000
G3 X22.152 Y32.688 Z-2.000 I0.525 J1.169 K0.000
G1 X25.956 Y32.688 Z-2.000
G1 X24.466 Y31.198 Z-2.000
G1 X22.152 Y31.198 Z-2.000
G3 X20.569 Y29.615 Z-2.000 I0.000 J-1.583 K0.000
G1 X20.569 Y27.301 Z-2.000
G1 X19.896 Y26.628 Z-2.000
G1 X20.569 Y26.628 Z-2.000
G1 X20.569 Y27.301 Z-2.000
G1 X20.569 Y27.301 Z-3.000
G1 X20.569 Y26.628 Z-3.000
G1 X19.896 Y26.628 Z-3.000
G1 X20.569 Y27.301 Z-3.000
G1 X20.569 Y29.615 Z-3.000
G2 X22.152 Y31.198 Z-3.000 I1.583 J0.000 K0.000
G1 X24.466 Y31.198 Z-3.000
G1 X25.956 Y32.688 Z-3.000
G1 X22.152 Y32.688 Z-3.000
G2 X21.592 Y32.800 Z-3.000 I-0.034 J1.281 K0.000
G1 X19.556 Y30.764 Z-3.000
G1 X19.556 Y35.240 Z-3.000
G1 X20.569 Y36.253 Z-3.000
G1 X20.569 Y37.258 Z-3.000
G1 X19.556 Y37.258 Z-3.000
G1 X19.556 Y35.240 Z-3.000
G1 X19.556 Y35.240 Z-3.000
G1 X19.556 Y37.258 Z-3.000
G1 X20.569 Y37.258 Z-3.000
G1 X20.569 Y34.271 Z-3.000
G3 X22.152 Y32.688 Z-3.000 I1.583 J0.000 K0.000
G1 X33.417 Y32.688 Z-3.000
G1 X33.417 Y31.198 Z-3.000
G1 X22.152 Y31.198 Z-3.000
G3 X20.569 Y29.615 Z-3.000 I-0.000 J-1.583 K0.000
G1 X20.569 Y26.628 Z-3.000
G1 X19.556 Y26.628 Z-3.000
G1 X19.556 Y35.240 Z-3.000
G0 Z6.000
G0 X25.956 Y32.688 Z6.000
G0 X25.956 Y32.688 Z4.000
G1 X25.956 Y32.688 Z-3.000
G1 X24.466 Y31.198 Z-3.000
G1 X28.942 Y31.198 Z-3.000
G1 X30.432 Y32.688 Z-3.000
G1 X33.417 Y32.688 Z-3.000
G1 X33.417 Y31.198 Z-3.000
G1 X33.417 Y31.198 Z-4.000
G1 X33.417 Y32.688 Z-4.000
G1 X30.432 Y32.688 Z-4.000
G1 X28.942 Y31.198 Z-4.000
G1 X24.466 Y31.198 Z-4.000
G1 X25.956 Y32.688 Z-4.000
G1 X25.956 Y32.688 Z-4.000
G1 X33.417 Y32.688 Z-4.000
G1 X33.417 Y31.198 Z-4.000
G1 X22.152 Y31.198 Z-4.000
G3 X20.569 Y29.615 Z-4.000 I-0.000 J-1.583 K0.000
G1 X20.569 Y26.628 Z-4.000
G1 X19.556 Y26.628 Z-4.000
G1 X19.556 Y37.258 Z-4.000
G1 X20.569 Y37.258 Z-4.000
G1 X20.569 Y34.271 Z-4.000
G3 X22.152 Y32.688 Z-4.000 I1.583 J0.000 K0.000
G1 X25.956 Y32.688 Z-4.000
G0 Z6.000
G0 X19.556 Y35.240 Z6.000
G0 X19.556 Y35.240 Z4.000
G1 X19.556 Y35.240 Z-4.000
G1 X19.556 Y37.258 Z-4.000
G1 X20.569 Y37.258 Z-4.000
G1 X20.569 Y36.253 Z-4.000
G1 X19.556 Y35.240 Z-4.000
G1 X19.556 Y30.764 Z-4.000
G1 X21.592 Y32.800 Z-4.000
G3 X22.152 Y32.688 Z-4.000 I0.525 J1.169 K0.000
G1 X25.956 Y32.688 Z-4.000
G1 X24.466 Y31.198 Z-4.000
G1 X22.152 Y31.198 Z-4.000
G3 X20.569 Y29.615 Z-4.000 I0.000 J-1.583 K0.000
G1 X20.569 Y27.301 Z-4.000
G1 X19.896 Y26.628 Z-4.000
G1 X20.569 Y26.628 Z-4.000
G1 X20.569 Y27.301 Z-4.000
G0 Z6.000
G0 Z6.000
G0 X20.569 Y27.301
G0 Y-11.318
G0 Y-11.318 Z4.000
G1 X20.569 Y-11.318 Z0.000
G1 X20.569 Y-14.305 Z0.000
G3 X22.152 Y-15.888 Z0.000 I1.583 J0.000 K0.000
G1 X33.417 Y-15.888 Z0.000
G1 X33.417 Y-17.378 Z0.000
G1 X22.152 Y-17.378 Z0.000
G3 X20.569 Y-18.961 Z0.000 I-0.000 J-1.583 K0.000
G1 X20.569 Y-21.948 Z0.000
G1 X19.556 Y-21.948 Z0.000
G1 X19.556 Y-11.318 Z0.000
G1 X20.569 Y-11.318 Z0.000
G0 Z6.000
G0 X19.556 Y-13.336 Z6.000
G0 X19.556 Y-13.336 Z4.000
G1 X19.556 Y-13.336 Z0.000
G1 X19.556 Y-11.318 Z0.000
G1 X20.569 Y-11.318 Z0.000
G1 X20.569 Y-12.323 Z0.000
G1 X19.556 Y-13.336 Z0.000
G1 X19.556 Y-17.812 Z0.000
G1 X21.592 Y-15.775 Z0.000
G3 X22.152 Y-15.888 Z0.000 I0.525 J1.169 K0.000
G1 X25.956 Y-15.888 Z0.000
G1 X24.466 Y-17.378 Z0.000
G1 X22.152 Y-17.378 Z0.000
G3 X20.569 Y-18.961 Z0.000 I0.000 J-1.583 K0.000
G1 X20.569 Y-21.275 Z0.000
G1 X19.896 Y-21.948 Z0.000
G1 X20.569 Y-21.948 Z0.000
G1 X20.569 Y-21.275 Z0.000
G0 Z6.000
G0 X25.956 Y-15.888 Z6.000
G0 X25.956 Y-15.888 Z4.000
G1 X25.956 Y-15.888 Z0.000
G1 X24.466 Y-17.378 Z0.000
G1 X28.942 Y-17.378 Z0.000
G1 X30.432 Y-15.888 Z0.000
G1 X33.417 Y-15.888 Z0.000
G1 X33.417 Y-17.378 Z0.000
G1 X33.417 Y-17.378 Z-1.000
G1 X33.417 Y-15.888 Z-1.000
G1 X30.432 Y-15.888 Z-1.000
G1 X28.942 Y-17.378 Z-1.000
G1 X24.466 Y-17.378 Z-1.000
G1 X25.956 Y-15.888 Z-1.000
G1 X25.956 Y-15.888 Z-1.000
G1 X33.417 Y-15.888 Z-1.000
G1 X33.417 Y-17.378 Z-1.000
G1 X22.152 Y-17.378 Z-1.000
G3 X20.569 Y-18.961 Z-1.000 I-0.000 J-1.583 K0.000
G1 X20.569 Y-21.948 Z-1.000
G1 X19.556 Y-21.948 Z-1.000
G1 X19.556 Y-11.318 Z-1.000
G1 X20.569 Y-11.318 Z-1.000
G1 X20.569 Y-14.305 Z-1.000
G3 X22.152 Y-15.888 Z-1.000 I1.583 J0.000 K0.000
G1 X25.956 Y-15.888 Z-1.000
G0 Z6.000
G0 X19.556 Y-13.336 Z6.000
G0 X19.556 Y-13.336 Z4.000
G1 X19.556 Y-13.336 Z-1.000
G1 X19.556 Y-11.318 Z-1.000
G1 X20.569 Y-11.318 Z-1.000
G1 X20.569 Y-12.323 Z-1.000
G1 X19.556 Y-13.336 Z-1.000
G1 X19.556 Y-17.812 Z-1.000
G1 X21.592 Y-15.775 Z-1.000
G3 X22.152 Y-15.888 Z-1.000 I0.525 J1.169 K0.000
G1 X25.956 Y-15.888 Z-1.000
G1 X24.466 Y-17.378 Z-1.000
G1 X22.152 Y-17.378 Z-1.000
G3 X20.569 Y-18.961 Z-1.000 I0.000 J-1.583 K0.000
G1 X20.569 Y-21.275 Z-1.000
G1 X19.896 Y-21.948 Z-1.000
G1 X20.569 Y-21.948 Z-1.000
G1 X20.569 Y-21.275 Z-1.000
G1 X20.569 Y-21.275 Z-2.000
G1 X20.569 Y-21.948 Z-2.000
G1 X19.896 Y-21.948 Z-2.000
G1 X20.569 Y-21.275 Z-2.000
G1 X20.569 Y-18.961 Z-2.000
G2 X22.152 Y-17.378 Z-2.000 I1.583 J0.000 K0.000
G1 X24.466 Y-17.378 Z-2.000
G1 X25.956 Y-15.888 Z-2.000
G1 X22.152 Y-15.888 Z-2.000
G2 X21.592 Y-15.775 Z-2.000 I-0.034 J1.281 K0.000
G1 X19.556 Y-17.812 Z-2.000
G1 X19.556 Y-13.336 Z-2.000
G1 X20.569 Y-12.323 Z-2.000
G1 X20.569 Y-11.318 Z-2.000
G1 X19.556 Y-11.318 Z-2.000
G1 X19.556 Y-13.336 Z-2.000
G1 X19.556 Y-13.336 Z-2.000
G1 X19.556 Y-11.318 Z-2.000
G1 X20.569 Y-11.318 Z-2.000
G1 X20.569 Y-14.305 Z-2.000
G3 X22.152 Y-15.888 Z-2.000 I1.583 J0.000 K0.000
G1 X33.417 Y-15.888 Z-2.000
G1 X33.417 Y-17.378 Z-2.000
G1 X22.152 Y-17.378 Z-2.000
G3 X20.569 Y-18.961 Z-2.000 I-0.000 J-1.583 K0.000
G1 X20.569 Y-21.948 Z-2.000
G1 X19.556 Y-21.948 Z-2.000
G1 X19.556 Y-13.336 Z-2.000
G0 Z6.000
G0 X25.956 Y-15.888 Z6.000
G0 X25.956 Y-15.888 Z4.000
G1 X25.956 Y-15.888 Z-2.000
G1 X24.466 Y-17.378 Z-2.000
G1 X28.942 Y-17.378 Z-2.000
G1 X30.432 Y-15.888 Z-2.000
G1 X33.417 Y-15.888 Z-2.000
G1 X33.417 Y-17.378 Z-2.000
G1 X33.417 Y-17.378 Z-3.000
G1 X33.417 Y-15.888 Z-3.000
G1 X30.432 Y-15.888 Z-3.000
G1 X28.942 Y-17.378 Z-3.000
G1 X24.466 Y-17.378 Z-3.000
G1 X25.956 Y-15.888 Z-3.000
G1 X25.956 Y-15.888 Z-3.000
G1 X33.417 Y-15.888 Z-3.000
G1 X33.417 Y-17.378 Z-3.000
G1 X22.152 Y-17.378 Z-3.000
G3 X20.569 Y-18.961 Z-3.000 I-0.000 J-1.583 K0.000
G1 X20.569 Y-21.948 Z-3.000
G1 X19.556 Y-21.948 Z-3.000
G1 X19.556 Y-11.318 Z-3.000
G1 X20.569 Y-11.318 Z-3.000
G1 X20.569 Y-14.305 Z-3.000
G3 X22.152 Y-15.888 Z-3.000 I1.583 J0.000 K0.000
G1 X25.956 Y-15.888 Z-3.000
G0 Z6.000
G0 X19.556 Y-13.336 Z6.000
G0 X19.556 Y-13.336 Z4.000
G1 X19.556 Y-13.336 Z-3.000
G1 X19.556 Y-11.318 Z-3.000
G1 X20.569 Y-11.318 Z-3.000
G1 X20.569 Y-12.323 Z-3.000
G1 X19.556 Y-13.336 Z-3.000
G1 X19.556 Y-17.812 Z-3.000
G1 X21.592 Y-15.775 Z-3.000
G3 X22.152 Y-15.888 Z-3.000 I0.525 J1.169 K0.000
G1 X25.956 Y-15.888 Z-3.000
G1 X24.466 Y-17.378 Z-3.000
G1 X22.152 Y-17.378 Z-3.000
G3 X20.569 Y-18.961 Z-3.000 I0.000 J-1.583 K0.000
G1 X20.569 Y-21.275 Z-3.000
G1 X19.896 Y-21.948 Z-3.000
G1 X20.569 Y-21.948 Z-3.000
G1 X20.569 Y-21.275 Z-3.000
G1 X20.569 Y-21.275 Z-4.000
G1 X20.569 Y-21.948 Z-4.000
G1 X19.896 Y-21.948 Z-4.000
G1 X20.569 Y-21.275 Z-4.000
G1 X20.569 Y-18.961 Z-4.000
G2 X22.152 Y-17.378 Z-4.000 I1.583 J0.000 K0.000
G1 X24.466 Y-17.378 Z-4.000
G1 X25.956 Y-15.888 Z-4.000
G1 X22.152 Y-15.888 Z-4.000
G2 X21.592 Y-15.775 Z-4.000 I-0.034 J1.281 K0.000
G1 X19.556 Y-17.812 Z-4.000
G1 X19.556 Y-13.336 Z-4.000
G1 X20.569 Y-12.323 Z-4.000
G1 X20.569 Y-11.318 Z-4.000
G1 X19.556 Y-11.318 Z-4.000
G1 X19.556 Y-13.336 Z-4.000
G1 X19.556 Y-13.336 Z-4.000
G1 X19.556 Y-11.318 Z-4.000
G1 X20.569 Y-11.318 Z-4.000
G1 X20.569 Y-14.305 Z-4.000
G3 X22.152 Y-15.888 Z-4.000 I1.583 J0.000 K0.000
G1 X33.417 Y-15.888 Z-4.000
G1 X33.417 Y-17.378 Z-4.000
G1 X22.152 Y-17.378 Z-4.000
G3 X20.569 Y-18.961 Z-4.000 I-0.000 J-1.583 K0.000
G1 X20.569 Y-21.948 Z-4.000
G1 X19.556 Y-21.948 Z-4.000
G1 X19.556 Y-13.336 Z-4.000
G0 Z6.000
G0 X25.956 Y-15.888 Z6.000
G0 X25.956 Y-15.888 Z4.000
G1 X25.956 Y-15.888 Z-4.000
G1 X24.466 Y-17.378 Z-4.000
G1 X28.942 Y-17.378 Z-4.000
G1 X30.432 Y-15.888 Z-4.000
G1 X33.417 Y-15.888 Z-4.000
G1 X33.417 Y-17.378 Z-4.000
G0 Z6.000
G0 Z6.000
G0 X33.417 Y-17.378
G0 X31.044 Y-26.396
G0 X31.044 Y-26.396 Z4.000
G1 X31.044 Y-26.396 Z0.000
G2 X33.441 Y-28.627 Z0.000 I-0.882 J-3.351 K0.000
G2 X33.514 Y-33.964 Z0.000 I-7.863 J-2.777 K0.000
G2 X31.168 Y-36.364 Z0.000 I-3.522 J1.097 K0.000
G1 X31.168 Y-34.640 Z0.000
G3 X32.118 Y-33.915 Z0.000 I-1.351 J2.759 K0.000
G3 X32.441 Y-29.342 Z0.000 I-3.012 J2.510 K0.000
G3 X27.682 Y-29.158 Z0.000 I-2.439 J-1.445 K0.000
G3 X26.771 Y-31.375 Z0.000 I6.048 J-3.779 K0.000
G2 X26.137 Y-33.674 Z0.000 I-409.891 J111.740 K0.000
G2 X24.978 Y-35.688 Z0.000 I-4.558 J1.284 K0.000
G2 X22.734 Y-36.398 Z0.000 I-2.012 J2.454 K0.000
G1 X22.278 Y-36.377 Z0.000
G2 X19.479 Y-34.209 Z0.000 I0.171 J3.111 K0.000
G2 X19.404 Y-29.230 Z0.000 I7.816 J2.607 K0.000
G2 X21.453 Y-27.068 Z0.000 I3.127 J-0.910 K0.000
G1 X21.453 Y-28.680 Z0.000
G3 X20.631 Y-29.342 Z0.000 I1.278 J-2.431 K0.000
G3 X20.023 Y-32.881 Z0.000 I2.871 J-2.315 K0.000
G3 X24.668 Y-33.809 Z0.000 I2.555 J0.701 K0.000
G3 X25.758 Y-31.210 Z0.000 I-6.021 J4.055 K0.000
G2 X26.687 Y-28.315 Z0.000 I21.481 J-5.295 K0.000
G2 X28.238 Y-26.581 Z0.000 I3.104 J-1.216 K0.000
G2 X30.361 Y-26.288 Z0.000 I1.589 J-3.679 K0.000
G2 X31.044 Y-26.396 Z0.000 I-0.198 J-3.459 K0.000
G0 Z6.000
G0 X32.183 Y-26.937 Z6.000
G0 X32.183 Y-26.937 Z4.000
G1 X32.183 Y-26.937 Z0.000
G1 X30.984 Y-28.136 Z0.000
G2 X32.948 Y-30.648 Z0.000 I-1.238 J-2.991 K0.000
G1 X33.777 Y-29.820 Z0.000
G2 X33.809 Y-32.817 Z0.000 I-8.767 J-1.593 K0.000
G2 X32.503 Y-35.569 Z0.000 I-4.783 J0.583 K0.000
G0 Z6.000
G0 X26.429 Y-32.692 Z6.000
G0 X26.429 Y-32.692 Z4.000
G1 X26.429 Y-32.692 Z0.000
G2 X25.710 Y-34.706 Z0.000 I-9.956 J2.419 K0.000
G2 X23.313 Y-36.368 Z0.000 I-2.565 J1.139 K0.000
G2 X22.723 Y-36.398 Z0.000 I-0.445 J2.982 K0.000
G1 X26.429 Y-32.692 Z0.000
G2 X27.104 Y-30.298 Z0.000 I16.923 J-3.483 K0.000
G2 X28.389 Y-28.449 Z0.000 I3.471 J-1.041 K0.000
G2 X30.984 Y-28.136 Z0.000 I1.592 J-2.284 K0.000
G1 X32.183 Y-26.937 Z0.000
G3 X28.238 Y-26.581 Z0.000 I-2.315 J-3.617 K0.000
G3 X27.780 Y-26.864 Z0.000 I0.846 J-1.877 K0.000
G1 X27.238 Y-27.407 Z0.000
G2 X27.780 Y-26.864 Z0.000 I1.756 J-1.213 K0.000
G0 Z6.000
G0 X19.070 Y-31.099 Z6.000
G0 X19.070 Y-31.099 Z4.000
G1 X19.070 Y-31.099 Z0.000
G1 X20.220 Y-29.949 Z0.000
G2 X21.453 Y-28.680 Z0.000 I2.629 J-1.323 K0.000
G1 X21.453 Y-27.068 Z0.000
G3 X19.404 Y-29.230 Z0.000 I1.078 J-3.073 K0.000
G3 X19.070 Y-31.099 Z0.000 I6.463 J-2.122 K0.000
G3 X19.089 Y-32.390 Z0.000 I9.253 J-0.504 K0.000
G3 X19.790 Y-34.854 Z0.000 I5.769 J0.308 K0.000
G1 X20.658 Y-33.986 Z0.000
G1 X20.658 Y-33.986 Z-1.000
G1 X19.790 Y-34.854 Z-1.000
G2 X19.089 Y-32.390 Z-1.000 I5.069 J2.773 K0.000
G2 X19.070 Y-31.099 Z-1.000 I9.233 J0.787 K0.000
G2 X19.404 Y-29.230 Z-1.000 I6.798 J-0.254 K0.000
G2 X21.453 Y-27.068 Z-1.000 I3.127 J-0.910 K0.000
G1 X21.453 Y-28.680 Z-1.000
G3 X20.220 Y-29.949 Z-1.000 I1.395 J-2.591 K0.000
G1 X19.070 Y-31.099 Z-1.000
G0 Z6.000
G0 X19.071 Y-31.099 Z6.000
G0 X19.071 Y-31.099 Z4.000
G1 X19.071 Y-31.099 Z-1.000
G2 X19.404 Y-29.230 Z-1.000 I8.224 J-0.502 K0.000
G2 X21.453 Y-27.068 Z-1.000 I3.127 J-0.910 K0.000
G1 X21.453 Y-28.680 Z-1.000
G3 X20.631 Y-29.342 Z-1.000 I1.278 J-2.431 K0.000
G3 X20.023 Y-32.881 Z-1.000 I2.871 J-2.315 K0.000
G3 X24.668 Y-33.809 Z-1.000 I2.555 J0.701 K0.000
G3 X25.758 Y-31.210 Z-1.000 I-6.021 J4.055 K0.000
G2 X26.687 Y-28.315 Z-1.000 I21.481 J-5.295 K0.000
G2 X28.238 Y-26.581 Z-1.000 I3.104 J-1.216 K0.000
G2 X30.361 Y-26.288 Z-1.000 I1.589 J-3.679 K0.000
G2 X33.441 Y-28.627 Z-1.000 I-0.198 J-3.459 K0.000
G2 X33.514 Y-33.964 Z-1.000 I-7.863 J-2.777 K0.000
G2 X31.168 Y-36.364 Z-1.000 I-3.522 J1.097 K0.000
G1 X31.168 Y-34.640 Z-1.000
G3 X32.118 Y-33.915 Z-1.000 I-1.351 J2.759 K0.000
G3 X32.441 Y-29.342 Z-1.000 I-3.012 J2.510 K0.000
G3 X27.682 Y-29.158 Z-1.000 I-2.439 J-1.445 K0.000
G3 X26.771 Y-31.375 Z-1.000 I6.048 J-3.779 K0.000
G2 X26.137 Y-33.674 Z-1.000 I-409.891 J111.740 K0.000
G2 X24.978 Y-35.688 Z-1.000 I-4.558 J1.284 K0.000
G2 X22.734 Y-36.398 Z-1.000 I-2.012 J2.454 K0.000
G1 X22.278 Y-36.377 Z-1.000
G2 X19.479 Y-34.209 Z-1.000 I0.171 J3.111 K0.000
G2 X19.071 Y-31.099 Z-1.000 I7.816 J2.607 K0.000
G0 Z6.000
G0 X26.429 Y-32.692 Z6.000
G0 X26.429 Y-32.692 Z4.000
G1 X26.429 Y-32.692 Z-1.000
G2 X25.710 Y-34.706 Z-1.000 I-9.956 J2.419 K0.000
G2 X23.313 Y-36.368 Z-1.000 I-2.565 J1.139 K0.000
G2 X22.723 Y-36.398 Z-1.000 I-0.445 J2.982 K0.000
G1 X26.429 Y-32.692 Z-1.000
G2 X27.104 Y-30.298 Z-1.000 I16.923 J-3.483 K0.000
G2 X28.389 Y-28.449 Z-1.000 I3.471 J-1.041 K0.000
G2 X30.984 Y-28.136 Z-1.000 I1.592 J-2.284 K0.000
G1 X32.183 Y-26.937 Z-1.000
G3 X28.238 Y-26.581 Z-1.000 I-2.315 J-3.617 K0.000
G3 X27.780 Y-26.864 Z-1.000 I0.846 J-1.877 K0.000
G1 X27.238 Y-27.407 Z-1.000
G2 X27.780 Y-26.864 Z-1.000 I1.756 J-1.213 K0.000
G0 Z6.000
G0 X32.183 Y-26.937 Z6.000
G0 X32.183 Y-26.937 Z4.000
G1 X32.183 Y-26.937 Z-1.000
G1 X30.984 Y-28.136 Z-1.000
G2 X32.948 Y-30.648 Z-1.000 I-1.238 J-2.991 K0.000
G1 X33.777 Y-29.820 Z-1.000
G2 X33.809 Y-32.817 Z-1.000 I-8.767 J-1.593 K0.000
G2 X32.503 Y-35.569 Z-1.000 I-4.783 J0.583 K0.000
G1 X32.503 Y-35.569 Z-2.000
G2 X31.168 Y-36.364 Z-2.000 I-2.511 J2.702 K0.000
G1 X31.168 Y-34.640 Z-2.000
G3 X32.118 Y-33.915 Z-2.000 I-1.351 J2.759 K0.000
G3 X32.441 Y-29.342 Z-2.000 I-3.012 J2.510 K0.000
G3 X27.682 Y-29.158 Z-2.000 I-2.439 J-1.445 K0.000
G3 X26.771 Y-31.375 Z-2.000 I6.048 J-3.779 K0.000
G2 X26.137 Y-33.674 Z-2.000 I-409.891 J111.740 K0.000
G2 X24.978 Y-35.688 Z-2.000 I-4.558 J1.284 K0.000
G2 X22.734 Y-36.398 Z-2.000 I-2.012 J2.454 K0.000
G1 X22.278 Y-36.377 Z-2.000
G2 X19.479 Y-34.209 Z-2.000 I0.171 J3.111 K0.000
G2 X19.404 Y-29.230 Z-2.000 I7.816 J2.607 K0.000
G2 X21.453 Y-27.068 Z-2.000 I3.127 J-0.910 K0.000
G1 X21.453 Y-28.680 Z-2.000
G3 X20.631 Y-29.342 Z-2.000 I1.278 J-2.431 K0.000
G3 X20.023 Y-32.881 Z-2.000 I2.871 J-2.315 K0.000
G3 X24.668 Y-33.809 Z-2.000 I2.555 J0.701 K0.000
G3 X25.758 Y-31.210 Z-2.000 I-6.021 J4.055 K0.000
G2 X26.687 Y-28.315 Z-2.000 I21.481 J-5.295 K0.000
G2 X28.238 Y-26.581 Z-2.000 I3.104 J-1.216 K0.000
G2 X30.361 Y-26.288 Z-2.000 I1.589 J-3.679 K0.000
G2 X33.441 Y-28.627 Z-2.000 I-0.198 J-3.459 K0.000
G2 X33.514 Y-33.964 Z-2.000 I-7.863 J-2.777 K0.000
G2 X32.503 Y-35.569 Z-2.000 I-3.522 J1.097 K0.000
G1 X32.503 Y-35.569 Z-2.000
G3 X33.809 Y-32.817 Z-2.000 I-3.478 J3.335 K0.000
G3 X33.777 Y-29.820 Z-2.000 I-8.800 J1.405 K0.000
G1 X32.948 Y-30.648 Z-2.000
G3 X30.984 Y-28.136 Z-2.000 I-3.202 J-0.479 K0.000
G1 X32.183 Y-26.937 Z-2.000
G0 Z6.000
G0 X27.780 Y-26.864 Z6.000
G0 X27.780 Y-26.864 Z4.000
G1 X27.780 Y-26.864 Z-2.000
G3 X27.238 Y-27.407 Z-2.000 I1.213 J-1.756 K0.000
G1 X27.780 Y-26.864 Z-2.000
G2 X28.238 Y-26.581 Z-2.000 I1.303 J-1.594 K0.000
G2 X32.183 Y-26.937 Z-2.000 I1.630 J-3.974 K0.000
G1 X30.984 Y-28.136 Z-2.000
G3 X28.389 Y-28.449 Z-2.000 I-1.003 J-2.597 K0.000
G3 X27.104 Y-30.298 Z-2.000 I2.186 J-2.890 K0.000
G3 X26.429 Y-32.692 Z-2.000 I16.248 J-5.876 K0.000
G1 X22.723 Y-36.398 Z-2.000
G3 X23.313 Y-36.368 Z-2.000 I0.145 J3.012 K0.000
G3 X25.710 Y-34.706 Z-2.000 I-0.168 J2.801 K0.000
G3 X26.429 Y-32.692 Z-2.000 I-9.237 J4.434 K0.000
G0 Z6.000
G0 X20.658 Y-33.986 Z6.000
G0 X20.658 Y-33.986 Z4.000
G1 X20.658 Y-33.986 Z-2.000
G1 X19.790 Y-34.854 Z-2.000
G2 X19.089 Y-32.390 Z-2.000 I5.069 J2.773 K0.000
G2 X19.070 Y-31.099 Z-2.000 I9.233 J0.787 K0.000
G2 X19.404 Y-29.230 Z-2.000 I6.798 J-0.254 K0.000
G2 X21.453 Y-27.068 Z-2.000 I3.127 J-0.910 K0.000
G1 X21.453 Y-28.680 Z-2.000
G3 X20.220 Y-29.949 Z-2.000 I1.395 J-2.591 K0.000
G1 X19.070 Y-31.099 Z-2.000
G1 X19.070 Y-31.099 Z-3.000
G1 X20.220 Y-29.949 Z-3.000
G2 X21.453 Y-28.680 Z-3.000 I2.629 J-1.323 K0.000
G1 X21.453 Y-27.068 Z-3.000
G3 X19.404 Y-29.230 Z-3.000 I1.078 J-3.073 K0.000
G3 X19.070 Y-31.099 Z-3.000 I6.463 J-2.122 K0.000
G3 X19.089 Y-32.390 Z-3.000 I9.253 J-0.504 K0.000
G3 X19.790 Y-34.854 Z-3.000 I5.769 J0.308 K0.000
G1 X20.658 Y-33.986 Z-3.000
G0 Z6.000
G0 X20.648 Y-33.996 Z6.000
G0 X20.648 Y-33.996 Z4.000
G1 X20.648 Y-33.996 Z-3.000
G3 X24.668 Y-33.809 Z-3.000 I1.930 J1.816 K0.000
G3 X25.758 Y-31.210 Z-3.000 I-6.021 J4.055 K0.000
G2 X26.687 Y-28.315 Z-3.000 I21.481 J-5.295 K0.000
G2 X28.238 Y-26.581 Z-3.000 I3.104 J-1.216 K0.000
G2 X30.361 Y-26.288 Z-3.000 I1.589 J-3.679 K0.000
G2 X33.441 Y-28.627 Z-3.000 I-0.198 J-3.459 K0.000
G2 X33.514 Y-33.964 Z-3.000 I-7.863 J-2.777 K0.000
G2 X31.168 Y-36.364 Z-3.000 I-3.522 J1.097 K0.000
G1 X31.168 Y-34.640 Z-3.000
G3 X32.118 Y-33.915 Z-3.000 I-1.351 J2.759 K0.000
G3 X32.441 Y-29.342 Z-3.000 I-3.012 J2.510 K0.000
G3 X27.682 Y-29.158 Z-3.000 I-2.439 J-1.445 K0.000
G3 X26.771 Y-31.375 Z-3.000 I6.048 J-3.779 K0.000
G2 X26.137 Y-33.674 Z-3.000 I-409.891 J111.740 K0.000
G2 X24.978 Y-35.688 Z-3.000 I-4.558 J1.284 K0.000
G2 X22.734 Y-36.398 Z-3.000 I-2.012 J2.454 K0.000
G1 X22.278 Y-36.377 Z-3.000
G2 X19.479 Y-34.209 Z-3.000 I0.171 J3.111 K0.000
G2 X19.404 Y-29.230 Z-3.000 I7.816 J2.607 K0.000
G2 X21.453 Y-27.068 Z-3.000 I3.127 J-0.910 K0.000
G1 X21.453 Y-28.680 Z-3.000
G3 X20.631 Y-29.342 Z-3.000 I1.278 J-2.431 K0.000
G3 X20.023 Y-32.881 Z-3.000 I2.871 J-2.315 K0.000
G3 X20.648 Y-33.996 Z-3.000 I2.555 J0.701 K0.000
G0 Z6.000
G0 X26.429 Y-32.692 Z6.000
G0 X26.429 Y-32.692 Z4.000
G1 X26.429 Y-32.692 Z-3.000
G2 X25.710 Y-34.706 Z-3.000 I-9.956 J2.419 K0.000
G2 X23.313 Y-36.368 Z-3.000 I-2.565 J1.139 K0.000
G2 X22.723 Y-36.398 Z-3.000 I-0.445 J2.982 K0.000
G1 X26.429 Y-32.692 Z-3.000
G2 X27.104 Y-30.298 Z-3.000 I16.923 J-3.483 K0.000
G2 X28.389 Y-28.449 Z-3.000 I3.471 J-1.041 K0.000
G2 X30.984 Y-28.136 Z-3.000 I1.592 J-2.284 K0.000
G1 X32.183 Y-26.937 Z-3.000
G3 X28.238 Y-26.581 Z-3.000 I-2.315 J-3.617 K0.000
G3 X27.780 Y-26.864 Z-3.000 I0.846 J-1.877 K0.000
G1 X27.238 Y-27.407 Z-3.000
G2 X27.780 Y-26.864 Z-3.000 I1.756 J-1.213 K0.000
G0 Z6.000
G0 X32.183 Y-26.937 Z6.000
G0 X32.183 Y-26.937 Z4.000
G1 X32.183 Y-26.937 Z-3.000
G1 X30.984 Y-28.136 Z-3.000
G2 X32.948 Y-30.648 Z-3.000 I-1.238 J-2.991 K0.000
G1 X33.777 Y-29.820 Z-3.000
G2 X33.809 Y-32.817 Z-3.000 I-8.767 J-1.593 K0.000
G2 X32.503 Y-35.569 Z-3.000 I-4.783 J0.583 K0.000
G0 Z6.000
G0 Z6.000
(Finish operation: START_Pocket_Shape)
(Begin postamble)
M5
G17 G90
M2
