(Exported by FreeCAD)
(Post Processor: grbl_post)
(Output Time:2022-05-19 13:36:32.186520)
(Begin preamble)
G17 G90
G21
(Begin operation: Fixture)
(Path: Fixture)
G54
(Finish operation: Fixture)
(Begin operation: TC: endmill_FC1D317)
(Path: TC: endmill_FC1D317)
(TC: endmill_FC1D317)
(Begin toolchange)
( M6 T1.0 )
M3 S10000.0
(Finish operation: TC: endmill_FC1D317)
(Begin operation: RampEntryDressup)
(Path: RampEntryDressup)
G0 X0.000 Y0.000 Z6.000
G0 X3.122 Y3.122 Z6.000
G0 X3.122 Y3.122 Z4.000
G1 X3.509 Y2.675 Z3.943 F300.000
G1 X3.833 Y2.182 Z3.876 F300.000
G1 X4.090 Y1.652 Z3.799 F300.000
G1 X4.274 Y1.094 Z3.714 F300.000
G1 X4.382 Y0.518 Z3.622 F300.000
G1 X4.413 Y-0.067 Z3.525 F300.000
G1 X4.366 Y-0.651 Z3.424 F300.000
G1 X4.242 Y-1.222 Z3.321 F300.000
G1 X4.043 Y-1.772 Z3.219 F300.000
G1 X3.773 Y-2.291 Z3.118 F300.000
G1 X3.435 Y-2.770 Z3.021 F300.000
G1 X3.037 Y-3.200 Z2.929 F300.000
G1 X2.584 Y-3.575 Z2.844 F300.000
G1 X2.085 Y-3.887 Z2.767 F300.000
G1 X1.548 Y-4.132 Z2.699 F300.000
G1 X0.982 Y-4.304 Z2.643 F300.000
G1 X0.405 Y-4.384 Z2.631 F300.000
G1 X-0.177 Y-4.391 Z2.603 F300.000
G1 X-0.755 Y-4.324 Z2.560 F300.000
G1 X-1.318 Y-4.185 Z2.501 F300.000
G1 X-1.857 Y-3.977 Z2.427 F300.000
G1 X-2.364 Y-3.702 Z2.341 F300.000
G1 X-2.830 Y-3.366 Z2.244 F300.000
G1 X-3.247 Y-2.973 Z2.136 F300.000
G1 X-3.608 Y-2.531 Z2.020 F300.000
G1 X-3.908 Y-2.046 Z1.898 F300.000
G1 X-4.141 Y-1.527 Z1.771 F300.000
G1 X-4.304 Y-0.982 Z1.643 F300.000
G1 X-4.394 Y-0.421 Z1.514 F300.000
G1 X-4.409 Y0.148 Z1.388 F300.000
G1 X-4.349 Y0.715 Z1.266 F300.000
G1 X-4.215 Y1.270 Z1.150 F300.000
G1 X-4.010 Y1.805 Z1.042 F300.000
G1 X-3.736 Y2.310 Z0.944 F300.000
G1 X-3.399 Y2.777 Z0.858 F300.000
G1 X-3.003 Y3.199 Z0.785 F300.000
G1 X-2.556 Y3.569 Z0.726 F300.000
G1 X-2.065 Y3.879 Z0.682 F300.000
G1 X-1.537 Y4.126 Z0.654 F300.000
G1 X-0.982 Y4.304 Z0.643 F300.000
G1 X-0.432 Y4.394 Z0.567 F300.000
G1 X0.125 Y4.413 Z0.487 F300.000
G1 X0.679 Y4.362 Z0.405 F300.000
G1 X1.222 Y4.242 Z0.321 F300.000
G1 X1.746 Y4.055 Z0.238 F300.000
G1 X2.242 Y3.803 Z0.156 F300.000
G1 X2.703 Y3.490 Z0.076 F300.000
G1 X3.122 Y3.122 Z-0.000 F300.000
G1 X3.509 Y2.679 Z-0.014 F300.000
G1 X3.834 Y2.189 Z-0.031 F300.000
G1 X4.091 Y1.660 Z-0.050 F300.000
G1 X4.275 Y1.102 Z-0.071 F300.000
G1 X4.384 Y0.525 Z-0.094 F300.000
G1 X4.414 Y-0.062 Z-0.119 F300.000
G1 X4.367 Y-0.648 Z-0.144 F300.000
G1 X4.242 Y-1.222 Z-0.170 F300.000
G1 X4.043 Y-1.775 Z-0.195 F300.000
G1 X3.771 Y-2.296 Z-0.221 F300.000
G1 X3.433 Y-2.776 Z-0.245 F300.000
G1 X3.033 Y-3.208 Z-0.268 F300.000
G1 X2.580 Y-3.582 Z-0.289 F300.000
G1 X2.081 Y-3.893 Z-0.309 F300.000
G1 X1.546 Y-4.135 Z-0.325 F300.000
G1 X0.982 Y-4.304 Z-0.339 F300.000
G1 X0.412 Y-4.395 Z-0.341 F300.000
G1 X-0.166 Y-4.411 Z-0.348 F300.000
G1 X-0.741 Y-4.351 Z-0.358 F300.000
G1 X-1.302 Y-4.217 Z-0.373 F300.000
G1 X-1.842 Y-4.011 Z-0.391 F300.000
G1 X-2.350 Y-3.736 Z-0.413 F300.000
G1 X-2.818 Y-3.398 Z-0.437 F300.000
G1 X-3.237 Y-3.001 Z-0.464 F300.000
G1 X-3.601 Y-2.553 Z-0.494 F300.000
G1 X-3.904 Y-2.062 Z-0.525 F300.000
G1 X-4.139 Y-1.535 Z-0.557 F300.000
G1 X-4.304 Y-0.982 Z-0.589 F300.000
G1 X-4.396 Y-0.413 Z-0.622 F300.000
G1 X-4.412 Y0.164 Z-0.654 F300.000
G1 X-4.352 Y0.738 Z-0.685 F300.000
G1 X-4.219 Y1.299 Z-0.714 F300.000
G1 X-4.013 Y1.839 Z-0.741 F300.000
G1 X-3.738 Y2.346 Z-0.766 F300.000
G1 X-3.400 Y2.814 Z-0.787 F300.000
G1 X-3.003 Y3.234 Z-0.806 F300.000
G1 X-2.555 Y3.599 Z-0.820 F300.000
G1 X-2.063 Y3.902 Z-0.831 F300.000
G1 X-1.536 Y4.138 Z-0.837 F300.000
G1 X-0.982 Y4.304 Z-0.839 F300.000
G1 X-0.433 Y4.394 Z-0.858 F300.000
G1 X0.124 Y4.413 Z-0.878 F300.000
G1 X0.678 Y4.363 Z-0.899 F300.000
G1 X1.222 Y4.242 Z-0.920 F300.000
G1 X1.747 Y4.055 Z-0.941 F300.000
G1 X2.243 Y3.803 Z-0.961 F300.000
G1 X2.704 Y3.490 Z-0.981 F300.000
G1 X3.122 Y3.122 Z-1.000 F300.000
G1 X3.509 Y2.679 Z-1.014 F300.000
G1 X3.834 Y2.189 Z-1.031 F300.000
G1 X4.091 Y1.660 Z-1.050 F300.000
G1 X4.275 Y1.102 Z-1.071 F300.000
G1 X4.384 Y0.525 Z-1.094 F300.000
G1 X4.414 Y-0.062 Z-1.119 F300.000
G1 X4.367 Y-0.648 Z-1.144 F300.000
G1 X4.242 Y-1.222 Z-1.170 F300.000
G1 X4.043 Y-1.775 Z-1.195 F300.000
G1 X3.771 Y-2.296 Z-1.221 F300.000
G1 X3.433 Y-2.776 Z-1.245 F300.000
G1 X3.033 Y-3.208 Z-1.268 F300.000
G1 X2.580 Y-3.582 Z-1.289 F300.000
G1 X2.081 Y-3.893 Z-1.309 F300.000
G1 X1.546 Y-4.135 Z-1.325 F300.000
G1 X0.982 Y-4.304 Z-1.339 F300.000
G1 X0.412 Y-4.395 Z-1.341 F300.000
G1 X-0.166 Y-4.411 Z-1.348 F300.000
G1 X-0.741 Y-4.351 Z-1.358 F300.000
G1 X-1.302 Y-4.217 Z-1.373 F300.000
G1 X-1.842 Y-4.011 Z-1.391 F300.000
G1 X-2.350 Y-3.736 Z-1.413 F300.000
G1 X-2.818 Y-3.398 Z-1.437 F300.000
G1 X-3.237 Y-3.001 Z-1.464 F300.000
G1 X-3.601 Y-2.553 Z-1.494 F300.000
G1 X-3.904 Y-2.062 Z-1.525 F300.000
G1 X-4.139 Y-1.535 Z-1.557 F300.000
G1 X-4.304 Y-0.982 Z-1.589 F300.000
G1 X-4.396 Y-0.413 Z-1.622 F300.000
G1 X-4.412 Y0.164 Z-1.654 F300.000
G1 X-4.352 Y0.738 Z-1.685 F300.000
G1 X-4.219 Y1.299 Z-1.714 F300.000
G1 X-4.013 Y1.839 Z-1.741 F300.000
G1 X-3.738 Y2.346 Z-1.766 F300.000
G1 X-3.400 Y2.814 Z-1.787 F300.000
G1 X-3.003 Y3.234 Z-1.806 F300.000
G1 X-2.555 Y3.599 Z-1.820 F300.000
G1 X-2.063 Y3.902 Z-1.831 F300.000
G1 X-1.536 Y4.138 Z-1.837 F300.000
G1 X-0.982 Y4.304 Z-1.839 F300.000
G1 X-0.433 Y4.394 Z-1.858 F300.000
G1 X0.124 Y4.413 Z-1.878 F300.000
G1 X0.678 Y4.363 Z-1.899 F300.000
G1 X1.222 Y4.242 Z-1.920 F300.000
G1 X1.747 Y4.055 Z-1.941 F300.000
G1 X2.243 Y3.803 Z-1.961 F300.000
G1 X2.704 Y3.490 Z-1.981 F300.000
G1 X3.122 Y3.122 Z-2.000 F300.000
G1 X3.509 Y2.679 Z-2.014 F300.000
G1 X3.834 Y2.189 Z-2.031 F300.000
G1 X4.091 Y1.660 Z-2.050 F300.000
G1 X4.275 Y1.102 Z-2.071 F300.000
G1 X4.384 Y0.525 Z-2.094 F300.000
G1 X4.414 Y-0.062 Z-2.119 F300.000
G1 X4.367 Y-0.648 Z-2.144 F300.000
G1 X4.242 Y-1.222 Z-2.170 F300.000
G1 X4.043 Y-1.775 Z-2.195 F300.000
G1 X3.771 Y-2.296 Z-2.221 F300.000
G1 X3.433 Y-2.776 Z-2.245 F300.000
G1 X3.033 Y-3.208 Z-2.268 F300.000
G1 X2.580 Y-3.582 Z-2.289 F300.000
G1 X2.081 Y-3.893 Z-2.309 F300.000
G1 X1.546 Y-4.135 Z-2.325 F300.000
G1 X0.982 Y-4.304 Z-2.339 F300.000
G1 X0.412 Y-4.395 Z-2.341 F300.000
G1 X-0.166 Y-4.411 Z-2.348 F300.000
G1 X-0.741 Y-4.351 Z-2.358 F300.000
G1 X-1.302 Y-4.217 Z-2.373 F300.000
G1 X-1.842 Y-4.011 Z-2.391 F300.000
G1 X-2.350 Y-3.736 Z-2.413 F300.000
G1 X-2.818 Y-3.398 Z-2.437 F300.000
G1 X-3.237 Y-3.001 Z-2.464 F300.000
G1 X-3.601 Y-2.553 Z-2.494 F300.000
G1 X-3.904 Y-2.062 Z-2.525 F300.000
G1 X-4.139 Y-1.535 Z-2.557 F300.000
G1 X-4.304 Y-0.982 Z-2.589 F300.000
G1 X-4.396 Y-0.413 Z-2.622 F300.000
G1 X-4.412 Y0.164 Z-2.654 F300.000
G1 X-4.352 Y0.738 Z-2.685 F300.000
G1 X-4.219 Y1.299 Z-2.714 F300.000
G1 X-4.013 Y1.839 Z-2.741 F300.000
G1 X-3.738 Y2.346 Z-2.766 F300.000
G1 X-3.400 Y2.814 Z-2.787 F300.000
G1 X-3.003 Y3.234 Z-2.806 F300.000
G1 X-2.555 Y3.599 Z-2.820 F300.000
G1 X-2.063 Y3.902 Z-2.831 F300.000
G1 X-1.536 Y4.138 Z-2.837 F300.000
G1 X-0.982 Y4.304 Z-2.839 F300.000
G1 X-0.433 Y4.394 Z-2.858 F300.000
G1 X0.124 Y4.413 Z-2.878 F300.000
G1 X0.678 Y4.363 Z-2.899 F300.000
G1 X1.222 Y4.242 Z-2.920 F300.000
G1 X1.747 Y4.055 Z-2.941 F300.000
G1 X2.243 Y3.803 Z-2.961 F300.000
G1 X2.704 Y3.490 Z-2.981 F300.000
G1 X3.122 Y3.122 Z-3.000 F300.000
G1 X3.509 Y2.679 Z-3.014 F300.000
G1 X3.834 Y2.189 Z-3.031 F300.000
G1 X4.091 Y1.660 Z-3.050 F300.000
G1 X4.275 Y1.102 Z-3.071 F300.000
G1 X4.384 Y0.525 Z-3.094 F300.000
G1 X4.414 Y-0.062 Z-3.119 F300.000
G1 X4.367 Y-0.648 Z-3.144 F300.000
G1 X4.242 Y-1.222 Z-3.170 F300.000
G1 X4.043 Y-1.775 Z-3.195 F300.000
G1 X3.771 Y-2.296 Z-3.221 F300.000
G1 X3.433 Y-2.776 Z-3.245 F300.000
G1 X3.033 Y-3.208 Z-3.268 F300.000
G1 X2.580 Y-3.582 Z-3.289 F300.000
G1 X2.081 Y-3.893 Z-3.309 F300.000
G1 X1.546 Y-4.135 Z-3.325 F300.000
G1 X0.982 Y-4.304 Z-3.339 F300.000
G1 X0.412 Y-4.395 Z-3.341 F300.000
G1 X-0.166 Y-4.411 Z-3.348 F300.000
G1 X-0.741 Y-4.351 Z-3.358 F300.000
G1 X-1.302 Y-4.217 Z-3.373 F300.000
G1 X-1.842 Y-4.011 Z-3.391 F300.000
G1 X-2.350 Y-3.736 Z-3.413 F300.000
G1 X-2.818 Y-3.398 Z-3.437 F300.000
G1 X-3.237 Y-3.001 Z-3.464 F300.000
G1 X-3.601 Y-2.553 Z-3.494 F300.000
G1 X-3.904 Y-2.062 Z-3.525 F300.000
G1 X-4.139 Y-1.535 Z-3.557 F300.000
G1 X-4.304 Y-0.982 Z-3.589 F300.000
G1 X-4.396 Y-0.413 Z-3.622 F300.000
G1 X-4.412 Y0.164 Z-3.654 F300.000
G1 X-4.352 Y0.738 Z-3.685 F300.000
G1 X-4.219 Y1.299 Z-3.714 F300.000
G1 X-4.013 Y1.839 Z-3.741 F300.000
G1 X-3.738 Y2.346 Z-3.766 F300.000
G1 X-3.400 Y2.814 Z-3.787 F300.000
G1 X-3.003 Y3.234 Z-3.806 F300.000
G1 X-2.555 Y3.599 Z-3.820 F300.000
G1 X-2.063 Y3.902 Z-3.831 F300.000
G1 X-1.536 Y4.138 Z-3.837 F300.000
G1 X-0.982 Y4.304 Z-3.839 F300.000
G1 X-0.433 Y4.394 Z-3.858 F300.000
G1 X0.124 Y4.413 Z-3.878 F300.000
G1 X0.678 Y4.363 Z-3.899 F300.000
G1 X1.222 Y4.242 Z-3.920 F300.000
G1 X1.747 Y4.055 Z-3.941 F300.000
G1 X2.243 Y3.803 Z-3.961 F300.000
G1 X2.704 Y3.490 Z-3.981 F300.000
G1 X3.122 Y3.122 Z-4.000 F300.000
G1 X3.509 Y2.679 Z-4.014 F300.000
G1 X3.834 Y2.189 Z-4.031 F300.000
G1 X4.091 Y1.660 Z-4.050 F300.000
G1 X4.275 Y1.102 Z-4.071 F300.000
G1 X4.384 Y0.525 Z-4.094 F300.000
G1 X4.414 Y-0.062 Z-4.119 F300.000
G1 X4.367 Y-0.648 Z-4.144 F300.000
G1 X4.242 Y-1.222 Z-4.170 F300.000
G1 X4.043 Y-1.775 Z-4.195 F300.000
G1 X3.771 Y-2.296 Z-4.221 F300.000
G1 X3.433 Y-2.776 Z-4.245 F300.000
G1 X3.033 Y-3.208 Z-4.268 F300.000
G1 X2.580 Y-3.582 Z-4.289 F300.000
G1 X2.081 Y-3.893 Z-4.309 F300.000
G1 X1.546 Y-4.135 Z-4.325 F300.000
G1 X0.982 Y-4.304 Z-4.339 F300.000
G1 X0.412 Y-4.395 Z-4.341 F300.000
G1 X-0.166 Y-4.411 Z-4.348 F300.000
G1 X-0.741 Y-4.351 Z-4.358 F300.000
G1 X-1.302 Y-4.217 Z-4.373 F300.000
G1 X-1.842 Y-4.011 Z-4.391 F300.000
G1 X-2.350 Y-3.736 Z-4.413 F300.000
G1 X-2.818 Y-3.398 Z-4.437 F300.000
G1 X-3.237 Y-3.001 Z-4.464 F300.000
G1 X-3.601 Y-2.553 Z-4.494 F300.000
G1 X-3.904 Y-2.062 Z-4.525 F300.000
G1 X-4.139 Y-1.535 Z-4.557 F300.000
G1 X-4.304 Y-0.982 Z-4.589 F300.000
G1 X-4.396 Y-0.413 Z-4.622 F300.000
G1 X-4.412 Y0.164 Z-4.654 F300.000
G1 X-4.352 Y0.738 Z-4.685 F300.000
G1 X-4.219 Y1.299 Z-4.714 F300.000
G1 X-4.013 Y1.839 Z-4.741 F300.000
G1 X-3.738 Y2.346 Z-4.766 F300.000
G1 X-3.400 Y2.814 Z-4.787 F300.000
G1 X-3.003 Y3.234 Z-4.806 F300.000
G1 X-2.555 Y3.599 Z-4.820 F300.000
G1 X-2.063 Y3.902 Z-4.831 F300.000
G1 X-1.536 Y4.138 Z-4.837 F300.000
G1 X-0.982 Y4.304 Z-4.839 F300.000
G1 X-0.433 Y4.394 Z-4.858 F300.000
G1 X0.124 Y4.413 Z-4.878 F300.000
G1 X0.678 Y4.363 Z-4.899 F300.000
G1 X1.222 Y4.242 Z-4.920 F300.000
G1 X1.747 Y4.055 Z-4.941 F300.000
G1 X2.243 Y3.803 Z-4.961 F300.000
G1 X2.704 Y3.490 Z-4.981 F300.000
G1 X3.122 Y3.122 Z-5.000 F300.000
G1 X3.509 Y2.679 Z-5.014 F300.000
G1 X3.834 Y2.189 Z-5.031 F300.000
G1 X4.091 Y1.660 Z-5.050 F300.000
G1 X4.275 Y1.102 Z-5.071 F300.000
G1 X4.384 Y0.525 Z-5.094 F300.000
G1 X4.414 Y-0.062 Z-5.119 F300.000
G1 X4.367 Y-0.648 Z-5.144 F300.000
G1 X4.242 Y-1.222 Z-5.170 F300.000
G1 X4.043 Y-1.775 Z-5.195 F300.000
G1 X3.771 Y-2.296 Z-5.221 F300.000
G1 X3.433 Y-2.776 Z-5.245 F300.000
G1 X3.033 Y-3.208 Z-5.268 F300.000
G1 X2.580 Y-3.582 Z-5.289 F300.000
G1 X2.081 Y-3.893 Z-5.309 F300.000
G1 X1.546 Y-4.135 Z-5.325 F300.000
G1 X0.982 Y-4.304 Z-5.339 F300.000
G1 X0.412 Y-4.395 Z-5.341 F300.000
G1 X-0.166 Y-4.411 Z-5.348 F300.000
G1 X-0.741 Y-4.351 Z-5.358 F300.000
G1 X-1.302 Y-4.217 Z-5.373 F300.000
G1 X-1.842 Y-4.011 Z-5.391 F300.000
G1 X-2.350 Y-3.736 Z-5.413 F300.000
G1 X-2.818 Y-3.398 Z-5.437 F300.000
G1 X-3.237 Y-3.001 Z-5.464 F300.000
G1 X-3.601 Y-2.553 Z-5.494 F300.000
G1 X-3.904 Y-2.062 Z-5.525 F300.000
G1 X-4.139 Y-1.535 Z-5.557 F300.000
G1 X-4.304 Y-0.982 Z-5.589 F300.000
G1 X-4.396 Y-0.413 Z-5.622 F300.000
G1 X-4.412 Y0.164 Z-5.654 F300.000
G1 X-4.352 Y0.738 Z-5.685 F300.000
G1 X-4.219 Y1.299 Z-5.714 F300.000
G1 X-4.013 Y1.839 Z-5.741 F300.000
G1 X-3.738 Y2.346 Z-5.766 F300.000
G1 X-3.400 Y2.814 Z-5.787 F300.000
G1 X-3.003 Y3.234 Z-5.806 F300.000
G1 X-2.555 Y3.599 Z-5.820 F300.000
G1 X-2.063 Y3.902 Z-5.831 F300.000
G1 X-1.536 Y4.138 Z-5.837 F300.000
G1 X-0.982 Y4.304 Z-5.839 F300.000
G1 X-0.433 Y4.394 Z-5.858 F300.000
G1 X0.124 Y4.413 Z-5.878 F300.000
G1 X0.678 Y4.363 Z-5.899 F300.000
G1 X1.222 Y4.242 Z-5.920 F300.000
G1 X1.747 Y4.055 Z-5.941 F300.000
G1 X2.243 Y3.803 Z-5.961 F300.000
G1 X2.704 Y3.490 Z-5.981 F300.000
G1 X3.122 Y3.122 Z-6.000 F300.000
G1 X3.509 Y2.679 Z-6.014 F300.000
G1 X3.834 Y2.189 Z-6.031 F300.000
G1 X4.091 Y1.660 Z-6.050 F300.000
G1 X4.275 Y1.102 Z-6.071 F300.000
G1 X4.384 Y0.525 Z-6.094 F300.000
G1 X4.414 Y-0.062 Z-6.119 F300.000
G1 X4.367 Y-0.648 Z-6.144 F300.000
G1 X4.242 Y-1.222 Z-6.170 F300.000
G1 X4.043 Y-1.775 Z-6.195 F300.000
G1 X3.771 Y-2.296 Z-6.221 F300.000
G1 X3.433 Y-2.776 Z-6.245 F300.000
G1 X3.033 Y-3.208 Z-6.268 F300.000
G1 X2.580 Y-3.582 Z-6.289 F300.000
G1 X2.081 Y-3.893 Z-6.309 F300.000
G1 X1.546 Y-4.135 Z-6.325 F300.000
G1 X0.982 Y-4.304 Z-6.339 F300.000
G1 X0.412 Y-4.395 Z-6.341 F300.000
G1 X-0.166 Y-4.411 Z-6.348 F300.000
G1 X-0.741 Y-4.351 Z-6.358 F300.000
G1 X-1.302 Y-4.217 Z-6.373 F300.000
G1 X-1.842 Y-4.011 Z-6.391 F300.000
G1 X-2.350 Y-3.736 Z-6.413 F300.000
G1 X-2.818 Y-3.398 Z-6.437 F300.000
G1 X-3.237 Y-3.001 Z-6.464 F300.000
G1 X-3.601 Y-2.553 Z-6.494 F300.000
G1 X-3.904 Y-2.062 Z-6.525 F300.000
G1 X-4.139 Y-1.535 Z-6.557 F300.000
G1 X-4.304 Y-0.982 Z-6.589 F300.000
G1 X-4.396 Y-0.413 Z-6.622 F300.000
G1 X-4.412 Y0.164 Z-6.654 F300.000
G1 X-4.352 Y0.738 Z-6.685 F300.000
G1 X-4.219 Y1.299 Z-6.714 F300.000
G1 X-4.013 Y1.839 Z-6.741 F300.000
G1 X-3.738 Y2.346 Z-6.766 F300.000
G1 X-3.400 Y2.814 Z-6.787 F300.000
G1 X-3.003 Y3.234 Z-6.806 F300.000
G1 X-2.555 Y3.599 Z-6.820 F300.000
G1 X-2.063 Y3.902 Z-6.831 F300.000
G1 X-1.536 Y4.138 Z-6.837 F300.000
G1 X-0.982 Y4.304 Z-6.839 F300.000
G1 X-0.433 Y4.394 Z-6.858 F300.000
G1 X0.124 Y4.413 Z-6.878 F300.000
G1 X0.678 Y4.363 Z-6.899 F300.000
G1 X1.222 Y4.242 Z-6.920 F300.000
G1 X1.747 Y4.055 Z-6.941 F300.000
G1 X2.243 Y3.803 Z-6.961 F300.000
G1 X2.704 Y3.490 Z-6.981 F300.000
G1 X3.122 Y3.122 Z-7.000 F300.000
G1 X3.509 Y2.679 Z-7.014 F300.000
G1 X3.834 Y2.189 Z-7.031 F300.000
G1 X4.091 Y1.660 Z-7.050 F300.000
G1 X4.275 Y1.102 Z-7.071 F300.000
G1 X4.384 Y0.525 Z-7.094 F300.000
G1 X4.414 Y-0.062 Z-7.119 F300.000
G1 X4.367 Y-0.648 Z-7.144 F300.000
G1 X4.242 Y-1.222 Z-7.170 F300.000
G1 X4.043 Y-1.775 Z-7.195 F300.000
G1 X3.771 Y-2.296 Z-7.221 F300.000
G1 X3.433 Y-2.776 Z-7.245 F300.000
G1 X3.033 Y-3.208 Z-7.268 F300.000
G1 X2.580 Y-3.582 Z-7.289 F300.000
G1 X2.081 Y-3.893 Z-7.309 F300.000
G1 X1.546 Y-4.135 Z-7.325 F300.000
G1 X0.982 Y-4.304 Z-7.339 F300.000
G1 X0.412 Y-4.395 Z-7.341 F300.000
G1 X-0.166 Y-4.411 Z-7.348 F300.000
G1 X-0.741 Y-4.351 Z-7.358 F300.000
G1 X-1.302 Y-4.217 Z-7.373 F300.000
G1 X-1.842 Y-4.011 Z-7.391 F300.000
G1 X-2.350 Y-3.736 Z-7.413 F300.000
G1 X-2.818 Y-3.398 Z-7.437 F300.000
G1 X-3.237 Y-3.001 Z-7.464 F300.000
G1 X-3.601 Y-2.553 Z-7.494 F300.000
G1 X-3.904 Y-2.062 Z-7.525 F300.000
G1 X-4.139 Y-1.535 Z-7.557 F300.000
G1 X-4.304 Y-0.982 Z-7.589 F300.000
G1 X-4.396 Y-0.413 Z-7.622 F300.000
G1 X-4.412 Y0.164 Z-7.654 F300.000
G1 X-4.352 Y0.738 Z-7.685 F300.000
G1 X-4.219 Y1.299 Z-7.714 F300.000
G1 X-4.013 Y1.839 Z-7.741 F300.000
G1 X-3.738 Y2.346 Z-7.766 F300.000
G1 X-3.400 Y2.814 Z-7.787 F300.000
G1 X-3.003 Y3.234 Z-7.806 F300.000
G1 X-2.555 Y3.599 Z-7.820 F300.000
G1 X-2.063 Y3.902 Z-7.831 F300.000
G1 X-1.536 Y4.138 Z-7.837 F300.000
G1 X-0.982 Y4.304 Z-7.839 F300.000
G1 X-0.433 Y4.394 Z-7.858 F300.000
G1 X0.124 Y4.413 Z-7.878 F300.000
G1 X0.678 Y4.363 Z-7.899 F300.000
G1 X1.222 Y4.242 Z-7.920 F300.000
G1 X1.747 Y4.055 Z-7.941 F300.000
G1 X2.243 Y3.803 Z-7.961 F300.000
G1 X2.704 Y3.490 Z-7.981 F300.000
G1 X3.122 Y3.122 Z-8.000 F300.000
G1 X3.509 Y2.679 Z-8.014 F300.000
G1 X3.834 Y2.189 Z-8.031 F300.000
G1 X4.091 Y1.660 Z-8.050 F300.000
G1 X4.275 Y1.102 Z-8.071 F300.000
G1 X4.384 Y0.525 Z-8.094 F300.000
G1 X4.414 Y-0.062 Z-8.119 F300.000
G1 X4.367 Y-0.648 Z-8.144 F300.000
G1 X4.242 Y-1.222 Z-8.170 F300.000
G1 X4.043 Y-1.775 Z-8.195 F300.000
G1 X3.771 Y-2.296 Z-8.221 F300.000
G1 X3.433 Y-2.776 Z-8.245 F300.000
G1 X3.033 Y-3.208 Z-8.268 F300.000
G1 X2.580 Y-3.582 Z-8.289 F300.000
G1 X2.081 Y-3.893 Z-8.309 F300.000
G1 X1.546 Y-4.135 Z-8.325 F300.000
G1 X0.982 Y-4.304 Z-8.339 F300.000
G1 X0.412 Y-4.395 Z-8.341 F300.000
G1 X-0.166 Y-4.411 Z-8.348 F300.000
G1 X-0.741 Y-4.351 Z-8.358 F300.000
G1 X-1.302 Y-4.217 Z-8.373 F300.000
G1 X-1.842 Y-4.011 Z-8.391 F300.000
G1 X-2.350 Y-3.736 Z-8.413 F300.000
G1 X-2.818 Y-3.398 Z-8.437 F300.000
G1 X-3.237 Y-3.001 Z-8.464 F300.000
G1 X-3.601 Y-2.553 Z-8.494 F300.000
G1 X-3.904 Y-2.062 Z-8.525 F300.000
G1 X-4.139 Y-1.535 Z-8.557 F300.000
G1 X-4.304 Y-0.982 Z-8.589 F300.000
G1 X-4.396 Y-0.413 Z-8.622 F300.000
G1 X-4.412 Y0.164 Z-8.654 F300.000
G1 X-4.352 Y0.738 Z-8.685 F300.000
G1 X-4.219 Y1.299 Z-8.714 F300.000
G1 X-4.013 Y1.839 Z-8.741 F300.000
G1 X-3.738 Y2.346 Z-8.766 F300.000
G1 X-3.400 Y2.814 Z-8.787 F300.000
G1 X-3.003 Y3.234 Z-8.806 F300.000
G1 X-2.555 Y3.599 Z-8.820 F300.000
G1 X-2.063 Y3.902 Z-8.831 F300.000
G1 X-1.536 Y4.138 Z-8.837 F300.000
G1 X-0.982 Y4.304 Z-8.839 F300.000
G1 X-0.433 Y4.394 Z-8.858 F300.000
G1 X0.124 Y4.413 Z-8.878 F300.000
G1 X0.678 Y4.363 Z-8.899 F300.000
G1 X1.222 Y4.242 Z-8.920 F300.000
G1 X1.747 Y4.055 Z-8.941 F300.000
G1 X2.243 Y3.803 Z-8.961 F300.000
G1 X2.704 Y3.490 Z-8.981 F300.000
G1 X3.122 Y3.122 Z-9.000 F300.000
G1 X3.509 Y2.679 Z-9.014 F300.000
G1 X3.834 Y2.189 Z-9.031 F300.000
G1 X4.091 Y1.660 Z-9.050 F300.000
G1 X4.275 Y1.102 Z-9.071 F300.000
G1 X4.384 Y0.525 Z-9.094 F300.000
G1 X4.414 Y-0.062 Z-9.119 F300.000
G1 X4.367 Y-0.648 Z-9.144 F300.000
G1 X4.242 Y-1.222 Z-9.170 F300.000
G1 X4.043 Y-1.775 Z-9.195 F300.000
G1 X3.771 Y-2.296 Z-9.221 F300.000
G1 X3.433 Y-2.776 Z-9.245 F300.000
G1 X3.033 Y-3.208 Z-9.268 F300.000
G1 X2.580 Y-3.582 Z-9.289 F300.000
G1 X2.081 Y-3.893 Z-9.309 F300.000
G1 X1.546 Y-4.135 Z-9.325 F300.000
G1 X0.982 Y-4.304 Z-9.339 F300.000
G1 X0.412 Y-4.395 Z-9.341 F300.000
G1 X-0.166 Y-4.411 Z-9.348 F300.000
G1 X-0.741 Y-4.351 Z-9.358 F300.000
G1 X-1.302 Y-4.217 Z-9.373 F300.000
G1 X-1.842 Y-4.011 Z-9.391 F300.000
G1 X-2.350 Y-3.736 Z-9.413 F300.000
G1 X-2.818 Y-3.398 Z-9.437 F300.000
G1 X-3.237 Y-3.001 Z-9.464 F300.000
G1 X-3.601 Y-2.553 Z-9.494 F300.000
G1 X-3.904 Y-2.062 Z-9.525 F300.000
G1 X-4.139 Y-1.535 Z-9.557 F300.000
G1 X-4.304 Y-0.982 Z-9.589 F300.000
G1 X-4.396 Y-0.413 Z-9.622 F300.000
G1 X-4.412 Y0.164 Z-9.654 F300.000
G1 X-4.352 Y0.738 Z-9.685 F300.000
G1 X-4.219 Y1.299 Z-9.714 F300.000
G1 X-4.013 Y1.839 Z-9.741 F300.000
G1 X-3.738 Y2.346 Z-9.766 F300.000
G1 X-3.400 Y2.814 Z-9.787 F300.000
G1 X-3.003 Y3.234 Z-9.806 F300.000
G1 X-2.555 Y3.599 Z-9.820 F300.000
G1 X-2.063 Y3.902 Z-9.831 F300.000
G1 X-1.536 Y4.138 Z-9.837 F300.000
G1 X-0.982 Y4.304 Z-9.839 F300.000
G1 X-0.433 Y4.394 Z-9.858 F300.000
G1 X0.124 Y4.413 Z-9.878 F300.000
G1 X0.678 Y4.363 Z-9.899 F300.000
G1 X1.222 Y4.242 Z-9.920 F300.000
G1 X1.747 Y4.055 Z-9.941 F300.000
G1 X2.243 Y3.803 Z-9.961 F300.000
G1 X2.704 Y3.490 Z-9.981 F300.000
G1 X3.122 Y3.122 Z-10.000 F300.000
G2 X0.982 Y-4.304 Z-10.000 I-3.122 J-3.122 K0.000 F300.000
G2 X-0.982 Y4.304 Z-10.000 I-0.982 J4.304 K0.000 F300.000
G2 X3.122 Y3.122 Z-10.000 I0.982 J-4.304 K0.000 F300.000
G0 X3.122 Y3.122 Z6.000
(Finish operation: RampEntryDressup)
(Begin operation: START_Pocket_Shape)
(Path: START_Pocket_Shape)
(START_Pocket_Shape)
G0 Z6.000
G0 X43.417 Y10.820
G0 Z4.000
G1 X43.417 Y10.820 Z0.000 F120.000
G1 X43.417 Y6.649 Z0.000 F300.000
G1 X40.194 Y5.607 Z0.000 F300.000
G3 X39.098 Y4.101 Z0.000 I0.487 J-1.506 K0.000 F300.000
G1 X39.098 Y-4.843 Z0.000 F300.000
G3 X40.194 Y-6.348 Z0.000 I1.583 J0.000 K0.000 F300.000
G1 X43.417 Y-7.391 Z0.000 F300.000
G1 X43.417 Y-11.380 Z0.000 F300.000
G1 X21.043 Y-2.692 Z0.000 F300.000
G1 X21.043 Y1.946 Z0.000 F300.000
G1 X43.417 Y10.820 Z0.000 F300.000
G0 Z6.000
G0 X35.702 Y7.760 Z6.000
G0 X35.702 Y7.760 Z4.000
G1 X35.702 Y7.760 Z0.000 F120.000
G1 X30.264 Y2.322 Z0.000 F300.000
G1 X34.704 Y3.902 Z0.000 F300.000
G2 X36.126 Y3.708 Z0.000 I0.526 J-1.454 K0.000 F300.000
G1 X43.120 Y10.702 Z0.000 F300.000
G1 X43.417 Y10.820 Z0.000 F300.000
G1 X43.417 Y6.649 Z0.000 F300.000
G1 X40.194 Y5.607 Z0.000 F300.000
G3 X39.098 Y4.101 Z0.000 I0.487 J-1.506 K0.000 F300.000
G1 X39.098 Y2.204 Z0.000 F300.000
G1 X36.817 Y-0.077 Z0.000 F300.000
G1 X36.817 Y-0.077 Z0.000 F120.000
G1 X36.817 Y2.411 Z0.000 F300.000
G3 X34.704 Y3.902 Z0.000 I-1.583 J-0.000 K0.000 F300.000
G1 X26.852 Y1.108 Z0.000 F300.000
G3 X26.856 Y-1.875 Z0.000 I0.530 J-1.491 K0.000 F300.000
G1 X34.708 Y-4.645 Z0.000 F300.000
G3 X35.370 Y-4.729 Z0.000 I0.526 J1.492 K0.000 F300.000
G3 X36.817 Y-3.153 Z0.000 I-0.135 J1.577 K0.000 F300.000
G1 X36.817 Y-0.077 Z0.000 F300.000
G0 Z6.000
G0 X28.284 Y4.818 Z6.000
G0 X28.284 Y4.818 Z4.000
G1 X28.284 Y4.818 Z0.000 F120.000
G1 X21.043 Y-2.423 Z0.000 F300.000
G1 X21.043 Y1.946 Z0.000 F300.000
G1 X28.284 Y4.818 Z0.000 F300.000
G1 X35.702 Y7.760 Z0.000 F300.000
G1 X30.264 Y2.322 Z0.000 F300.000
G1 X26.852 Y1.108 Z0.000 F300.000
G3 X26.362 Y-1.580 Z0.000 I0.522 J-1.484 K0.000 F300.000
G1 X24.073 Y-3.868 Z0.000 F300.000
G1 X27.297 Y-5.120 Z0.000 F300.000
G1 X29.582 Y-2.836 Z0.000 F300.000
G1 X32.890 Y-4.004 Z0.000 F300.000
G1 X30.521 Y-6.372 Z0.000 F300.000
G1 X33.745 Y-7.624 Z0.000 F300.000
G1 X39.098 Y-2.272 Z0.000 F300.000
G1 X39.098 Y-4.843 Z0.000 F300.000
G3 X39.741 Y-6.105 Z0.000 I1.546 J-0.008 K0.000 F300.000
G1 X36.969 Y-8.876 Z0.000 F300.000
G1 X40.193 Y-10.128 Z0.000 F300.000
G1 X43.050 Y-7.272 Z0.000 F300.000
G1 X43.417 Y-7.391 Z0.000 F300.000
G1 X43.417 Y-11.380 Z0.000 F300.000
G1 X43.417 Y-11.380 Z-1.000 F120.000
G1 X21.043 Y-2.692 Z-1.000 F300.000
G1 X21.043 Y1.946 Z-1.000 F300.000
G1 X43.417 Y10.820 Z-1.000 F300.000
G1 X43.417 Y6.649 Z-1.000 F300.000
G1 X40.194 Y5.607 Z-1.000 F300.000
G3 X39.098 Y4.101 Z-1.000 I0.487 J-1.506 K0.000 F300.000
G1 X39.098 Y-4.843 Z-1.000 F300.000
G3 X40.194 Y-6.348 Z-1.000 I1.583 J0.000 K0.000 F300.000
G1 X43.417 Y-7.391 Z-1.000 F300.000
G1 X43.417 Y-11.380 Z-1.000 F300.000
G1 X43.417 Y-11.380 Z-1.000 F120.000
G1 X43.417 Y-7.391 Z-1.000 F300.000
G1 X43.050 Y-7.272 Z-1.000 F300.000
G1 X40.193 Y-10.128 Z-1.000 F300.000
G1 X36.969 Y-8.876 Z-1.000 F300.000
G1 X39.741 Y-6.105 Z-1.000 F300.000
G2 X39.098 Y-4.843 Z-1.000 I0.904 J1.255 K0.000 F300.000
G1 X39.098 Y-2.272 Z-1.000 F300.000
G1 X33.745 Y-7.624 Z-1.000 F300.000
G1 X30.521 Y-6.372 Z-1.000 F300.000
G1 X32.890 Y-4.004 Z-1.000 F300.000
G1 X29.582 Y-2.836 Z-1.000 F300.000
G1 X27.297 Y-5.120 Z-1.000 F300.000
G1 X24.073 Y-3.868 Z-1.000 F300.000
G1 X26.362 Y-1.580 Z-1.000 F300.000
G2 X26.852 Y1.108 Z-1.000 I1.012 J1.204 K0.000 F300.000
G1 X30.264 Y2.322 Z-1.000 F300.000
G1 X35.702 Y7.760 Z-1.000 F300.000
G1 X28.284 Y4.818 Z-1.000 F300.000
G1 X21.043 Y1.946 Z-1.000 F300.000
G1 X21.043 Y-2.423 Z-1.000 F300.000
G1 X28.284 Y4.818 Z-1.000 F300.000
G0 Z6.000
G0 X29.295 Y1.977 Z6.000
G0 X29.295 Y1.977 Z4.000
G1 X29.295 Y1.977 Z-1.000 F120.000
G1 X26.852 Y1.108 Z-1.000 F300.000
G3 X26.856 Y-1.875 Z-1.000 I0.530 J-1.491 K0.000 F300.000
G1 X34.708 Y-4.645 Z-1.000 F300.000
G3 X35.370 Y-4.729 Z-1.000 I0.526 J1.492 K0.000 F300.000
G3 X36.817 Y-3.153 Z-1.000 I-0.135 J1.577 K0.000 F300.000
G1 X36.817 Y2.411 Z-1.000 F300.000
G3 X34.704 Y3.902 Z-1.000 I-1.583 J-0.000 K0.000 F300.000
G1 X29.295 Y1.977 Z-1.000 F300.000
G0 Z6.000
G0 X36.817 Y-0.077 Z6.000
G0 X36.817 Y-0.077 Z4.000
G1 X36.817 Y-0.077 Z-1.000 F120.000
G1 X39.098 Y2.204 Z-1.000 F300.000
G1 X39.098 Y4.101 Z-1.000 F300.000
G2 X40.194 Y5.607 Z-1.000 I1.583 J-0.000 K0.000 F300.000
G1 X43.417 Y6.649 Z-1.000 F300.000
G1 X43.417 Y10.820 Z-1.000 F300.000
G1 X43.120 Y10.702 Z-1.000 F300.000
G1 X36.126 Y3.708 Z-1.000 F300.000
G3 X34.704 Y3.902 Z-1.000 I-0.896 J-1.260 K0.000 F300.000
G1 X30.264 Y2.322 Z-1.000 F300.000
G1 X35.702 Y7.760 Z-1.000 F300.000
G1 X35.702 Y7.760 Z-2.000 F120.000
G1 X30.264 Y2.322 Z-2.000 F300.000
G1 X34.704 Y3.902 Z-2.000 F300.000
G2 X36.126 Y3.708 Z-2.000 I0.526 J-1.454 K0.000 F300.000
G1 X43.120 Y10.702 Z-2.000 F300.000
G1 X43.417 Y10.820 Z-2.000 F300.000
G1 X43.417 Y6.649 Z-2.000 F300.000
G1 X40.194 Y5.607 Z-2.000 F300.000
G3 X39.098 Y4.101 Z-2.000 I0.487 J-1.506 K0.000 F300.000
G1 X39.098 Y2.204 Z-2.000 F300.000
G1 X36.817 Y-0.077 Z-2.000 F300.000
G1 X36.817 Y-0.077 Z-2.000 F120.000
G1 X36.817 Y2.411 Z-2.000 F300.000
G3 X34.704 Y3.902 Z-2.000 I-1.583 J-0.000 K0.000 F300.000
G1 X26.852 Y1.108 Z-2.000 F300.000
G3 X26.856 Y-1.875 Z-2.000 I0.530 J-1.491 K0.000 F300.000
G1 X34.708 Y-4.645 Z-2.000 F300.000
G3 X35.370 Y-4.729 Z-2.000 I0.526 J1.492 K0.000 F300.000
G3 X36.817 Y-3.153 Z-2.000 I-0.135 J1.577 K0.000 F300.000
G1 X36.817 Y-0.077 Z-2.000 F300.000
G0 Z6.000
G0 X39.098 Z6.000
G0 X39.098 Z4.000
G1 X39.098 Y-0.077 Z-2.000 F120.000
G1 X39.098 Y-4.843 Z-2.000 F300.000
G3 X40.194 Y-6.348 Z-2.000 I1.583 J0.000 K0.000 F300.000
G1 X43.417 Y-7.391 Z-2.000 F300.000
G1 X43.417 Y-11.380 Z-2.000 F300.000
G1 X21.043 Y-2.692 Z-2.000 F300.000
G1 X21.043 Y1.946 Z-2.000 F300.000
G1 X43.417 Y10.820 Z-2.000 F300.000
G1 X43.417 Y6.649 Z-2.000 F300.000
G1 X40.194 Y5.607 Z-2.000 F300.000
G3 X39.098 Y4.101 Z-2.000 I0.487 J-1.506 K0.000 F300.000
G1 X39.098 Y-0.077 Z-2.000 F300.000
G0 Z6.000
G0 X28.284 Y4.818 Z6.000
G0 X28.284 Y4.818 Z4.000
G1 X28.284 Y4.818 Z-2.000 F120.000
G1 X21.043 Y-2.423 Z-2.000 F300.000
G1 X21.043 Y1.946 Z-2.000 F300.000
G1 X28.284 Y4.818 Z-2.000 F300.000
G1 X35.702 Y7.760 Z-2.000 F300.000
G1 X30.264 Y2.322 Z-2.000 F300.000
G1 X26.852 Y1.108 Z-2.000 F300.000
G3 X26.362 Y-1.580 Z-2.000 I0.522 J-1.484 K0.000 F300.000
G1 X24.073 Y-3.868 Z-2.000 F300.000
G1 X27.297 Y-5.120 Z-2.000 F300.000
G1 X29.582 Y-2.836 Z-2.000 F300.000
G1 X32.890 Y-4.004 Z-2.000 F300.000
G1 X30.521 Y-6.372 Z-2.000 F300.000
G1 X33.745 Y-7.624 Z-2.000 F300.000
G1 X39.098 Y-2.272 Z-2.000 F300.000
G1 X39.098 Y-4.843 Z-2.000 F300.000
G3 X39.741 Y-6.105 Z-2.000 I1.546 J-0.008 K0.000 F300.000
G1 X36.969 Y-8.876 Z-2.000 F300.000
G1 X40.193 Y-10.128 Z-2.000 F300.000
G1 X43.050 Y-7.272 Z-2.000 F300.000
G1 X43.417 Y-7.391 Z-2.000 F300.000
G1 X43.417 Y-11.380 Z-2.000 F300.000
G1 X43.417 Y-11.380 Z-3.000 F120.000
G1 X21.043 Y-2.692 Z-3.000 F300.000
G1 X21.043 Y1.946 Z-3.000 F300.000
G1 X43.417 Y10.820 Z-3.000 F300.000
G1 X43.417 Y6.649 Z-3.000 F300.000
G1 X40.194 Y5.607 Z-3.000 F300.000
G3 X39.098 Y4.101 Z-3.000 I0.487 J-1.506 K0.000 F300.000
G1 X39.098 Y-4.843 Z-3.000 F300.000
G3 X40.194 Y-6.348 Z-3.000 I1.583 J0.000 K0.000 F300.000
G1 X43.417 Y-7.391 Z-3.000 F300.000
G1 X43.417 Y-11.380 Z-3.000 F300.000
G1 X43.417 Y-11.380 Z-3.000 F120.000
G1 X43.417 Y-7.391 Z-3.000 F300.000
G1 X43.050 Y-7.272 Z-3.000 F300.000
G1 X40.193 Y-10.128 Z-3.000 F300.000
G1 X36.969 Y-8.876 Z-3.000 F300.000
G1 X39.741 Y-6.105 Z-3.000 F300.000
G2 X39.098 Y-4.843 Z-3.000 I0.904 J1.255 K0.000 F300.000
G1 X39.098 Y-2.272 Z-3.000 F300.000
G1 X33.745 Y-7.624 Z-3.000 F300.000
G1 X30.521 Y-6.372 Z-3.000 F300.000
G1 X32.890 Y-4.004 Z-3.000 F300.000
G1 X29.582 Y-2.836 Z-3.000 F300.000
G1 X27.297 Y-5.120 Z-3.000 F300.000
G1 X24.073 Y-3.868 Z-3.000 F300.000
G1 X26.362 Y-1.580 Z-3.000 F300.000
G2 X26.852 Y1.108 Z-3.000 I1.012 J1.204 K0.000 F300.000
G1 X30.264 Y2.322 Z-3.000 F300.000
G1 X35.702 Y7.760 Z-3.000 F300.000
G1 X28.284 Y4.818 Z-3.000 F300.000
G1 X21.043 Y1.946 Z-3.000 F300.000
G1 X21.043 Y-2.423 Z-3.000 F300.000
G1 X28.284 Y4.818 Z-3.000 F300.000
G0 Z6.000
G0 X29.295 Y1.977 Z6.000
G0 X29.295 Y1.977 Z4.000
G1 X29.295 Y1.977 Z-3.000 F120.000
G1 X26.852 Y1.108 Z-3.000 F300.000
G3 X26.856 Y-1.875 Z-3.000 I0.530 J-1.491 K0.000 F300.000
G1 X34.708 Y-4.645 Z-3.000 F300.000
G3 X35.370 Y-4.729 Z-3.000 I0.526 J1.492 K0.000 F300.000
G3 X36.817 Y-3.153 Z-3.000 I-0.135 J1.577 K0.000 F300.000
G1 X36.817 Y2.411 Z-3.000 F300.000
G3 X34.704 Y3.902 Z-3.000 I-1.583 J-0.000 K0.000 F300.000
G1 X29.295 Y1.977 Z-3.000 F300.000
G0 Z6.000
G0 X36.817 Y-0.077 Z6.000
G0 X36.817 Y-0.077 Z4.000
G1 X36.817 Y-0.077 Z-3.000 F120.000
G1 X39.098 Y2.204 Z-3.000 F300.000
G1 X39.098 Y4.101 Z-3.000 F300.000
G2 X40.194 Y5.607 Z-3.000 I1.583 J-0.000 K0.000 F300.000
G1 X43.417 Y6.649 Z-3.000 F300.000
G1 X43.417 Y10.820 Z-3.000 F300.000
G1 X43.120 Y10.702 Z-3.000 F300.000
G1 X36.126 Y3.708 Z-3.000 F300.000
G3 X34.704 Y3.902 Z-3.000 I-0.896 J-1.260 K0.000 F300.000
G1 X30.264 Y2.322 Z-3.000 F300.000
G1 X35.702 Y7.760 Z-3.000 F300.000
G1 X35.702 Y7.760 Z-3.100 F120.000
G1 X30.264 Y2.322 Z-3.100 F300.000
G1 X34.704 Y3.902 Z-3.100 F300.000
G2 X36.126 Y3.708 Z-3.100 I0.526 J-1.454 K0.000 F300.000
G1 X43.120 Y10.702 Z-3.100 F300.000
G1 X43.417 Y10.820 Z-3.100 F300.000
G1 X43.417 Y6.649 Z-3.100 F300.000
G1 X40.194 Y5.607 Z-3.100 F300.000
G3 X39.098 Y4.101 Z-3.100 I0.487 J-1.506 K0.000 F300.000
G1 X39.098 Y2.204 Z-3.100 F300.000
G1 X36.817 Y-0.077 Z-3.100 F300.000
G1 X36.817 Y-0.077 Z-3.100 F120.000
G1 X36.817 Y2.411 Z-3.100 F300.000
G3 X34.704 Y3.902 Z-3.100 I-1.583 J-0.000 K0.000 F300.000
G1 X26.852 Y1.108 Z-3.100 F300.000
G3 X26.856 Y-1.875 Z-3.100 I0.530 J-1.491 K0.000 F300.000
G1 X34.708 Y-4.645 Z-3.100 F300.000
G3 X35.370 Y-4.729 Z-3.100 I0.526 J1.492 K0.000 F300.000
G3 X36.817 Y-3.153 Z-3.100 I-0.135 J1.577 K0.000 F300.000
G1 X36.817 Y-0.077 Z-3.100 F300.000
G0 Z6.000
G0 X39.098 Z6.000
G0 X39.098 Z4.000
G1 X39.098 Y-0.077 Z-3.100 F120.000
G1 X39.098 Y-4.843 Z-3.100 F300.000
G3 X40.194 Y-6.348 Z-3.100 I1.583 J0.000 K0.000 F300.000
G1 X43.417 Y-7.391 Z-3.100 F300.000
G1 X43.417 Y-11.380 Z-3.100 F300.000
G1 X21.043 Y-2.692 Z-3.100 F300.000
G1 X21.043 Y1.946 Z-3.100 F300.000
G1 X43.417 Y10.820 Z-3.100 F300.000
G1 X43.417 Y6.649 Z-3.100 F300.000
G1 X40.194 Y5.607 Z-3.100 F300.000
G3 X39.098 Y4.101 Z-3.100 I0.487 J-1.506 K0.000 F300.000
G1 X39.098 Y-0.077 Z-3.100 F300.000
G0 Z6.000
G0 X28.284 Y4.818 Z6.000
G0 X28.284 Y4.818 Z4.000
G1 X28.284 Y4.818 Z-3.100 F120.000
G1 X21.043 Y-2.423 Z-3.100 F300.000
G1 X21.043 Y1.946 Z-3.100 F300.000
G1 X28.284 Y4.818 Z-3.100 F300.000
G1 X35.702 Y7.760 Z-3.100 F300.000
G1 X30.264 Y2.322 Z-3.100 F300.000
G1 X26.852 Y1.108 Z-3.100 F300.000
G3 X26.362 Y-1.580 Z-3.100 I0.522 J-1.484 K0.000 F300.000
G1 X24.073 Y-3.868 Z-3.100 F300.000
G1 X27.297 Y-5.120 Z-3.100 F300.000
G1 X29.582 Y-2.836 Z-3.100 F300.000
G1 X32.890 Y-4.004 Z-3.100 F300.000
G1 X30.521 Y-6.372 Z-3.100 F300.000
G1 X33.745 Y-7.624 Z-3.100 F300.000
G1 X39.098 Y-2.272 Z-3.100 F300.000
G1 X39.098 Y-4.843 Z-3.100 F300.000
G3 X39.741 Y-6.105 Z-3.100 I1.546 J-0.008 K0.000 F300.000
G1 X36.969 Y-8.876 Z-3.100 F300.000
G1 X40.193 Y-10.128 Z-3.100 F300.000
G1 X43.050 Y-7.272 Z-3.100 F300.000
G1 X43.417 Y-7.391 Z-3.100 F300.000
G1 X43.417 Y-11.380 Z-3.100 F300.000
G0 Z6.000
G0 Z6.000
G0 X43.417 Y-11.380
G0 Y17.374
G0 Y17.374 Z4.000
G1 X43.417 Y17.374 Z0.000 F120.000
G1 X21.043 Y17.374 Z0.000 F300.000
G1 X21.043 Y26.710 Z0.000 F300.000
G2 X21.250 Y28.740 Z0.000 I9.875 J0.017 K0.000 F300.000
G2 X24.434 Y33.435 Z0.000 I6.991 J-1.314 K0.000 F300.000
G2 X29.435 Y34.493 Z0.000 I4.074 J-6.908 K0.000 F300.000
G2 X34.561 Y31.243 Z0.000 I-0.499 J-6.454 K0.000 F300.000
G3 X36.642 Y30.730 Z0.000 I1.319 J0.874 K0.000 F300.000
G1 X43.417 Y34.454 Z0.000 F300.000
G1 X43.417 Y30.319 Z0.000 F300.000
G1 X36.601 Y26.670 Z0.000 F300.000
G3 X35.765 Y25.275 Z0.000 I0.747 J-1.395 K0.000 F300.000
G1 X35.765 Y22.751 Z0.000 F300.000
G3 X37.347 Y21.169 Z0.000 I1.582 J-0.000 K0.000 F300.000
G1 X43.417 Y21.169 Z0.000 F300.000
G1 X43.417 Y17.374 Z0.000 F300.000
G1 X43.417 Y17.374 Z0.000 F120.000
G1 X43.417 Y21.169 Z0.000 F300.000
G1 X42.737 Y21.169 Z0.000 F300.000
G1 X38.942 Y17.374 Z0.000 F300.000
G1 X34.466 Y17.374 Z0.000 F300.000
G1 X38.261 Y21.169 Z0.000 F300.000
G2 X36.995 Y21.208 Z0.000 I-0.457 J5.635 K0.000 F300.000
G2 X35.765 Y22.751 Z0.000 I0.352 J1.543 K0.000 F300.000
G1 X35.765 Y23.149 Z0.000 F300.000
G1 X29.990 Y17.374 Z0.000 F300.000
G0 Z6.000
G0 Y21.169 Z6.000
G0 Y21.169 Z4.000
G1 X29.990 Y21.169 Z0.000 F120.000
G1 X31.479 Y21.169 Z0.000 F300.000
G3 X33.061 Y22.751 Z0.000 I-0.000 J1.583 K0.000 F300.000
G1 X33.061 Y25.920 Z0.000 F300.000
G3 X31.719 Y29.346 Z0.000 I-4.680 J0.142 K0.000 F300.000
G3 X25.527 Y29.466 Z0.000 I-3.165 J-3.497 K0.000 F300.000
G3 X24.064 Y25.973 Z0.000 I3.112 J-3.357 K0.000 F300.000
G3 X24.063 Y22.751 Z0.000 I64.532 J-1.629 K0.000 F300.000
G3 X25.646 Y21.169 Z0.000 I1.583 J-0.000 K0.000 F300.000
G1 X29.990 Y21.169 Z0.000 F300.000
G0 Z6.000
G0 X33.061 Y24.921 Z6.000
G0 X33.061 Y24.921 Z4.000
G1 X33.061 Y24.921 Z0.000 F120.000
G1 X41.589 Y33.449 Z0.000 F300.000
G1 X36.642 Y30.730 Z0.000 F300.000
G2 X34.718 Y31.054 Z0.000 I-0.760 J1.363 K0.000 F300.000
G1 X32.300 Y28.636 Z0.000 F300.000
G3 X29.635 Y30.447 Z0.000 I-3.525 J-2.322 K0.000 F300.000
G1 X32.578 Y33.390 Z0.000 F300.000
G0 Z6.000
G0 X29.216 Y34.504 Z6.000
G0 X29.216 Y34.504 Z4.000
G1 X29.216 Y34.504 Z0.000 F120.000
G3 X27.057 Y34.410 Z0.000 I-0.724 J-8.175 K0.000 F300.000
G3 X22.037 Y30.892 Z0.000 I1.048 J-6.838 K0.000 F300.000
G3 X21.043 Y26.331 Z0.000 I7.918 J-4.114 K0.000 F300.000
G1 X29.216 Y34.504 Z0.000 F300.000
G2 X32.578 Y33.390 Z0.000 I-0.354 J-6.699 K0.000 F300.000
G1 X29.635 Y30.447 Z0.000 F300.000
G3 X28.520 Y30.566 Z0.000 I-1.049 J-4.551 K0.000 F300.000
G3 X24.135 Y26.822 Z0.000 I-0.106 J-4.316 K0.000 F300.000
G3 X24.063 Y24.875 Z0.000 I11.650 J-1.407 K0.000 F300.000
G1 X21.043 Y21.855 Z0.000 F300.000
G1 X21.043 Y17.379 Z0.000 F300.000
G1 X24.981 Y21.317 Z0.000 F300.000
G3 X25.646 Y21.169 Z0.000 I0.658 J1.380 K0.000 F300.000
G1 X29.309 Y21.169 Z0.000 F300.000
G1 X25.514 Y17.374 Z0.000 F300.000
G1 X29.990 Y17.374 Z0.000 F300.000
G1 X35.765 Y23.149 Z0.000 F300.000
G1 X35.765 Y25.275 Z0.000 F300.000
G2 X36.601 Y26.670 Z0.000 I1.582 J0.000 K0.000 F300.000
G1 X42.379 Y29.763 Z0.000 F300.000
G1 X43.417 Y30.802 Z0.000 F300.000
G1 X43.417 Y30.319 Z0.000 F300.000
G1 X42.379 Y29.763 Z0.000 F300.000
G1 X42.379 Y29.763 Z-1.000 F120.000
G1 X43.417 Y30.319 Z-1.000 F300.000
G1 X43.417 Y30.802 Z-1.000 F300.000
G1 X42.379 Y29.763 Z-1.000 F300.000
G1 X36.601 Y26.670 Z-1.000 F300.000
G3 X35.765 Y25.275 Z-1.000 I0.747 J-1.395 K0.000 F300.000
G1 X35.765 Y23.149 Z-1.000 F300.000
G1 X29.990 Y17.374 Z-1.000 F300.000
G1 X25.514 Y17.374 Z-1.000 F300.000
G1 X29.309 Y21.169 Z-1.000 F300.000
G1 X25.646 Y21.169 Z-1.000 F300.000
G2 X24.981 Y21.317 Z-1.000 I-0.006 J1.529 K0.000 F300.000
G1 X21.043 Y17.379 Z-1.000 F300.000
G1 X21.043 Y21.855 Z-1.000 F300.000
G1 X24.063 Y24.875 Z-1.000 F300.000
G2 X24.135 Y26.822 Z-1.000 I11.723 J0.539 K0.000 F300.000
G2 X28.520 Y30.566 Z-1.000 I4.279 J-0.572 K0.000 F300.000
G2 X29.635 Y30.447 Z-1.000 I0.066 J-4.670 K0.000 F300.000
G1 X32.578 Y33.390 Z-1.000 F300.000
G3 X29.216 Y34.504 Z-1.000 I-3.716 J-5.585 K0.000 F300.000
G1 X21.043 Y26.331 Z-1.000 F300.000
G2 X22.037 Y30.892 Z-1.000 I8.912 J0.447 K0.000 F300.000
G2 X27.057 Y34.410 Z-1.000 I6.069 J-3.320 K0.000 F300.000
G2 X29.216 Y34.504 Z-1.000 I1.435 J-8.081 K0.000 F300.000
G0 Z6.000
G0 X29.217 Y34.516 Z6.000
G0 X29.217 Y34.516 Z4.000
G1 X29.217 Y34.516 Z-1.000 F120.000
G2 X29.435 Y34.493 Z-1.000 I-0.709 J-7.988 K0.000 F300.000
G2 X34.561 Y31.243 Z-1.000 I-0.499 J-6.454 K0.000 F300.000
G3 X36.642 Y30.730 Z-1.000 I1.319 J0.874 K0.000 F300.000
G1 X43.417 Y34.454 Z-1.000 F300.000
G1 X43.417 Y30.319 Z-1.000 F300.000
G1 X36.601 Y26.670 Z-1.000 F300.000
G3 X35.765 Y25.275 Z-1.000 I0.747 J-1.395 K0.000 F300.000
G1 X35.765 Y22.751 Z-1.000 F300.000
G3 X37.347 Y21.169 Z-1.000 I1.582 J-0.000 K0.000 F300.000
G1 X43.417 Y21.169 Z-1.000 F300.000
G1 X43.417 Y17.374 Z-1.000 F300.000
G1 X21.043 Y17.374 Z-1.000 F300.000
G1 X21.043 Y26.710 Z-1.000 F300.000
G2 X21.250 Y28.740 Z-1.000 I9.875 J0.017 K0.000 F300.000
G2 X24.434 Y33.435 Z-1.000 I6.991 J-1.314 K0.000 F300.000
G2 X29.217 Y34.516 Z-1.000 I4.074 J-6.908 K0.000 F300.000
G0 Z6.000
G0 X32.578 Y33.390 Z6.000
G0 X32.578 Y33.390 Z4.000
G1 X32.578 Y33.390 Z-1.000 F120.000
G1 X29.635 Y30.447 Z-1.000 F300.000
G2 X32.300 Y28.636 Z-1.000 I-0.860 J-4.132 K0.000 F300.000
G1 X34.718 Y31.054 Z-1.000 F300.000
G3 X36.642 Y30.730 Z-1.000 I1.164 J1.040 K0.000 F300.000
G1 X41.589 Y33.449 Z-1.000 F300.000
G1 X33.061 Y24.921 Z-1.000 F300.000
G1 X33.061 Y24.921 Z-1.000 F120.000
G1 X33.061 Y25.920 Z-1.000 F300.000
G3 X31.719 Y29.346 Z-1.000 I-4.680 J0.142 K0.000 F300.000
G3 X25.527 Y29.466 Z-1.000 I-3.165 J-3.497 K0.000 F300.000
G3 X24.064 Y25.973 Z-1.000 I3.112 J-3.357 K0.000 F300.000
G3 X24.063 Y22.751 Z-1.000 I64.532 J-1.629 K0.000 F300.000
G3 X25.646 Y21.169 Z-1.000 I1.583 J-0.000 K0.000 F300.000
G1 X31.479 Y21.169 Z-1.000 F300.000
G3 X33.061 Y22.751 Z-1.000 I-0.000 J1.583 K0.000 F300.000
G1 X33.061 Y24.921 Z-1.000 F300.000
G0 Z6.000
G0 X29.990 Y17.374 Z6.000
G0 X29.990 Y17.374 Z4.000
G1 X29.990 Y17.374 Z-1.000 F120.000
G1 X35.765 Y23.149 Z-1.000 F300.000
G1 X35.765 Y22.751 Z-1.000 F300.000
G3 X36.995 Y21.208 Z-1.000 I1.582 J-0.000 K0.000 F300.000
G3 X38.261 Y21.169 Z-1.000 I0.809 J5.595 K0.000 F300.000
G1 X34.466 Y17.374 Z-1.000 F300.000
G1 X38.942 Y17.374 Z-1.000 F300.000
G1 X42.737 Y21.169 Z-1.000 F300.000
G1 X43.417 Y21.169 Z-1.000 F300.000
G1 X43.417 Y17.374 Z-1.000 F300.000
G1 X43.417 Y17.374 Z-2.000 F120.000
G1 X43.417 Y21.169 Z-2.000 F300.000
G1 X42.737 Y21.169 Z-2.000 F300.000
G1 X38.942 Y17.374 Z-2.000 F300.000
G1 X34.466 Y17.374 Z-2.000 F300.000
G1 X38.261 Y21.169 Z-2.000 F300.000
G2 X36.995 Y21.208 Z-2.000 I-0.457 J5.635 K0.000 F300.000
G2 X35.765 Y22.751 Z-2.000 I0.352 J1.543 K0.000 F300.000
G1 X35.765 Y23.149 Z-2.000 F300.000
G1 X29.990 Y17.374 Z-2.000 F300.000
G1 X29.990 Y17.374 Z-2.000 F120.000
G1 X21.043 Y17.374 Z-2.000 F300.000
G1 X21.043 Y26.710 Z-2.000 F300.000
G2 X21.250 Y28.740 Z-2.000 I9.875 J0.017 K0.000 F300.000
G2 X24.434 Y33.435 Z-2.000 I6.991 J-1.314 K0.000 F300.000
G2 X29.435 Y34.493 Z-2.000 I4.074 J-6.908 K0.000 F300.000
G2 X34.561 Y31.243 Z-2.000 I-0.499 J-6.454 K0.000 F300.000
G3 X36.642 Y30.730 Z-2.000 I1.319 J0.874 K0.000 F300.000
G1 X43.417 Y34.454 Z-2.000 F300.000
G1 X43.417 Y30.319 Z-2.000 F300.000
G1 X36.601 Y26.670 Z-2.000 F300.000
G3 X35.765 Y25.275 Z-2.000 I0.747 J-1.395 K0.000 F300.000
G1 X35.765 Y22.751 Z-2.000 F300.000
G3 X37.347 Y21.169 Z-2.000 I1.582 J-0.000 K0.000 F300.000
G1 X43.417 Y21.169 Z-2.000 F300.000
G1 X43.417 Y17.374 Z-2.000 F300.000
G1 X29.990 Y17.374 Z-2.000 F300.000
G0 Z6.000
G0 Y21.169 Z6.000
G0 Y21.169 Z4.000
G1 X29.990 Y21.169 Z-2.000 F120.000
G1 X31.479 Y21.169 Z-2.000 F300.000
G3 X33.061 Y22.751 Z-2.000 I-0.000 J1.583 K0.000 F300.000
G1 X33.061 Y25.920 Z-2.000 F300.000
G3 X31.719 Y29.346 Z-2.000 I-4.680 J0.142 K0.000 F300.000
G3 X25.527 Y29.466 Z-2.000 I-3.165 J-3.497 K0.000 F300.000
G3 X24.064 Y25.973 Z-2.000 I3.112 J-3.357 K0.000 F300.000
G3 X24.063 Y22.751 Z-2.000 I64.532 J-1.629 K0.000 F300.000
G3 X25.646 Y21.169 Z-2.000 I1.583 J-0.000 K0.000 F300.000
G1 X29.990 Y21.169 Z-2.000 F300.000
G0 Z6.000
G0 X33.061 Y24.921 Z6.000
G0 X33.061 Y24.921 Z4.000
G1 X33.061 Y24.921 Z-2.000 F120.000
G1 X41.589 Y33.449 Z-2.000 F300.000
G1 X36.642 Y30.730 Z-2.000 F300.000
G2 X34.718 Y31.054 Z-2.000 I-0.760 J1.363 K0.000 F300.000
G1 X32.300 Y28.636 Z-2.000 F300.000
G3 X29.635 Y30.447 Z-2.000 I-3.525 J-2.322 K0.000 F300.000
G1 X32.578 Y33.390 Z-2.000 F300.000
G0 Z6.000
G0 X29.216 Y34.504 Z6.000
G0 X29.216 Y34.504 Z4.000
G1 X29.216 Y34.504 Z-2.000 F120.000
G3 X27.057 Y34.410 Z-2.000 I-0.724 J-8.175 K0.000 F300.000
G3 X22.037 Y30.892 Z-2.000 I1.048 J-6.838 K0.000 F300.000
G3 X21.043 Y26.331 Z-2.000 I7.918 J-4.114 K0.000 F300.000
G1 X29.216 Y34.504 Z-2.000 F300.000
G2 X32.578 Y33.390 Z-2.000 I-0.354 J-6.699 K0.000 F300.000
G1 X29.635 Y30.447 Z-2.000 F300.000
G3 X28.520 Y30.566 Z-2.000 I-1.049 J-4.551 K0.000 F300.000
G3 X24.135 Y26.822 Z-2.000 I-0.106 J-4.316 K0.000 F300.000
G3 X24.063 Y24.875 Z-2.000 I11.650 J-1.407 K0.000 F300.000
G1 X21.043 Y21.855 Z-2.000 F300.000
G1 X21.043 Y17.379 Z-2.000 F300.000
G1 X24.981 Y21.317 Z-2.000 F300.000
G3 X25.646 Y21.169 Z-2.000 I0.658 J1.380 K0.000 F300.000
G1 X29.309 Y21.169 Z-2.000 F300.000
G1 X25.514 Y17.374 Z-2.000 F300.000
G1 X29.990 Y17.374 Z-2.000 F300.000
G1 X35.765 Y23.149 Z-2.000 F300.000
G1 X35.765 Y25.275 Z-2.000 F300.000
G2 X36.601 Y26.670 Z-2.000 I1.582 J0.000 K0.000 F300.000
G1 X42.379 Y29.763 Z-2.000 F300.000
G1 X43.417 Y30.802 Z-2.000 F300.000
G1 X43.417 Y30.319 Z-2.000 F300.000
G1 X42.379 Y29.763 Z-2.000 F300.000
G1 X42.379 Y29.763 Z-3.000 F120.000
G1 X43.417 Y30.319 Z-3.000 F300.000
G1 X43.417 Y30.802 Z-3.000 F300.000
G1 X42.379 Y29.763 Z-3.000 F300.000
G1 X36.601 Y26.670 Z-3.000 F300.000
G3 X35.765 Y25.275 Z-3.000 I0.747 J-1.395 K0.000 F300.000
G1 X35.765 Y23.149 Z-3.000 F300.000
G1 X29.990 Y17.374 Z-3.000 F300.000
G1 X25.514 Y17.374 Z-3.000 F300.000
G1 X29.309 Y21.169 Z-3.000 F300.000
G1 X25.646 Y21.169 Z-3.000 F300.000
G2 X24.981 Y21.317 Z-3.000 I-0.006 J1.529 K0.000 F300.000
G1 X21.043 Y17.379 Z-3.000 F300.000
G1 X21.043 Y21.855 Z-3.000 F300.000
G1 X24.063 Y24.875 Z-3.000 F300.000
G2 X24.135 Y26.822 Z-3.000 I11.723 J0.539 K0.000 F300.000
G2 X28.520 Y30.566 Z-3.000 I4.279 J-0.572 K0.000 F300.000
G2 X29.635 Y30.447 Z-3.000 I0.066 J-4.670 K0.000 F300.000
G1 X32.578 Y33.390 Z-3.000 F300.000
G3 X29.216 Y34.504 Z-3.000 I-3.716 J-5.585 K0.000 F300.000
G1 X21.043 Y26.331 Z-3.000 F300.000
G2 X22.037 Y30.892 Z-3.000 I8.912 J0.447 K0.000 F300.000
G2 X27.057 Y34.410 Z-3.000 I6.069 J-3.320 K0.000 F300.000
G2 X29.216 Y34.504 Z-3.000 I1.435 J-8.081 K0.000 F300.000
G0 Z6.000
G0 X29.217 Y34.516 Z6.000
G0 X29.217 Y34.516 Z4.000
G1 X29.217 Y34.516 Z-3.000 F120.000
G2 X29.435 Y34.493 Z-3.000 I-0.709 J-7.988 K0.000 F300.000
G2 X34.561 Y31.243 Z-3.000 I-0.499 J-6.454 K0.000 F300.000
G3 X36.642 Y30.730 Z-3.000 I1.319 J0.874 K0.000 F300.000
G1 X43.417 Y34.454 Z-3.000 F300.000
G1 X43.417 Y30.319 Z-3.000 F300.000
G1 X36.601 Y26.670 Z-3.000 F300.000
G3 X35.765 Y25.275 Z-3.000 I0.747 J-1.395 K0.000 F300.000
G1 X35.765 Y22.751 Z-3.000 F300.000
G3 X37.347 Y21.169 Z-3.000 I1.582 J-0.000 K0.000 F300.000
G1 X43.417 Y21.169 Z-3.000 F300.000
G1 X43.417 Y17.374 Z-3.000 F300.000
G1 X21.043 Y17.374 Z-3.000 F300.000
G1 X21.043 Y26.710 Z-3.000 F300.000
G2 X21.250 Y28.740 Z-3.000 I9.875 J0.017 K0.000 F300.000
G2 X24.434 Y33.435 Z-3.000 I6.991 J-1.314 K0.000 F300.000
G2 X29.217 Y34.516 Z-3.000 I4.074 J-6.908 K0.000 F300.000
G0 Z6.000
G0 X32.578 Y33.390 Z6.000
G0 X32.578 Y33.390 Z4.000
G1 X32.578 Y33.390 Z-3.000 F120.000
G1 X29.635 Y30.447 Z-3.000 F300.000
G2 X32.300 Y28.636 Z-3.000 I-0.860 J-4.132 K0.000 F300.000
G1 X34.718 Y31.054 Z-3.000 F300.000
G3 X36.642 Y30.730 Z-3.000 I1.164 J1.040 K0.000 F300.000
G1 X41.589 Y33.449 Z-3.000 F300.000
G1 X33.061 Y24.921 Z-3.000 F300.000
G1 X33.061 Y24.921 Z-3.000 F120.000
G1 X33.061 Y25.920 Z-3.000 F300.000
G3 X31.719 Y29.346 Z-3.000 I-4.680 J0.142 K0.000 F300.000
G3 X25.527 Y29.466 Z-3.000 I-3.165 J-3.497 K0.000 F300.000
G3 X24.064 Y25.973 Z-3.000 I3.112 J-3.357 K0.000 F300.000
G3 X24.063 Y22.751 Z-3.000 I64.532 J-1.629 K0.000 F300.000
G3 X25.646 Y21.169 Z-3.000 I1.583 J-0.000 K0.000 F300.000
G1 X31.479 Y21.169 Z-3.000 F300.000
G3 X33.061 Y22.751 Z-3.000 I-0.000 J1.583 K0.000 F300.000
G1 X33.061 Y24.921 Z-3.000 F300.000
G0 Z6.000
G0 X29.990 Y17.374 Z6.000
G0 X29.990 Y17.374 Z4.000
G1 X29.990 Y17.374 Z-3.000 F120.000
G1 X35.765 Y23.149 Z-3.000 F300.000
G1 X35.765 Y22.751 Z-3.000 F300.000
G3 X36.995 Y21.208 Z-3.000 I1.582 J-0.000 K0.000 F300.000
G3 X38.261 Y21.169 Z-3.000 I0.809 J5.595 K0.000 F300.000
G1 X34.466 Y17.374 Z-3.000 F300.000
G1 X38.942 Y17.374 Z-3.000 F300.000
G1 X42.737 Y21.169 Z-3.000 F300.000
G1 X43.417 Y21.169 Z-3.000 F300.000
G1 X43.417 Y17.374 Z-3.000 F300.000
G0 Z6.000
G0 Z6.000
G0 X43.417 Y17.374
G0 Y46.505
G0 Y46.505 Z4.000
G1 X43.417 Y46.505 Z0.000 F120.000
G1 X25.728 Y46.505 Z0.000 F300.000
G3 X24.145 Y44.923 Z0.000 I-0.000 J-1.582 K0.000 F300.000
G1 X24.145 Y39.651 Z0.000 F300.000
G1 X21.043 Y39.651 Z0.000 F300.000
G1 X21.043 Y57.178 Z0.000 F300.000
G1 X24.145 Y57.178 Z0.000 F300.000
G1 X24.145 Y51.906 Z0.000 F300.000
G3 X25.728 Y50.324 Z0.000 I1.582 J-0.000 K0.000 F300.000
G1 X43.417 Y50.324 Z0.000 F300.000
G1 X43.417 Y46.505 Z0.000 F300.000
G1 X43.417 Y46.505 Z0.000 F120.000
G1 X43.417 Y50.324 Z0.000 F300.000
G1 X42.760 Y50.324 Z0.000 F300.000
G1 X38.942 Y46.505 Z0.000 F300.000
G1 X34.466 Y46.505 Z0.000 F300.000
G1 X38.284 Y50.324 Z0.000 F300.000
G1 X33.808 Y50.324 Z0.000 F300.000
G1 X29.990 Y46.505 Z0.000 F300.000
G1 X25.728 Y46.505 Z0.000 F300.000
G1 X25.486 Y46.478 Z0.000 F300.000
G1 X29.332 Y50.324 Z0.000 F300.000
G0 Z6.000
G0 X22.759 Y57.178 Z6.000
G0 X22.759 Y57.178 Z4.000
G1 X22.759 Y57.178 Z0.000 F120.000
G1 X21.043 Y55.462 Z0.000 F300.000
G1 X21.043 Y57.178 Z0.000 F300.000
G1 X22.759 Y57.178 Z0.000 F300.000
G1 X24.145 Y57.178 Z0.000 F300.000
G1 X24.145 Y54.089 Z0.000 F300.000
G1 X21.043 Y50.986 Z0.000 F300.000
G1 X21.043 Y46.510 Z0.000 F300.000
G1 X25.024 Y50.491 Z0.000 F300.000
G1 X25.041 Y50.480 Z0.000 F300.000
G3 X25.728 Y50.324 Z0.000 I0.687 J1.426 K0.000 F300.000
G1 X29.332 Y50.324 Z0.000 F300.000
G1 X25.486 Y46.478 Z0.000 F300.000
G3 X24.172 Y45.164 Z0.000 I0.210 J-1.524 K0.000 F300.000
G1 X21.043 Y42.034 Z0.000 F300.000
G1 X21.043 Y39.651 Z0.000 F300.000
G1 X23.135 Y39.651 Z0.000 F300.000
G1 X24.145 Y40.661 Z0.000 F300.000
G1 X24.145 Y39.651 Z0.000 F300.000
G1 X23.135 Y39.651 Z0.000 F300.000
G1 X23.135 Y39.651 Z-1.000 F120.000
G1 X24.145 Y39.651 Z-1.000 F300.000
G1 X24.145 Y40.661 Z-1.000 F300.000
G1 X23.135 Y39.651 Z-1.000 F300.000
G1 X21.043 Y39.651 Z-1.000 F300.000
G1 X21.043 Y42.034 Z-1.000 F300.000
G1 X24.172 Y45.164 Z-1.000 F300.000
G2 X25.486 Y46.478 Z-1.000 I1.524 J-0.210 K0.000 F300.000
G1 X29.332 Y50.324 Z-1.000 F300.000
G1 X25.728 Y50.324 Z-1.000 F300.000
G2 X25.041 Y50.480 Z-1.000 I-0.000 J1.582 K0.000 F300.000
G1 X25.024 Y50.491 Z-1.000 F300.000
G1 X21.043 Y46.510 Z-1.000 F300.000
G1 X21.043 Y50.986 Z-1.000 F300.000
G1 X24.145 Y54.089 Z-1.000 F300.000
G1 X24.145 Y57.178 Z-1.000 F300.000
G1 X22.759 Y57.178 Z-1.000 F300.000
G1 X21.043 Y57.178 Z-1.000 F300.000
G1 X21.043 Y55.462 Z-1.000 F300.000
G1 X22.759 Y57.178 Z-1.000 F300.000
G1 X22.759 Y57.178 Z-1.000 F120.000
G1 X24.145 Y57.178 Z-1.000 F300.000
G1 X24.145 Y51.906 Z-1.000 F300.000
G3 X25.728 Y50.324 Z-1.000 I1.582 J-0.000 K0.000 F300.000
G1 X43.417 Y50.324 Z-1.000 F300.000
G1 X43.417 Y46.505 Z-1.000 F300.000
G1 X25.728 Y46.505 Z-1.000 F300.000
G3 X24.145 Y44.923 Z-1.000 I-0.000 J-1.582 K0.000 F300.000
G1 X24.145 Y39.651 Z-1.000 F300.000
G1 X21.043 Y39.651 Z-1.000 F300.000
G1 X21.043 Y57.178 Z-1.000 F300.000
G1 X22.759 Y57.178 Z-1.000 F300.000
G0 Z6.000
G0 X29.332 Y50.324 Z6.000
G0 X29.332 Y50.324 Z4.000
G1 X29.332 Y50.324 Z-1.000 F120.000
G1 X25.486 Y46.478 Z-1.000 F300.000
G1 X25.728 Y46.505 Z-1.000 F300.000
G1 X29.990 Y46.505 Z-1.000 F300.000
G1 X33.808 Y50.324 Z-1.000 F300.000
G1 X38.284 Y50.324 Z-1.000 F300.000
G1 X34.466 Y46.505 Z-1.000 F300.000
G1 X38.942 Y46.505 Z-1.000 F300.000
G1 X42.760 Y50.324 Z-1.000 F300.000
G1 X43.417 Y50.324 Z-1.000 F300.000
G1 X43.417 Y46.505 Z-1.000 F300.000
G1 X43.417 Y46.505 Z-2.000 F120.000
G1 X43.417 Y50.324 Z-2.000 F300.000
G1 X42.760 Y50.324 Z-2.000 F300.000
G1 X38.942 Y46.505 Z-2.000 F300.000
G1 X34.466 Y46.505 Z-2.000 F300.000
G1 X38.284 Y50.324 Z-2.000 F300.000
G1 X33.808 Y50.324 Z-2.000 F300.000
G1 X29.990 Y46.505 Z-2.000 F300.000
G1 X25.728 Y46.505 Z-2.000 F300.000
G1 X25.486 Y46.478 Z-2.000 F300.000
G1 X29.332 Y50.324 Z-2.000 F300.000
G1 X29.332 Y50.324 Z-2.000 F120.000
G1 X43.417 Y50.324 Z-2.000 F300.000
G1 X43.417 Y46.505 Z-2.000 F300.000
G1 X25.728 Y46.505 Z-2.000 F300.000
G3 X24.145 Y44.923 Z-2.000 I-0.000 J-1.582 K0.000 F300.000
G1 X24.145 Y39.651 Z-2.000 F300.000
G1 X21.043 Y39.651 Z-2.000 F300.000
G1 X21.043 Y57.178 Z-2.000 F300.000
G1 X24.145 Y57.178 Z-2.000 F300.000
G1 X24.145 Y51.906 Z-2.000 F300.000
G3 X25.728 Y50.324 Z-2.000 I1.582 J-0.000 K0.000 F300.000
G1 X29.332 Y50.324 Z-2.000 F300.000
G0 Z6.000
G0 X22.759 Y57.178 Z6.000
G0 X22.759 Y57.178 Z4.000
G1 X22.759 Y57.178 Z-2.000 F120.000
G1 X21.043 Y55.462 Z-2.000 F300.000
G1 X21.043 Y57.178 Z-2.000 F300.000
G1 X22.759 Y57.178 Z-2.000 F300.000
G1 X24.145 Y57.178 Z-2.000 F300.000
G1 X24.145 Y54.089 Z-2.000 F300.000
G1 X21.043 Y50.986 Z-2.000 F300.000
G1 X21.043 Y46.510 Z-2.000 F300.000
G1 X25.024 Y50.491 Z-2.000 F300.000
G1 X25.041 Y50.480 Z-2.000 F300.000
G3 X25.728 Y50.324 Z-2.000 I0.687 J1.426 K0.000 F300.000
G1 X29.332 Y50.324 Z-2.000 F300.000
G1 X25.486 Y46.478 Z-2.000 F300.000
G3 X24.172 Y45.164 Z-2.000 I0.210 J-1.524 K0.000 F300.000
G1 X21.043 Y42.034 Z-2.000 F300.000
G1 X21.043 Y39.651 Z-2.000 F300.000
G1 X23.135 Y39.651 Z-2.000 F300.000
G1 X24.145 Y40.661 Z-2.000 F300.000
G1 X24.145 Y39.651 Z-2.000 F300.000
G1 X23.135 Y39.651 Z-2.000 F300.000
G1 X23.135 Y39.651 Z-3.000 F120.000
G1 X24.145 Y39.651 Z-3.000 F300.000
G1 X24.145 Y40.661 Z-3.000 F300.000
G1 X23.135 Y39.651 Z-3.000 F300.000
G1 X21.043 Y39.651 Z-3.000 F300.000
G1 X21.043 Y42.034 Z-3.000 F300.000
G1 X24.172 Y45.164 Z-3.000 F300.000
G2 X25.486 Y46.478 Z-3.000 I1.524 J-0.210 K0.000 F300.000
G1 X29.332 Y50.324 Z-3.000 F300.000
G1 X25.728 Y50.324 Z-3.000 F300.000
G2 X25.041 Y50.480 Z-3.000 I-0.000 J1.582 K0.000 F300.000
G1 X25.024 Y50.491 Z-3.000 F300.000
G1 X21.043 Y46.510 Z-3.000 F300.000
G1 X21.043 Y50.986 Z-3.000 F300.000
G1 X24.145 Y54.089 Z-3.000 F300.000
G1 X24.145 Y57.178 Z-3.000 F300.000
G1 X22.759 Y57.178 Z-3.000 F300.000
G1 X21.043 Y57.178 Z-3.000 F300.000
G1 X21.043 Y55.462 Z-3.000 F300.000
G1 X22.759 Y57.178 Z-3.000 F300.000
G1 X22.759 Y57.178 Z-3.000 F120.000
G1 X24.145 Y57.178 Z-3.000 F300.000
G1 X24.145 Y51.906 Z-3.000 F300.000
G3 X25.728 Y50.324 Z-3.000 I1.582 J-0.000 K0.000 F300.000
G1 X43.417 Y50.324 Z-3.000 F300.000
G1 X43.417 Y46.505 Z-3.000 F300.000
G1 X25.728 Y46.505 Z-3.000 F300.000
G3 X24.145 Y44.923 Z-3.000 I-0.000 J-1.582 K0.000 F300.000
G1 X24.145 Y39.651 Z-3.000 F300.000
G1 X21.043 Y39.651 Z-3.000 F300.000
G1 X21.043 Y57.178 Z-3.000 F300.000
G1 X22.759 Y57.178 Z-3.000 F300.000
G0 Z6.000
G0 X29.332 Y50.324 Z6.000
G0 X29.332 Y50.324 Z4.000
G1 X29.332 Y50.324 Z-3.000 F120.000
G1 X25.486 Y46.478 Z-3.000 F300.000
G1 X25.728 Y46.505 Z-3.000 F300.000
G1 X29.990 Y46.505 Z-3.000 F300.000
G1 X33.808 Y50.324 Z-3.000 F300.000
G1 X38.284 Y50.324 Z-3.000 F300.000
G1 X34.466 Y46.505 Z-3.000 F300.000
G1 X38.942 Y46.505 Z-3.000 F300.000
G1 X42.760 Y50.324 Z-3.000 F300.000
G1 X43.417 Y50.324 Z-3.000 F300.000
G1 X43.417 Y46.505 Z-3.000 F300.000
G1 X43.417 Y46.505 Z-3.100 F120.000
G1 X43.417 Y50.324 Z-3.100 F300.000
G1 X42.760 Y50.324 Z-3.100 F300.000
G1 X38.942 Y46.505 Z-3.100 F300.000
G1 X34.466 Y46.505 Z-3.100 F300.000
G1 X38.284 Y50.324 Z-3.100 F300.000
G1 X33.808 Y50.324 Z-3.100 F300.000
G1 X29.990 Y46.505 Z-3.100 F300.000
G1 X25.728 Y46.505 Z-3.100 F300.000
G1 X25.486 Y46.478 Z-3.100 F300.000
G1 X29.332 Y50.324 Z-3.100 F300.000
G1 X29.332 Y50.324 Z-3.100 F120.000
G1 X43.417 Y50.324 Z-3.100 F300.000
G1 X43.417 Y46.505 Z-3.100 F300.000
G1 X25.728 Y46.505 Z-3.100 F300.000
G3 X24.145 Y44.923 Z-3.100 I-0.000 J-1.582 K0.000 F300.000
G1 X24.145 Y39.651 Z-3.100 F300.000
G1 X21.043 Y39.651 Z-3.100 F300.000
G1 X21.043 Y57.178 Z-3.100 F300.000
G1 X24.145 Y57.178 Z-3.100 F300.000
G1 X24.145 Y51.906 Z-3.100 F300.000
G3 X25.728 Y50.324 Z-3.100 I1.582 J-0.000 K0.000 F300.000
G1 X29.332 Y50.324 Z-3.100 F300.000
G0 Z6.000
G0 X22.759 Y57.178 Z6.000
G0 X22.759 Y57.178 Z4.000
G1 X22.759 Y57.178 Z-3.100 F120.000
G1 X21.043 Y55.462 Z-3.100 F300.000
G1 X21.043 Y57.178 Z-3.100 F300.000
G1 X22.759 Y57.178 Z-3.100 F300.000
G1 X24.145 Y57.178 Z-3.100 F300.000
G1 X24.145 Y54.089 Z-3.100 F300.000
G1 X21.043 Y50.986 Z-3.100 F300.000
G1 X21.043 Y46.510 Z-3.100 F300.000
G1 X25.024 Y50.491 Z-3.100 F300.000
G1 X25.041 Y50.480 Z-3.100 F300.000
G3 X25.728 Y50.324 Z-3.100 I0.687 J1.426 K0.000 F300.000
G1 X29.332 Y50.324 Z-3.100 F300.000
G1 X25.486 Y46.478 Z-3.100 F300.000
G3 X24.172 Y45.164 Z-3.100 I0.210 J-1.524 K0.000 F300.000
G1 X21.043 Y42.034 Z-3.100 F300.000
G1 X21.043 Y39.651 Z-3.100 F300.000
G1 X23.135 Y39.651 Z-3.100 F300.000
G1 X24.145 Y40.661 Z-3.100 F300.000
G1 X24.145 Y39.651 Z-3.100 F300.000
G1 X23.135 Y39.651 Z-3.100 F300.000
G0 Z6.000
G0 Z6.000
G0 X23.135 Y39.651
G0 Y-15.686
G0 Y-15.686 Z4.000
G1 X23.135 Y-15.686 Z0.000 F120.000
G1 X24.145 Y-15.686 Z0.000 F300.000
G1 X24.145 Y-20.958 Z0.000 F300.000
G3 X25.728 Y-22.540 Z0.000 I1.582 J-0.000 K0.000 F300.000
G1 X43.417 Y-22.540 Z0.000 F300.000
G1 X43.417 Y-26.359 Z0.000 F300.000
G1 X25.728 Y-26.359 Z0.000 F300.000
G3 X24.145 Y-27.941 Z0.000 I-0.000 J-1.582 K0.000 F300.000
G1 X24.145 Y-33.213 Z0.000 F300.000
G1 X21.043 Y-33.213 Z0.000 F300.000
G1 X21.043 Y-15.686 Z0.000 F300.000
G1 X23.135 Y-15.686 Z0.000 F300.000
G0 Z6.000
G0 X22.759 Z6.000
G0 X22.759 Z4.000
G1 X22.759 Y-15.686 Z0.000 F120.000
G1 X21.043 Y-17.402 Z0.000 F300.000
G1 X21.043 Y-15.686 Z0.000 F300.000
G1 X22.759 Y-15.686 Z0.000 F300.000
G1 X24.145 Y-15.686 Z0.000 F300.000
G1 X24.145 Y-18.775 Z0.000 F300.000
G1 X21.043 Y-21.878 Z0.000 F300.000
G1 X21.043 Y-26.354 Z0.000 F300.000
G1 X25.024 Y-22.373 Z0.000 F300.000
G1 X25.041 Y-22.384 Z0.000 F300.000
G3 X25.728 Y-22.540 Z0.000 I0.687 J1.426 K0.000 F300.000
G1 X29.332 Y-22.540 Z0.000 F300.000
G1 X25.486 Y-26.386 Z0.000 F300.000
G3 X24.172 Y-27.700 Z0.000 I0.210 J-1.524 K0.000 F300.000
G1 X21.043 Y-30.830 Z0.000 F300.000
G1 X21.043 Y-33.213 Z0.000 F300.000
G1 X23.135 Y-33.213 Z0.000 F300.000
G1 X24.145 Y-32.203 Z0.000 F300.000
G1 X24.145 Y-33.213 Z0.000 F300.000
G1 X23.135 Y-33.213 Z0.000 F300.000
G0 Z6.000
G0 X29.332 Y-22.540 Z6.000
G0 X29.332 Y-22.540 Z4.000
G1 X29.332 Y-22.540 Z0.000 F120.000
G1 X25.486 Y-26.386 Z0.000 F300.000
G1 X25.728 Y-26.359 Z0.000 F300.000
G1 X29.990 Y-26.359 Z0.000 F300.000
G1 X33.808 Y-22.540 Z0.000 F300.000
G1 X38.284 Y-22.540 Z0.000 F300.000
G1 X34.466 Y-26.359 Z0.000 F300.000
G1 X38.942 Y-26.359 Z0.000 F300.000
G1 X42.760 Y-22.540 Z0.000 F300.000
G1 X43.417 Y-22.540 Z0.000 F300.000
G1 X43.417 Y-26.359 Z0.000 F300.000
G1 X43.417 Y-26.359 Z-1.000 F120.000
G1 X43.417 Y-22.540 Z-1.000 F300.000
G1 X42.760 Y-22.540 Z-1.000 F300.000
G1 X38.942 Y-26.359 Z-1.000 F300.000
G1 X34.466 Y-26.359 Z-1.000 F300.000
G1 X38.284 Y-22.540 Z-1.000 F300.000
G1 X33.808 Y-22.540 Z-1.000 F300.000
G1 X29.990 Y-26.359 Z-1.000 F300.000
G1 X25.728 Y-26.359 Z-1.000 F300.000
G1 X25.486 Y-26.386 Z-1.000 F300.000
G1 X29.332 Y-22.540 Z-1.000 F300.000
G1 X29.332 Y-22.540 Z-1.000 F120.000
G1 X43.417 Y-22.540 Z-1.000 F300.000
G1 X43.417 Y-26.359 Z-1.000 F300.000
G1 X25.728 Y-26.359 Z-1.000 F300.000
G3 X24.145 Y-27.941 Z-1.000 I-0.000 J-1.582 K0.000 F300.000
G1 X24.145 Y-33.213 Z-1.000 F300.000
G1 X21.043 Y-33.213 Z-1.000 F300.000
G1 X21.043 Y-15.686 Z-1.000 F300.000
G1 X24.145 Y-15.686 Z-1.000 F300.000
G1 X24.145 Y-20.958 Z-1.000 F300.000
G3 X25.728 Y-22.540 Z-1.000 I1.582 J-0.000 K0.000 F300.000
G1 X29.332 Y-22.540 Z-1.000 F300.000
G0 Z6.000
G0 X22.759 Y-15.686 Z6.000
G0 X22.759 Y-15.686 Z4.000
G1 X22.759 Y-15.686 Z-1.000 F120.000
G1 X21.043 Y-17.402 Z-1.000 F300.000
G1 X21.043 Y-15.686 Z-1.000 F300.000
G1 X22.759 Y-15.686 Z-1.000 F300.000
G1 X24.145 Y-15.686 Z-1.000 F300.000
G1 X24.145 Y-18.775 Z-1.000 F300.000
G1 X21.043 Y-21.878 Z-1.000 F300.000
G1 X21.043 Y-26.354 Z-1.000 F300.000
G1 X25.024 Y-22.373 Z-1.000 F300.000
G1 X25.041 Y-22.384 Z-1.000 F300.000
G3 X25.728 Y-22.540 Z-1.000 I0.687 J1.426 K0.000 F300.000
G1 X29.332 Y-22.540 Z-1.000 F300.000
G1 X25.486 Y-26.386 Z-1.000 F300.000
G3 X24.172 Y-27.700 Z-1.000 I0.210 J-1.524 K0.000 F300.000
G1 X21.043 Y-30.830 Z-1.000 F300.000
G1 X21.043 Y-33.213 Z-1.000 F300.000
G1 X23.135 Y-33.213 Z-1.000 F300.000
G1 X24.145 Y-32.203 Z-1.000 F300.000
G1 X24.145 Y-33.213 Z-1.000 F300.000
G1 X23.135 Y-33.213 Z-1.000 F300.000
G1 X23.135 Y-33.213 Z-2.000 F120.000
G1 X24.145 Y-33.213 Z-2.000 F300.000
G1 X24.145 Y-32.203 Z-2.000 F300.000
G1 X23.135 Y-33.213 Z-2.000 F300.000
G1 X21.043 Y-33.213 Z-2.000 F300.000
G1 X21.043 Y-30.830 Z-2.000 F300.000
G1 X24.172 Y-27.700 Z-2.000 F300.000
G2 X25.486 Y-26.386 Z-2.000 I1.524 J-0.210 K0.000 F300.000
G1 X29.332 Y-22.540 Z-2.000 F300.000
G1 X25.728 Y-22.540 Z-2.000 F300.000
G2 X25.041 Y-22.384 Z-2.000 I-0.000 J1.582 K0.000 F300.000
G1 X25.024 Y-22.373 Z-2.000 F300.000
G1 X21.043 Y-26.354 Z-2.000 F300.000
G1 X21.043 Y-21.878 Z-2.000 F300.000
G1 X24.145 Y-18.775 Z-2.000 F300.000
G1 X24.145 Y-15.686 Z-2.000 F300.000
G1 X22.759 Y-15.686 Z-2.000 F300.000
G1 X21.043 Y-15.686 Z-2.000 F300.000
G1 X21.043 Y-17.402 Z-2.000 F300.000
G1 X22.759 Y-15.686 Z-2.000 F300.000
G1 X22.759 Y-15.686 Z-2.000 F120.000
G1 X24.145 Y-15.686 Z-2.000 F300.000
G1 X24.145 Y-20.958 Z-2.000 F300.000
G3 X25.728 Y-22.540 Z-2.000 I1.582 J-0.000 K0.000 F300.000
G1 X43.417 Y-22.540 Z-2.000 F300.000
G1 X43.417 Y-26.359 Z-2.000 F300.000
G1 X25.728 Y-26.359 Z-2.000 F300.000
G3 X24.145 Y-27.941 Z-2.000 I-0.000 J-1.582 K0.000 F300.000
G1 X24.145 Y-33.213 Z-2.000 F300.000
G1 X21.043 Y-33.213 Z-2.000 F300.000
G1 X21.043 Y-15.686 Z-2.000 F300.000
G1 X22.759 Y-15.686 Z-2.000 F300.000
G0 Z6.000
G0 X29.332 Y-22.540 Z6.000
G0 X29.332 Y-22.540 Z4.000
G1 X29.332 Y-22.540 Z-2.000 F120.000
G1 X25.486 Y-26.386 Z-2.000 F300.000
G1 X25.728 Y-26.359 Z-2.000 F300.000
G1 X29.990 Y-26.359 Z-2.000 F300.000
G1 X33.808 Y-22.540 Z-2.000 F300.000
G1 X38.284 Y-22.540 Z-2.000 F300.000
G1 X34.466 Y-26.359 Z-2.000 F300.000
G1 X38.942 Y-26.359 Z-2.000 F300.000
G1 X42.760 Y-22.540 Z-2.000 F300.000
G1 X43.417 Y-22.540 Z-2.000 F300.000
G1 X43.417 Y-26.359 Z-2.000 F300.000
G1 X43.417 Y-26.359 Z-3.000 F120.000
G1 X43.417 Y-22.540 Z-3.000 F300.000
G1 X42.760 Y-22.540 Z-3.000 F300.000
G1 X38.942 Y-26.359 Z-3.000 F300.000
G1 X34.466 Y-26.359 Z-3.000 F300.000
G1 X38.284 Y-22.540 Z-3.000 F300.000
G1 X33.808 Y-22.540 Z-3.000 F300.000
G1 X29.990 Y-26.359 Z-3.000 F300.000
G1 X25.728 Y-26.359 Z-3.000 F300.000
G1 X25.486 Y-26.386 Z-3.000 F300.000
G1 X29.332 Y-22.540 Z-3.000 F300.000
G1 X29.332 Y-22.540 Z-3.000 F120.000
G1 X43.417 Y-22.540 Z-3.000 F300.000
G1 X43.417 Y-26.359 Z-3.000 F300.000
G1 X25.728 Y-26.359 Z-3.000 F300.000
G3 X24.145 Y-27.941 Z-3.000 I-0.000 J-1.582 K0.000 F300.000
G1 X24.145 Y-33.213 Z-3.000 F300.000
G1 X21.043 Y-33.213 Z-3.000 F300.000
G1 X21.043 Y-15.686 Z-3.000 F300.000
G1 X24.145 Y-15.686 Z-3.000 F300.000
G1 X24.145 Y-20.958 Z-3.000 F300.000
G3 X25.728 Y-22.540 Z-3.000 I1.582 J-0.000 K0.000 F300.000
G1 X29.332 Y-22.540 Z-3.000 F300.000
G0 Z6.000
G0 X22.759 Y-15.686 Z6.000
G0 X22.759 Y-15.686 Z4.000
G1 X22.759 Y-15.686 Z-3.000 F120.000
G1 X21.043 Y-17.402 Z-3.000 F300.000
G1 X21.043 Y-15.686 Z-3.000 F300.000
G1 X22.759 Y-15.686 Z-3.000 F300.000
G1 X24.145 Y-15.686 Z-3.000 F300.000
G1 X24.145 Y-18.775 Z-3.000 F300.000
G1 X21.043 Y-21.878 Z-3.000 F300.000
G1 X21.043 Y-26.354 Z-3.000 F300.000
G1 X25.024 Y-22.373 Z-3.000 F300.000
G1 X25.041 Y-22.384 Z-3.000 F300.000
G3 X25.728 Y-22.540 Z-3.000 I0.687 J1.426 K0.000 F300.000
G1 X29.332 Y-22.540 Z-3.000 F300.000
G1 X25.486 Y-26.386 Z-3.000 F300.000
G3 X24.172 Y-27.700 Z-3.000 I0.210 J-1.524 K0.000 F300.000
G1 X21.043 Y-30.830 Z-3.000 F300.000
G1 X21.043 Y-33.213 Z-3.000 F300.000
G1 X23.135 Y-33.213 Z-3.000 F300.000
G1 X24.145 Y-32.203 Z-3.000 F300.000
G1 X24.145 Y-33.213 Z-3.000 F300.000
G1 X23.135 Y-33.213 Z-3.000 F300.000
G1 X23.135 Y-33.213 Z-3.100 F120.000
G1 X24.145 Y-33.213 Z-3.100 F300.000
G1 X24.145 Y-32.203 Z-3.100 F300.000
G1 X23.135 Y-33.213 Z-3.100 F300.000
G1 X21.043 Y-33.213 Z-3.100 F300.000
G1 X21.043 Y-30.830 Z-3.100 F300.000
G1 X24.172 Y-27.700 Z-3.100 F300.000
G2 X25.486 Y-26.386 Z-3.100 I1.524 J-0.210 K0.000 F300.000
G1 X29.332 Y-22.540 Z-3.100 F300.000
G1 X25.728 Y-22.540 Z-3.100 F300.000
G2 X25.041 Y-22.384 Z-3.100 I-0.000 J1.582 K0.000 F300.000
G1 X25.024 Y-22.373 Z-3.100 F300.000
G1 X21.043 Y-26.354 Z-3.100 F300.000
G1 X21.043 Y-21.878 Z-3.100 F300.000
G1 X24.145 Y-18.775 Z-3.100 F300.000
G1 X24.145 Y-15.686 Z-3.100 F300.000
G1 X22.759 Y-15.686 Z-3.100 F300.000
G1 X21.043 Y-15.686 Z-3.100 F300.000
G1 X21.043 Y-17.402 Z-3.100 F300.000
G1 X22.759 Y-15.686 Z-3.100 F300.000
G1 X22.759 Y-15.686 Z-3.100 F120.000
G1 X24.145 Y-15.686 Z-3.100 F300.000
G1 X24.145 Y-20.958 Z-3.100 F300.000
G3 X25.728 Y-22.540 Z-3.100 I1.582 J-0.000 K0.000 F300.000
G1 X43.417 Y-22.540 Z-3.100 F300.000
G1 X43.417 Y-26.359 Z-3.100 F300.000
G1 X25.728 Y-26.359 Z-3.100 F300.000
G3 X24.145 Y-27.941 Z-3.100 I-0.000 J-1.582 K0.000 F300.000
G1 X24.145 Y-33.213 Z-3.100 F300.000
G1 X21.043 Y-33.213 Z-3.100 F300.000
G1 X21.043 Y-15.686 Z-3.100 F300.000
G1 X22.759 Y-15.686 Z-3.100 F300.000
G0 Z6.000
G0 X29.332 Y-22.540 Z6.000
G0 X29.332 Y-22.540 Z4.000
G1 X29.332 Y-22.540 Z-3.100 F120.000
G1 X25.486 Y-26.386 Z-3.100 F300.000
G1 X25.728 Y-26.359 Z-3.100 F300.000
G1 X29.990 Y-26.359 Z-3.100 F300.000
G1 X33.808 Y-22.540 Z-3.100 F300.000
G1 X38.284 Y-22.540 Z-3.100 F300.000
G1 X34.466 Y-26.359 Z-3.100 F300.000
G1 X38.942 Y-26.359 Z-3.100 F300.000
G1 X42.760 Y-22.540 Z-3.100 F300.000
G1 X43.417 Y-22.540 Z-3.100 F300.000
G1 X43.417 Y-26.359 Z-3.100 F300.000
G0 Z6.000
G0 Z6.000
G0 X43.417 Y-26.359
G0 X39.568 Y-38.425
G0 X39.568 Y-38.425 Z4.000
G1 X39.568 Y-38.425 Z0.000 F120.000
G2 X41.198 Y-39.224 Z0.000 I-1.883 J-5.902 K0.000 F300.000
G2 X43.400 Y-42.150 Z0.000 I-3.765 J-5.125 K0.000 F300.000
G2 X44.168 Y-46.631 Z0.000 I-11.029 J-4.196 K0.000 F300.000
G2 X43.197 Y-51.474 Z0.000 I-11.209 J-0.271 K0.000 F300.000
G2 X38.460 Y-55.073 Z0.000 I-5.690 J2.572 K0.000 F300.000
G1 X38.460 Y-50.938 Z0.000 F300.000
G3 X40.166 Y-49.764 Z0.000 I-1.339 J3.772 K0.000 F300.000
G3 X40.399 Y-43.786 Z0.000 I-3.970 J3.148 K0.000 F300.000
G3 X35.342 Y-42.964 Z0.000 I-2.908 J-1.925 K0.000 F300.000
G3 X33.755 Y-45.624 Z0.000 I3.840 J-4.095 K0.000 F300.000
G3 X32.824 Y-49.054 Z0.000 I44.883 J-14.020 K0.000 F300.000
G2 X31.368 Y-52.603 Z0.000 I-12.548 J3.076 K0.000 F300.000
G2 X28.904 Y-54.548 Z0.000 I-3.991 J2.521 K0.000 F300.000
G2 X25.685 Y-54.838 Z0.000 I-2.285 J7.349 K0.000 F300.000
G2 X22.768 Y-53.677 Z0.000 I0.525 J5.562 K0.000 F300.000
G2 X20.790 Y-50.551 Z0.000 I4.134 J4.805 K0.000 F300.000
G2 X20.292 Y-46.850 Z0.000 I12.066 J3.507 K0.000 F300.000
G2 X21.108 Y-42.457 Z0.000 I10.833 J0.259 K0.000 F300.000
G2 X25.471 Y-39.064 Z0.000 I5.196 J-2.180 K0.000 F300.000
G1 X25.471 Y-43.018 Z0.000 F300.000
G3 X23.688 Y-44.502 Z0.000 I1.324 J-3.407 K0.000 F300.000
G3 X23.549 Y-49.195 Z0.000 I4.336 J-2.477 K0.000 F300.000
G3 X28.455 Y-50.169 Z0.000 I2.825 J1.387 K0.000 F300.000
G3 X29.893 Y-47.733 Z0.000 I-4.147 J4.091 K0.000 F300.000
G3 X30.891 Y-44.201 Z0.000 I-64.669 J20.175 K0.000 F300.000
G2 X32.525 Y-40.387 Z0.000 I12.973 J-3.301 K0.000 F300.000
G2 X35.137 Y-38.410 Z0.000 I4.121 J-2.732 K0.000 F300.000
G2 X38.280 Y-38.160 Z0.000 I2.169 J-7.393 K0.000 F300.000
G2 X39.568 Y-38.425 Z0.000 I-0.594 J-6.167 K0.000 F300.000
G0 Z6.000
G0 X33.679 Y-39.169 Z6.000
G0 X33.679 Y-39.169 Z4.000
G1 X33.679 Y-39.169 Z0.000 F120.000
G1 X32.765 Y-40.083 Z0.000 F300.000
G2 X33.679 Y-39.169 Z0.000 I3.415 J-2.501 K0.000 F300.000
G2 X35.137 Y-38.410 Z0.000 I2.761 J-3.528 K0.000 F300.000
G2 X39.038 Y-38.286 Z0.000 I2.201 J-7.786 K0.000 F300.000
G1 X30.036 Y-47.288 Z0.000 F300.000
G0 Z6.000
G0 X32.274 Y-49.526 Z6.000
G0 X32.274 Y-49.526 Z4.000
G1 X32.274 Y-49.526 Z0.000 F120.000
G1 X32.852 Y-48.948 Z0.000 F300.000
G2 X31.711 Y-52.030 Z0.000 I-14.689 J3.685 K0.000 F300.000
G2 X29.392 Y-54.352 Z0.000 I-4.556 J2.231 K0.000 F300.000
G2 X26.923 Y-54.877 Z0.000 I-2.490 J5.642 K0.000 F300.000
G1 X32.274 Y-49.526 Z0.000 F300.000
G0 Z6.000
G0 X25.471 Y-43.018 Z6.000
G0 X25.471 Y-43.018 Z4.000
G1 X25.471 Y-43.018 Z0.000 F120.000
G1 X25.471 Y-42.900 Z0.000 F300.000
G1 X25.258 Y-43.113 Z0.000 F300.000
G2 X25.471 Y-43.018 Z0.000 I2.949 J-6.328 K0.000 F300.000
G0 Z6.000
G0 X24.616 Y-39.280 Z6.000
G0 X24.616 Y-39.280 Z4.000
G1 X24.616 Y-39.280 Z0.000 F120.000
G3 X23.711 Y-39.643 Z0.000 I1.024 J-3.859 K0.000 F300.000
G3 X20.892 Y-43.003 Z0.000 I2.668 J-5.101 K0.000 F300.000
G1 X24.616 Y-39.280 Z0.000 F300.000
G2 X25.471 Y-39.064 Z0.000 I1.818 J-5.395 K0.000 F300.000
G1 X25.471 Y-42.900 Z0.000 F300.000
G1 X25.258 Y-43.113 Z0.000 F300.000
G3 X23.485 Y-44.887 Z0.000 I1.492 J-3.266 K0.000 F300.000
G1 X20.339 Y-48.033 Z0.000 F300.000
G3 X21.213 Y-51.634 Z0.000 I10.088 J0.544 K0.000 F300.000
G1 X23.583 Y-49.265 Z0.000 F300.000
G3 X26.368 Y-50.955 Z0.000 I2.797 J1.468 K0.000 F300.000
G1 X23.288 Y-54.036 Z0.000 F300.000
G3 X23.926 Y-54.378 Z0.000 I1.957 J2.885 K0.000 F300.000
G3 X26.923 Y-54.877 Z0.000 I2.547 J6.052 K0.000 F300.000
G1 X32.852 Y-48.948 Z0.000 F300.000
G3 X33.320 Y-47.151 Z0.000 I-91.231 J24.713 K0.000 F300.000
G2 X34.498 Y-43.946 Z0.000 I11.228 J-2.310 K0.000 F300.000
G2 X39.142 Y-42.657 Z0.000 I2.959 J-1.650 K0.000 F300.000
G1 X41.940 Y-39.860 Z0.000 F300.000
G2 X43.588 Y-42.688 Z0.000 I-4.948 J-4.779 K0.000 F300.000
G1 X41.063 Y-45.213 Z0.000 F300.000
G2 X41.213 Y-47.292 Z0.000 I-5.195 J-1.419 K0.000 F300.000
G2 X38.460 Y-50.938 Z0.000 I-4.261 J0.354 K0.000 F300.000
G1 X38.460 Y-52.291 Z0.000 F300.000
G1 X44.166 Y-46.585 Z0.000 F300.000
G2 X43.523 Y-50.697 Z0.000 I-12.169 J-0.201 K0.000 F300.000
G2 X41.725 Y-53.503 Z0.000 I-6.616 J2.261 K0.000 F300.000
G1 X41.725 Y-53.503 Z-1.000 F120.000
G3 X43.523 Y-50.697 Z-1.000 I-4.818 J5.067 K0.000 F300.000
G3 X44.166 Y-46.585 Z-1.000 I-11.525 J3.911 K0.000 F300.000
G1 X38.460 Y-52.291 Z-1.000 F300.000
G1 X38.460 Y-50.938 Z-1.000 F300.000
G3 X41.213 Y-47.292 Z-1.000 I-1.508 J4.000 K0.000 F300.000
G3 X41.063 Y-45.213 Z-1.000 I-5.345 J0.660 K0.000 F300.000
G1 X43.588 Y-42.688 Z-1.000 F300.000
G3 X41.940 Y-39.860 Z-1.000 I-6.597 J-1.952 K0.000 F300.000
G1 X39.142 Y-42.657 Z-1.000 F300.000
G3 X34.498 Y-43.946 Z-1.000 I-1.685 J-2.939 K0.000 F300.000
G3 X33.320 Y-47.151 Z-1.000 I10.050 J-5.514 K0.000 F300.000
G2 X32.852 Y-48.948 Z-1.000 I-91.698 J22.917 K0.000 F300.000
G1 X26.923 Y-54.877 Z-1.000 F300.000
G2 X23.926 Y-54.378 Z-1.000 I-0.450 J6.551 K0.000 F300.000
G2 X23.288 Y-54.036 Z-1.000 I1.318 J3.227 K0.000 F300.000
G1 X26.368 Y-50.955 Z-1.000 F300.000
G2 X23.583 Y-49.265 Z-1.000 I0.012 J3.159 K0.000 F300.000
G1 X21.213 Y-51.634 Z-1.000 F300.000
G2 X20.339 Y-48.033 Z-1.000 I9.213 J4.145 K0.000 F300.000
G1 X23.485 Y-44.887 Z-1.000 F300.000
G2 X25.258 Y-43.113 Z-1.000 I3.266 J-1.492 K0.000 F300.000
G1 X25.471 Y-42.900 Z-1.000 F300.000
G1 X25.471 Y-39.064 Z-1.000 F300.000
G3 X24.616 Y-39.280 Z-1.000 I0.962 J-5.611 K0.000 F300.000
G1 X20.892 Y-43.003 Z-1.000 F300.000
G2 X23.711 Y-39.643 Z-1.000 I5.487 J-1.740 K0.000 F300.000
G2 X24.616 Y-39.280 Z-1.000 I1.930 J-3.496 K0.000 F300.000
G0 Z6.000
G0 X24.611 Y-39.262 Z6.000
G0 X24.611 Y-39.262 Z4.000
G1 X24.611 Y-39.262 Z-1.000 F120.000
G2 X25.471 Y-39.064 Z-1.000 I1.694 J-5.375 K0.000 F300.000
G1 X25.471 Y-43.018 Z-1.000 F300.000
G3 X23.688 Y-44.502 Z-1.000 I1.324 J-3.407 K0.000 F300.000
G3 X23.549 Y-49.195 Z-1.000 I4.336 J-2.477 K0.000 F300.000
G3 X28.455 Y-50.169 Z-1.000 I2.825 J1.387 K0.000 F300.000
G3 X29.893 Y-47.733 Z-1.000 I-4.147 J4.091 K0.000 F300.000
G3 X30.891 Y-44.201 Z-1.000 I-64.669 J20.175 K0.000 F300.000
G2 X32.525 Y-40.387 Z-1.000 I12.973 J-3.301 K0.000 F300.000
G2 X35.137 Y-38.410 Z-1.000 I4.121 J-2.732 K0.000 F300.000
G2 X38.280 Y-38.160 Z-1.000 I2.169 J-7.393 K0.000 F300.000
G2 X41.198 Y-39.224 Z-1.000 I-0.594 J-6.167 K0.000 F300.000
G2 X43.400 Y-42.150 Z-1.000 I-3.765 J-5.125 K0.000 F300.000
G2 X44.168 Y-46.631 Z-1.000 I-11.029 J-4.196 K0.000 F300.000
G2 X43.197 Y-51.474 Z-1.000 I-11.209 J-0.271 K0.000 F300.000
G2 X38.460 Y-55.073 Z-1.000 I-5.690 J2.572 K0.000 F300.000
G1 X38.460 Y-50.938 Z-1.000 F300.000
G3 X40.166 Y-49.764 Z-1.000 I-1.339 J3.772 K0.000 F300.000
G3 X40.399 Y-43.786 Z-1.000 I-3.970 J3.148 K0.000 F300.000
G3 X35.342 Y-42.964 Z-1.000 I-2.908 J-1.925 K0.000 F300.000
G3 X33.755 Y-45.624 Z-1.000 I3.840 J-4.095 K0.000 F300.000
G3 X32.824 Y-49.054 Z-1.000 I44.883 J-14.020 K0.000 F300.000
G2 X31.368 Y-52.603 Z-1.000 I-12.548 J3.076 K0.000 F300.000
G2 X28.904 Y-54.548 Z-1.000 I-3.991 J2.521 K0.000 F300.000
G2 X25.685 Y-54.838 Z-1.000 I-2.285 J7.349 K0.000 F300.000
G2 X22.768 Y-53.677 Z-1.000 I0.525 J5.562 K0.000 F300.000
G2 X20.790 Y-50.551 Z-1.000 I4.134 J4.805 K0.000 F300.000
G2 X20.292 Y-46.850 Z-1.000 I12.066 J3.507 K0.000 F300.000
G2 X21.108 Y-42.457 Z-1.000 I10.833 J0.259 K0.000 F300.000
G2 X24.611 Y-39.262 Z-1.000 I5.196 J-2.180 K0.000 F300.000
G0 Z6.000
G0 X25.471 Y-42.900 Z6.000
G0 X25.471 Y-42.900 Z4.000
G1 X25.471 Y-42.900 Z-1.000 F120.000
G1 X25.258 Y-43.113 Z-1.000 F300.000
G2 X25.471 Y-43.018 Z-1.000 I2.949 J-6.328 K0.000 F300.000
G1 X25.471 Y-42.900 Z-1.000 F300.000
G0 Z6.000
G0 X30.036 Y-47.288 Z6.000
G0 X30.036 Y-47.288 Z4.000
G1 X30.036 Y-47.288 Z-1.000 F120.000
G1 X39.038 Y-38.286 Z-1.000 F300.000
G3 X35.137 Y-38.410 Z-1.000 I-1.700 J-7.910 K0.000 F300.000
G3 X33.679 Y-39.169 Z-1.000 I1.303 J-4.286 K0.000 F300.000
G3 X32.765 Y-40.083 Z-1.000 I2.501 J-3.415 K0.000 F300.000
G1 X33.679 Y-39.169 Z-1.000 F300.000
G0 Z6.000
G0 X32.852 Y-48.948 Z6.000
G0 X32.852 Y-48.948 Z4.000
G1 X32.852 Y-48.948 Z-1.000 F120.000
G2 X31.711 Y-52.030 Z-1.000 I-14.689 J3.685 K0.000 F300.000
G2 X29.392 Y-54.352 Z-1.000 I-4.556 J2.231 K0.000 F300.000
G2 X26.923 Y-54.877 Z-1.000 I-2.490 J5.642 K0.000 F300.000
G1 X32.852 Y-48.948 Z-1.000 F300.000
G1 X32.852 Y-48.948 Z-2.000 F120.000
G2 X31.711 Y-52.030 Z-2.000 I-14.689 J3.685 K0.000 F300.000
G2 X29.392 Y-54.352 Z-2.000 I-4.556 J2.231 K0.000 F300.000
G2 X26.923 Y-54.877 Z-2.000 I-2.490 J5.642 K0.000 F300.000
G1 X32.852 Y-48.948 Z-2.000 F300.000
G0 Z6.000
G0 X32.849 Y-48.947 Z6.000
G0 X32.849 Y-48.947 Z4.000
G1 X32.849 Y-48.947 Z-2.000 F120.000
G3 X32.824 Y-49.054 Z-2.000 I45.789 J-10.697 K0.000 F300.000
G2 X31.368 Y-52.603 Z-2.000 I-12.548 J3.076 K0.000 F300.000
G2 X28.904 Y-54.548 Z-2.000 I-3.991 J2.521 K0.000 F300.000
G2 X25.685 Y-54.838 Z-2.000 I-2.285 J7.349 K0.000 F300.000
G2 X22.768 Y-53.677 Z-2.000 I0.525 J5.562 K0.000 F300.000
G2 X20.790 Y-50.551 Z-2.000 I4.134 J4.805 K0.000 F300.000
G2 X20.292 Y-46.850 Z-2.000 I12.066 J3.507 K0.000 F300.000
G2 X21.108 Y-42.457 Z-2.000 I10.833 J0.259 K0.000 F300.000
G2 X25.471 Y-39.064 Z-2.000 I5.196 J-2.180 K0.000 F300.000
G1 X25.471 Y-43.018 Z-2.000 F300.000
G3 X23.688 Y-44.502 Z-2.000 I1.324 J-3.407 K0.000 F300.000
G3 X23.549 Y-49.195 Z-2.000 I4.336 J-2.477 K0.000 F300.000
G3 X28.455 Y-50.169 Z-2.000 I2.825 J1.387 K0.000 F300.000
G3 X29.893 Y-47.733 Z-2.000 I-4.147 J4.091 K0.000 F300.000
G3 X30.891 Y-44.201 Z-2.000 I-64.669 J20.175 K0.000 F300.000
G2 X32.525 Y-40.387 Z-2.000 I12.973 J-3.301 K0.000 F300.000
G2 X35.137 Y-38.410 Z-2.000 I4.121 J-2.732 K0.000 F300.000
G2 X38.280 Y-38.160 Z-2.000 I2.169 J-7.393 K0.000 F300.000
G2 X41.198 Y-39.224 Z-2.000 I-0.594 J-6.167 K0.000 F300.000
G2 X43.400 Y-42.150 Z-2.000 I-3.765 J-5.125 K0.000 F300.000
G2 X44.168 Y-46.631 Z-2.000 I-11.029 J-4.196 K0.000 F300.000
G2 X43.197 Y-51.474 Z-2.000 I-11.209 J-0.271 K0.000 F300.000
G2 X38.460 Y-55.073 Z-2.000 I-5.690 J2.572 K0.000 F300.000
G1 X38.460 Y-50.938 Z-2.000 F300.000
G3 X40.166 Y-49.764 Z-2.000 I-1.339 J3.772 K0.000 F300.000
G3 X40.399 Y-43.786 Z-2.000 I-3.970 J3.148 K0.000 F300.000
G3 X35.342 Y-42.964 Z-2.000 I-2.908 J-1.925 K0.000 F300.000
G3 X33.755 Y-45.624 Z-2.000 I3.840 J-4.095 K0.000 F300.000
G3 X32.849 Y-48.947 Z-2.000 I44.883 J-14.020 K0.000 F300.000
G0 Z6.000
G0 X30.036 Y-47.288 Z6.000
G0 X30.036 Y-47.288 Z4.000
G1 X30.036 Y-47.288 Z-2.000 F120.000
G1 X39.038 Y-38.286 Z-2.000 F300.000
G3 X35.137 Y-38.410 Z-2.000 I-1.700 J-7.910 K0.000 F300.000
G3 X33.679 Y-39.169 Z-2.000 I1.303 J-4.286 K0.000 F300.000
G3 X32.765 Y-40.083 Z-2.000 I2.501 J-3.415 K0.000 F300.000
G1 X33.679 Y-39.169 Z-2.000 F300.000
G0 Z6.000
G0 X25.471 Y-42.900 Z6.000
G0 X25.471 Y-42.900 Z4.000
G1 X25.471 Y-42.900 Z-2.000 F120.000
G1 X25.258 Y-43.113 Z-2.000 F300.000
G2 X25.471 Y-43.018 Z-2.000 I2.949 J-6.328 K0.000 F300.000
G1 X25.471 Y-42.900 Z-2.000 F300.000
G0 Z6.000
G0 X24.616 Y-39.280 Z6.000
G0 X24.616 Y-39.280 Z4.000
G1 X24.616 Y-39.280 Z-2.000 F120.000
G3 X23.711 Y-39.643 Z-2.000 I1.024 J-3.859 K0.000 F300.000
G3 X20.892 Y-43.003 Z-2.000 I2.668 J-5.101 K0.000 F300.000
G1 X24.616 Y-39.280 Z-2.000 F300.000
G2 X25.471 Y-39.064 Z-2.000 I1.818 J-5.395 K0.000 F300.000
G1 X25.471 Y-42.900 Z-2.000 F300.000
G1 X25.258 Y-43.113 Z-2.000 F300.000
G3 X23.485 Y-44.887 Z-2.000 I1.492 J-3.266 K0.000 F300.000
G1 X20.339 Y-48.033 Z-2.000 F300.000
G3 X21.213 Y-51.634 Z-2.000 I10.088 J0.544 K0.000 F300.000
G1 X23.583 Y-49.265 Z-2.000 F300.000
G3 X26.368 Y-50.955 Z-2.000 I2.797 J1.468 K0.000 F300.000
G1 X23.288 Y-54.036 Z-2.000 F300.000
G3 X23.926 Y-54.378 Z-2.000 I1.957 J2.885 K0.000 F300.000
G3 X26.923 Y-54.877 Z-2.000 I2.547 J6.052 K0.000 F300.000
G1 X32.852 Y-48.948 Z-2.000 F300.000
G3 X33.320 Y-47.151 Z-2.000 I-91.231 J24.713 K0.000 F300.000
G2 X34.498 Y-43.946 Z-2.000 I11.228 J-2.310 K0.000 F300.000
G2 X39.142 Y-42.657 Z-2.000 I2.959 J-1.650 K0.000 F300.000
G1 X41.940 Y-39.860 Z-2.000 F300.000
G2 X43.588 Y-42.688 Z-2.000 I-4.948 J-4.779 K0.000 F300.000
G1 X41.063 Y-45.213 Z-2.000 F300.000
G2 X41.213 Y-47.292 Z-2.000 I-5.195 J-1.419 K0.000 F300.000
G2 X38.460 Y-50.938 Z-2.000 I-4.261 J0.354 K0.000 F300.000
G1 X38.460 Y-52.291 Z-2.000 F300.000
G1 X44.166 Y-46.585 Z-2.000 F300.000
G2 X43.523 Y-50.697 Z-2.000 I-12.169 J-0.201 K0.000 F300.000
G2 X41.725 Y-53.503 Z-2.000 I-6.616 J2.261 K0.000 F300.000
G1 X41.725 Y-53.503 Z-3.000 F120.000
G3 X43.523 Y-50.697 Z-3.000 I-4.818 J5.067 K0.000 F300.000
G3 X44.166 Y-46.585 Z-3.000 I-11.525 J3.911 K0.000 F300.000
G1 X38.460 Y-52.291 Z-3.000 F300.000
G1 X38.460 Y-50.938 Z-3.000 F300.000
G3 X41.213 Y-47.292 Z-3.000 I-1.508 J4.000 K0.000 F300.000
G3 X41.063 Y-45.213 Z-3.000 I-5.345 J0.660 K0.000 F300.000
G1 X43.588 Y-42.688 Z-3.000 F300.000
G3 X41.940 Y-39.860 Z-3.000 I-6.597 J-1.952 K0.000 F300.000
G1 X39.142 Y-42.657 Z-3.000 F300.000
G3 X34.498 Y-43.946 Z-3.000 I-1.685 J-2.939 K0.000 F300.000
G3 X33.320 Y-47.151 Z-3.000 I10.050 J-5.514 K0.000 F300.000
G2 X32.852 Y-48.948 Z-3.000 I-91.698 J22.917 K0.000 F300.000
G1 X26.923 Y-54.877 Z-3.000 F300.000
G2 X23.926 Y-54.378 Z-3.000 I-0.450 J6.551 K0.000 F300.000
G2 X23.288 Y-54.036 Z-3.000 I1.318 J3.227 K0.000 F300.000
G1 X26.368 Y-50.955 Z-3.000 F300.000
G2 X23.583 Y-49.265 Z-3.000 I0.012 J3.159 K0.000 F300.000
G1 X21.213 Y-51.634 Z-3.000 F300.000
G2 X20.339 Y-48.033 Z-3.000 I9.213 J4.145 K0.000 F300.000
G1 X23.485 Y-44.887 Z-3.000 F300.000
G2 X25.258 Y-43.113 Z-3.000 I3.266 J-1.492 K0.000 F300.000
G1 X25.471 Y-42.900 Z-3.000 F300.000
G1 X25.471 Y-39.064 Z-3.000 F300.000
G3 X24.616 Y-39.280 Z-3.000 I0.962 J-5.611 K0.000 F300.000
G1 X20.892 Y-43.003 Z-3.000 F300.000
G2 X23.711 Y-39.643 Z-3.000 I5.487 J-1.740 K0.000 F300.000
G2 X24.616 Y-39.280 Z-3.000 I1.930 J-3.496 K0.000 F300.000
G0 Z6.000
G0 X24.611 Y-39.262 Z6.000
G0 X24.611 Y-39.262 Z4.000
G1 X24.611 Y-39.262 Z-3.000 F120.000
G2 X25.471 Y-39.064 Z-3.000 I1.694 J-5.375 K0.000 F300.000
G1 X25.471 Y-43.018 Z-3.000 F300.000
G3 X23.688 Y-44.502 Z-3.000 I1.324 J-3.407 K0.000 F300.000
G3 X23.549 Y-49.195 Z-3.000 I4.336 J-2.477 K0.000 F300.000
G3 X28.455 Y-50.169 Z-3.000 I2.825 J1.387 K0.000 F300.000
G3 X29.893 Y-47.733 Z-3.000 I-4.147 J4.091 K0.000 F300.000
G3 X30.891 Y-44.201 Z-3.000 I-64.669 J20.175 K0.000 F300.000
G2 X32.525 Y-40.387 Z-3.000 I12.973 J-3.301 K0.000 F300.000
G2 X35.137 Y-38.410 Z-3.000 I4.121 J-2.732 K0.000 F300.000
G2 X38.280 Y-38.160 Z-3.000 I2.169 J-7.393 K0.000 F300.000
G2 X41.198 Y-39.224 Z-3.000 I-0.594 J-6.167 K0.000 F300.000
G2 X43.400 Y-42.150 Z-3.000 I-3.765 J-5.125 K0.000 F300.000
G2 X44.168 Y-46.631 Z-3.000 I-11.029 J-4.196 K0.000 F300.000
G2 X43.197 Y-51.474 Z-3.000 I-11.209 J-0.271 K0.000 F300.000
G2 X38.460 Y-55.073 Z-3.000 I-5.690 J2.572 K0.000 F300.000
G1 X38.460 Y-50.938 Z-3.000 F300.000
G3 X40.166 Y-49.764 Z-3.000 I-1.339 J3.772 K0.000 F300.000
G3 X40.399 Y-43.786 Z-3.000 I-3.970 J3.148 K0.000 F300.000
G3 X35.342 Y-42.964 Z-3.000 I-2.908 J-1.925 K0.000 F300.000
G3 X33.755 Y-45.624 Z-3.000 I3.840 J-4.095 K0.000 F300.000
G3 X32.824 Y-49.054 Z-3.000 I44.883 J-14.020 K0.000 F300.000
G2 X31.368 Y-52.603 Z-3.000 I-12.548 J3.076 K0.000 F300.000
G2 X28.904 Y-54.548 Z-3.000 I-3.991 J2.521 K0.000 F300.000
G2 X25.685 Y-54.838 Z-3.000 I-2.285 J7.349 K0.000 F300.000
G2 X22.768 Y-53.677 Z-3.000 I0.525 J5.562 K0.000 F300.000
G2 X20.790 Y-50.551 Z-3.000 I4.134 J4.805 K0.000 F300.000
G2 X20.292 Y-46.850 Z-3.000 I12.066 J3.507 K0.000 F300.000
G2 X21.108 Y-42.457 Z-3.000 I10.833 J0.259 K0.000 F300.000
G2 X24.611 Y-39.262 Z-3.000 I5.196 J-2.180 K0.000 F300.000
G0 Z6.000
G0 X25.471 Y-42.900 Z6.000
G0 X25.471 Y-42.900 Z4.000
G1 X25.471 Y-42.900 Z-3.000 F120.000
G1 X25.258 Y-43.113 Z-3.000 F300.000
G2 X25.471 Y-43.018 Z-3.000 I2.949 J-6.328 K0.000 F300.000
G1 X25.471 Y-42.900 Z-3.000 F300.000
G0 Z6.000
G0 X30.036 Y-47.288 Z6.000
G0 X30.036 Y-47.288 Z4.000
G1 X30.036 Y-47.288 Z-3.000 F120.000
G1 X39.038 Y-38.286 Z-3.000 F300.000
G3 X35.137 Y-38.410 Z-3.000 I-1.700 J-7.910 K0.000 F300.000
G3 X33.679 Y-39.169 Z-3.000 I1.303 J-4.286 K0.000 F300.000
G3 X32.765 Y-40.083 Z-3.000 I2.501 J-3.415 K0.000 F300.000
G1 X33.679 Y-39.169 Z-3.000 F300.000
G0 Z6.000
G0 X32.852 Y-48.948 Z6.000
G0 X32.852 Y-48.948 Z4.000
G1 X32.852 Y-48.948 Z-3.000 F120.000
G2 X31.711 Y-52.030 Z-3.000 I-14.689 J3.685 K0.000 F300.000
G2 X29.392 Y-54.352 Z-3.000 I-4.556 J2.231 K0.000 F300.000
G2 X26.923 Y-54.877 Z-3.000 I-2.490 J5.642 K0.000 F300.000
G1 X32.852 Y-48.948 Z-3.000 F300.000
G0 Z6.000
G0 Z6.000
(Finish operation: START_Pocket_Shape)
(Begin postamble)
M5
G17 G90
M2
