(Exported by FreeCAD)
(Post Processor: grbl_post)
(Output Time:2022-05-28 15:42:05.253535)
(Begin preamble)
G17 G90
G21
(Begin operation: Fixture)
(Path: Fixture)
G54
(Finish operation: Fixture)
(Begin operation: TC: endmill_FC1DA3007DLC)
(Path: TC: endmill_FC1DA3007DLC)
(TC: endmill_FC1DA3007DLC)
(Begin toolchange)
( M6 T2.0 )
M3 S10000.0
(Finish operation: TC: endmill_FC1DA3007DLC)
(Begin operation: RampEntryDressup044)
(Path: RampEntryDressup044)
G0 X0.000 Y0.000 Z6.000
G0 X5.109 Y-4.891 Z6.000
G0 X5.109 Y-4.891 Z4.000
G1 X5.153 Y-4.992 Z3.664 F60.000
G1 X5.131 Y-5.079 Z3.322 F60.000
G1 X5.046 Y-5.148 Z2.986 F60.000
G1 X4.913 Y-5.110 Z2.606 F60.000
G1 X4.852 Y-5.046 Z2.211 F60.000
G1 X4.866 Y-4.959 Z1.816 F60.000
G1 X4.954 Y-4.852 Z1.436 F60.000
G1 X5.037 Y-4.850 Z1.168 F60.000
G1 X5.109 Y-4.891 Z0.900 F60.000
G1 X5.154 Y-4.985 Z0.890 F60.000
G1 X5.129 Y-5.085 Z0.877 F60.000
G1 X5.046 Y-5.148 Z0.867 F60.000
G1 X4.950 Y-5.146 Z0.862 F60.000
G1 X4.873 Y-5.089 Z0.850 F60.000
G1 X4.845 Y-4.998 Z0.835 F60.000
G1 X4.876 Y-4.908 Z0.822 F60.000
G1 X4.954 Y-4.852 Z0.817 F60.000
G1 X5.037 Y-4.850 Z0.809 F60.000
G1 X5.109 Y-4.891 Z0.800 F60.000
G1 X5.154 Y-4.985 Z0.790 F60.000
G1 X5.129 Y-5.085 Z0.777 F60.000
G1 X5.046 Y-5.148 Z0.767 F60.000
G1 X4.950 Y-5.146 Z0.762 F60.000
G1 X4.873 Y-5.089 Z0.750 F60.000
G1 X4.845 Y-4.998 Z0.735 F60.000
G1 X4.876 Y-4.908 Z0.722 F60.000
G1 X4.954 Y-4.852 Z0.717 F60.000
G1 X5.037 Y-4.850 Z0.709 F60.000
G1 X5.109 Y-4.891 Z0.700 F60.000
G1 X5.154 Y-4.985 Z0.690 F60.000
G1 X5.129 Y-5.085 Z0.677 F60.000
G1 X5.046 Y-5.148 Z0.667 F60.000
G1 X4.950 Y-5.146 Z0.662 F60.000
G1 X4.873 Y-5.089 Z0.650 F60.000
G1 X4.845 Y-4.998 Z0.635 F60.000
G1 X4.876 Y-4.908 Z0.622 F60.000
G1 X4.954 Y-4.852 Z0.617 F60.000
G1 X5.037 Y-4.850 Z0.609 F60.000
G1 X5.109 Y-4.891 Z0.600 F60.000
G1 X5.154 Y-4.985 Z0.590 F60.000
G1 X5.129 Y-5.085 Z0.577 F60.000
G1 X5.046 Y-5.148 Z0.567 F60.000
G1 X4.950 Y-5.146 Z0.562 F60.000
G1 X4.873 Y-5.089 Z0.550 F60.000
G1 X4.845 Y-4.998 Z0.535 F60.000
G1 X4.876 Y-4.908 Z0.522 F60.000
G1 X4.954 Y-4.852 Z0.517 F60.000
G1 X5.037 Y-4.850 Z0.509 F60.000
G1 X5.109 Y-4.891 Z0.500 F60.000
G1 X5.154 Y-4.985 Z0.490 F60.000
G1 X5.129 Y-5.085 Z0.477 F60.000
G1 X5.046 Y-5.148 Z0.467 F60.000
G1 X4.950 Y-5.146 Z0.462 F60.000
G1 X4.873 Y-5.089 Z0.450 F60.000
G1 X4.845 Y-4.998 Z0.435 F60.000
G1 X4.876 Y-4.908 Z0.422 F60.000
G1 X4.954 Y-4.852 Z0.417 F60.000
G1 X5.037 Y-4.850 Z0.409 F60.000
G1 X5.109 Y-4.891 Z0.400 F60.000
G1 X5.154 Y-4.985 Z0.390 F60.000
G1 X5.129 Y-5.085 Z0.377 F60.000
G1 X5.046 Y-5.148 Z0.367 F60.000
G1 X4.950 Y-5.146 Z0.362 F60.000
G1 X4.873 Y-5.089 Z0.350 F60.000
G1 X4.845 Y-4.998 Z0.335 F60.000
G1 X4.876 Y-4.908 Z0.322 F60.000
G1 X4.954 Y-4.852 Z0.317 F60.000
G1 X5.037 Y-4.850 Z0.309 F60.000
G1 X5.109 Y-4.891 Z0.300 F60.000
G1 X5.154 Y-4.985 Z0.290 F60.000
G1 X5.129 Y-5.085 Z0.277 F60.000
G1 X5.046 Y-5.148 Z0.267 F60.000
G1 X4.950 Y-5.146 Z0.262 F60.000
G1 X4.873 Y-5.089 Z0.250 F60.000
G1 X4.845 Y-4.998 Z0.235 F60.000
G1 X4.876 Y-4.908 Z0.222 F60.000
G1 X4.954 Y-4.852 Z0.217 F60.000
G1 X5.037 Y-4.850 Z0.209 F60.000
G1 X5.109 Y-4.891 Z0.200 F60.000
G1 X5.154 Y-4.985 Z0.190 F60.000
G1 X5.129 Y-5.085 Z0.177 F60.000
G1 X5.046 Y-5.148 Z0.167 F60.000
G1 X4.950 Y-5.146 Z0.162 F60.000
G1 X4.873 Y-5.089 Z0.150 F60.000
G1 X4.845 Y-4.998 Z0.135 F60.000
G1 X4.876 Y-4.908 Z0.122 F60.000
G1 X4.954 Y-4.852 Z0.117 F60.000
G1 X5.037 Y-4.850 Z0.109 F60.000
G1 X5.109 Y-4.891 Z0.100 F60.000
G1 X5.154 Y-4.985 Z0.090 F60.000
G1 X5.129 Y-5.085 Z0.077 F60.000
G1 X5.046 Y-5.148 Z0.067 F60.000
G1 X4.950 Y-5.146 Z0.062 F60.000
G1 X4.873 Y-5.089 Z0.050 F60.000
G1 X4.845 Y-4.998 Z0.035 F60.000
G1 X4.876 Y-4.908 Z0.022 F60.000
G1 X4.954 Y-4.852 Z0.017 F60.000
G1 X5.037 Y-4.850 Z0.009 F60.000
G1 X5.109 Y-4.891 Z0.000 F60.000
G1 X5.154 Y-4.985 Z-0.010 F60.000
G1 X5.129 Y-5.085 Z-0.023 F60.000
G1 X5.046 Y-5.148 Z-0.033 F60.000
G1 X4.950 Y-5.146 Z-0.038 F60.000
G1 X4.873 Y-5.089 Z-0.050 F60.000
G1 X4.845 Y-4.998 Z-0.065 F60.000
G1 X4.876 Y-4.908 Z-0.078 F60.000
G1 X4.954 Y-4.852 Z-0.083 F60.000
G1 X5.037 Y-4.850 Z-0.091 F60.000
G1 X5.109 Y-4.891 Z-0.100 F60.000
G1 X5.154 Y-4.985 Z-0.110 F60.000
G1 X5.129 Y-5.085 Z-0.123 F60.000
G1 X5.046 Y-5.148 Z-0.133 F60.000
G1 X4.950 Y-5.146 Z-0.138 F60.000
G1 X4.873 Y-5.089 Z-0.150 F60.000
G1 X4.845 Y-4.998 Z-0.165 F60.000
G1 X4.876 Y-4.908 Z-0.178 F60.000
G1 X4.954 Y-4.852 Z-0.183 F60.000
G1 X5.037 Y-4.850 Z-0.191 F60.000
G1 X5.109 Y-4.891 Z-0.200 F60.000
G1 X5.154 Y-4.985 Z-0.210 F60.000
G1 X5.129 Y-5.085 Z-0.223 F60.000
G1 X5.046 Y-5.148 Z-0.233 F60.000
G1 X4.950 Y-5.146 Z-0.238 F60.000
G1 X4.873 Y-5.089 Z-0.250 F60.000
G1 X4.845 Y-4.998 Z-0.265 F60.000
G1 X4.876 Y-4.908 Z-0.278 F60.000
G1 X4.954 Y-4.852 Z-0.283 F60.000
G1 X5.037 Y-4.850 Z-0.291 F60.000
G1 X5.109 Y-4.891 Z-0.300 F60.000
G1 X5.154 Y-4.985 Z-0.310 F60.000
G1 X5.129 Y-5.085 Z-0.323 F60.000
G1 X5.046 Y-5.148 Z-0.333 F60.000
G1 X4.950 Y-5.146 Z-0.338 F60.000
G1 X4.873 Y-5.089 Z-0.350 F60.000
G1 X4.845 Y-4.998 Z-0.365 F60.000
G1 X4.876 Y-4.908 Z-0.378 F60.000
G1 X4.954 Y-4.852 Z-0.383 F60.000
G1 X5.037 Y-4.850 Z-0.391 F60.000
G1 X5.109 Y-4.891 Z-0.400 F60.000
G1 X5.154 Y-4.985 Z-0.410 F60.000
G1 X5.129 Y-5.085 Z-0.423 F60.000
G1 X5.046 Y-5.148 Z-0.433 F60.000
G1 X4.950 Y-5.146 Z-0.438 F60.000
G1 X4.873 Y-5.089 Z-0.450 F60.000
G1 X4.845 Y-4.998 Z-0.465 F60.000
G1 X4.876 Y-4.908 Z-0.478 F60.000
G1 X4.954 Y-4.852 Z-0.483 F60.000
G1 X5.037 Y-4.850 Z-0.491 F60.000
G1 X5.109 Y-4.891 Z-0.500 F60.000
G1 X5.154 Y-4.985 Z-0.510 F60.000
G1 X5.129 Y-5.085 Z-0.523 F60.000
G1 X5.046 Y-5.148 Z-0.533 F60.000
G1 X4.950 Y-5.146 Z-0.538 F60.000
G1 X4.873 Y-5.089 Z-0.550 F60.000
G1 X4.845 Y-4.998 Z-0.565 F60.000
G1 X4.876 Y-4.908 Z-0.578 F60.000
G1 X4.954 Y-4.852 Z-0.583 F60.000
G1 X5.037 Y-4.850 Z-0.591 F60.000
G1 X5.109 Y-4.891 Z-0.600 F60.000
G1 X5.154 Y-4.985 Z-0.610 F60.000
G1 X5.129 Y-5.085 Z-0.623 F60.000
G1 X5.046 Y-5.148 Z-0.633 F60.000
G1 X4.950 Y-5.146 Z-0.638 F60.000
G1 X4.873 Y-5.089 Z-0.650 F60.000
G1 X4.845 Y-4.998 Z-0.665 F60.000
G1 X4.876 Y-4.908 Z-0.678 F60.000
G1 X4.954 Y-4.852 Z-0.683 F60.000
G1 X5.037 Y-4.850 Z-0.691 F60.000
G1 X5.109 Y-4.891 Z-0.700 F60.000
G1 X5.154 Y-4.985 Z-0.710 F60.000
G1 X5.129 Y-5.085 Z-0.723 F60.000
G1 X5.046 Y-5.148 Z-0.733 F60.000
G1 X4.950 Y-5.146 Z-0.738 F60.000
G1 X4.873 Y-5.089 Z-0.750 F60.000
G1 X4.845 Y-4.998 Z-0.765 F60.000
G1 X4.876 Y-4.908 Z-0.778 F60.000
G1 X4.954 Y-4.852 Z-0.783 F60.000
G1 X5.037 Y-4.850 Z-0.791 F60.000
G1 X5.109 Y-4.891 Z-0.800 F60.000
G1 X5.154 Y-4.985 Z-0.810 F60.000
G1 X5.129 Y-5.085 Z-0.823 F60.000
G1 X5.046 Y-5.148 Z-0.833 F60.000
G1 X4.950 Y-5.146 Z-0.838 F60.000
G1 X4.873 Y-5.089 Z-0.850 F60.000
G1 X4.845 Y-4.998 Z-0.865 F60.000
G1 X4.876 Y-4.908 Z-0.878 F60.000
G1 X4.954 Y-4.852 Z-0.883 F60.000
G1 X5.037 Y-4.850 Z-0.891 F60.000
G1 X5.109 Y-4.891 Z-0.900 F60.000
G1 X5.154 Y-4.985 Z-0.910 F60.000
G1 X5.129 Y-5.085 Z-0.923 F60.000
G1 X5.046 Y-5.148 Z-0.933 F60.000
G1 X4.950 Y-5.146 Z-0.938 F60.000
G1 X4.873 Y-5.089 Z-0.950 F60.000
G1 X4.845 Y-4.998 Z-0.965 F60.000
G1 X4.876 Y-4.908 Z-0.978 F60.000
G1 X4.954 Y-4.852 Z-0.983 F60.000
G1 X5.037 Y-4.850 Z-0.991 F60.000
G1 X5.109 Y-4.891 Z-1.000 F60.000
G1 X5.154 Y-4.985 Z-1.010 F60.000
G1 X5.129 Y-5.085 Z-1.023 F60.000
G1 X5.046 Y-5.148 Z-1.033 F60.000
G1 X4.950 Y-5.146 Z-1.038 F60.000
G1 X4.873 Y-5.089 Z-1.050 F60.000
G1 X4.845 Y-4.998 Z-1.065 F60.000
G1 X4.876 Y-4.908 Z-1.078 F60.000
G1 X4.954 Y-4.852 Z-1.083 F60.000
G1 X5.037 Y-4.850 Z-1.091 F60.000
G1 X5.109 Y-4.891 Z-1.100 F60.000
G1 X5.154 Y-4.985 Z-1.110 F60.000
G1 X5.129 Y-5.085 Z-1.123 F60.000
G1 X5.046 Y-5.148 Z-1.133 F60.000
G1 X4.950 Y-5.146 Z-1.138 F60.000
G1 X4.873 Y-5.089 Z-1.150 F60.000
G1 X4.845 Y-4.998 Z-1.165 F60.000
G1 X4.876 Y-4.908 Z-1.178 F60.000
G1 X4.954 Y-4.852 Z-1.183 F60.000
G1 X5.037 Y-4.850 Z-1.191 F60.000
G1 X5.109 Y-4.891 Z-1.200 F60.000
G1 X5.154 Y-4.985 Z-1.210 F60.000
G1 X5.129 Y-5.085 Z-1.223 F60.000
G1 X5.046 Y-5.148 Z-1.233 F60.000
G1 X4.950 Y-5.146 Z-1.238 F60.000
G1 X4.873 Y-5.089 Z-1.250 F60.000
G1 X4.845 Y-4.998 Z-1.265 F60.000
G1 X4.876 Y-4.908 Z-1.278 F60.000
G1 X4.954 Y-4.852 Z-1.283 F60.000
G1 X5.037 Y-4.850 Z-1.291 F60.000
G1 X5.109 Y-4.891 Z-1.300 F60.000
G1 X5.154 Y-4.985 Z-1.310 F60.000
G1 X5.129 Y-5.085 Z-1.323 F60.000
G1 X5.046 Y-5.148 Z-1.333 F60.000
G1 X4.950 Y-5.146 Z-1.338 F60.000
G1 X4.873 Y-5.089 Z-1.350 F60.000
G1 X4.845 Y-4.998 Z-1.365 F60.000
G1 X4.876 Y-4.908 Z-1.378 F60.000
G1 X4.954 Y-4.852 Z-1.383 F60.000
G1 X5.037 Y-4.850 Z-1.391 F60.000
G1 X5.109 Y-4.891 Z-1.400 F60.000
G1 X5.154 Y-4.985 Z-1.410 F60.000
G1 X5.129 Y-5.085 Z-1.423 F60.000
G1 X5.046 Y-5.148 Z-1.433 F60.000
G1 X4.950 Y-5.146 Z-1.438 F60.000
G1 X4.873 Y-5.089 Z-1.450 F60.000
G1 X4.845 Y-4.998 Z-1.465 F60.000
G1 X4.876 Y-4.908 Z-1.478 F60.000
G1 X4.954 Y-4.852 Z-1.483 F60.000
G1 X5.037 Y-4.850 Z-1.491 F60.000
G1 X5.109 Y-4.891 Z-1.500 F60.000
G1 X5.154 Y-4.985 Z-1.510 F60.000
G1 X5.129 Y-5.085 Z-1.523 F60.000
G1 X5.046 Y-5.148 Z-1.533 F60.000
G1 X4.950 Y-5.146 Z-1.538 F60.000
G1 X4.873 Y-5.089 Z-1.550 F60.000
G1 X4.845 Y-4.998 Z-1.565 F60.000
G1 X4.876 Y-4.908 Z-1.578 F60.000
G1 X4.954 Y-4.852 Z-1.583 F60.000
G1 X5.037 Y-4.850 Z-1.591 F60.000
G1 X5.109 Y-4.891 Z-1.600 F60.000
G1 X5.154 Y-4.985 Z-1.610 F60.000
G1 X5.129 Y-5.085 Z-1.623 F60.000
G1 X5.046 Y-5.148 Z-1.633 F60.000
G1 X4.950 Y-5.146 Z-1.638 F60.000
G1 X4.873 Y-5.089 Z-1.650 F60.000
G1 X4.845 Y-4.998 Z-1.665 F60.000
G1 X4.876 Y-4.908 Z-1.678 F60.000
G1 X4.954 Y-4.852 Z-1.683 F60.000
G1 X5.037 Y-4.850 Z-1.691 F60.000
G1 X5.109 Y-4.891 Z-1.700 F60.000
G1 X5.154 Y-4.985 Z-1.710 F60.000
G1 X5.129 Y-5.085 Z-1.723 F60.000
G1 X5.046 Y-5.148 Z-1.733 F60.000
G1 X4.950 Y-5.146 Z-1.738 F60.000
G1 X4.873 Y-5.089 Z-1.750 F60.000
G1 X4.845 Y-4.998 Z-1.765 F60.000
G1 X4.876 Y-4.908 Z-1.778 F60.000
G1 X4.954 Y-4.852 Z-1.783 F60.000
G1 X5.037 Y-4.850 Z-1.791 F60.000
G1 X5.109 Y-4.891 Z-1.800 F60.000
G1 X5.154 Y-4.985 Z-1.810 F60.000
G1 X5.129 Y-5.085 Z-1.823 F60.000
G1 X5.046 Y-5.148 Z-1.833 F60.000
G1 X4.950 Y-5.146 Z-1.838 F60.000
G1 X4.873 Y-5.089 Z-1.850 F60.000
G1 X4.845 Y-4.998 Z-1.865 F60.000
G1 X4.876 Y-4.908 Z-1.878 F60.000
G1 X4.954 Y-4.852 Z-1.883 F60.000
G1 X5.037 Y-4.850 Z-1.891 F60.000
G1 X5.109 Y-4.891 Z-1.900 F60.000
G1 X5.154 Y-4.985 Z-1.910 F60.000
G1 X5.129 Y-5.085 Z-1.923 F60.000
G1 X5.046 Y-5.148 Z-1.933 F60.000
G1 X4.950 Y-5.146 Z-1.938 F60.000
G1 X4.873 Y-5.089 Z-1.950 F60.000
G1 X4.845 Y-4.998 Z-1.965 F60.000
G1 X4.876 Y-4.908 Z-1.978 F60.000
G1 X4.954 Y-4.852 Z-1.983 F60.000
G1 X5.037 Y-4.850 Z-1.991 F60.000
G1 X5.109 Y-4.891 Z-2.000 F60.000
G1 X5.154 Y-4.985 Z-2.010 F60.000
G1 X5.129 Y-5.085 Z-2.023 F60.000
G1 X5.046 Y-5.148 Z-2.033 F60.000
G1 X4.950 Y-5.146 Z-2.038 F60.000
G1 X4.873 Y-5.089 Z-2.050 F60.000
G1 X4.845 Y-4.998 Z-2.065 F60.000
G1 X4.876 Y-4.908 Z-2.078 F60.000
G1 X4.954 Y-4.852 Z-2.083 F60.000
G1 X5.037 Y-4.850 Z-2.091 F60.000
G1 X5.109 Y-4.891 Z-2.100 F60.000
G1 X5.154 Y-4.985 Z-2.110 F60.000
G1 X5.129 Y-5.085 Z-2.123 F60.000
G1 X5.046 Y-5.148 Z-2.133 F60.000
G1 X4.950 Y-5.146 Z-2.138 F60.000
G1 X4.873 Y-5.089 Z-2.150 F60.000
G1 X4.845 Y-4.998 Z-2.165 F60.000
G1 X4.876 Y-4.908 Z-2.178 F60.000
G1 X4.954 Y-4.852 Z-2.183 F60.000
G1 X5.037 Y-4.850 Z-2.191 F60.000
G1 X5.109 Y-4.891 Z-2.200 F60.000
G2 X5.046 Y-5.148 Z-2.200 I-0.109 J-0.109 K0.000 F60.000
G2 X4.954 Y-4.852 Z-2.200 I-0.046 J0.148 K0.000 F60.000
G2 X5.109 Y-4.891 Z-2.200 I0.046 J-0.148 K0.000 F60.000
G0 X5.109 Y-4.891 Z6.000
(Finish operation: RampEntryDressup044)
(Begin operation: RampEntryDressup045)
(Path: RampEntryDressup045)
G0 X0.000 Y0.000 Z6.000
G0 X35.109 Y-4.891 Z6.000
G0 X35.109 Y-4.891 Z4.000
G1 X35.152 Y-4.985 Z3.683 F60.000
G1 X35.136 Y-5.069 Z3.361 F60.000
G1 X35.063 Y-5.140 Z3.044 F60.000
G1 X34.981 Y-5.152 Z2.787 F60.000
G1 X34.913 Y-5.126 Z2.527 F60.000
G1 X34.860 Y-5.063 Z2.269 F60.000
G1 X34.848 Y-4.981 Z2.012 F60.000
G1 X34.874 Y-4.913 Z1.752 F60.000
G1 X34.937 Y-4.860 Z1.494 F60.000
G1 X35.028 Y-4.849 Z1.197 F60.000
G1 X35.109 Y-4.891 Z0.900 F60.000
G1 X35.152 Y-4.979 Z0.891 F60.000
G1 X35.135 Y-5.074 Z0.879 F60.000
G1 X35.063 Y-5.140 Z0.869 F60.000
G1 X34.984 Y-5.153 Z0.861 F60.000
G1 X34.910 Y-5.124 Z0.852 F60.000
G1 X34.860 Y-5.063 Z0.844 F60.000
G1 X34.847 Y-4.984 Z0.836 F60.000
G1 X34.876 Y-4.910 Z0.827 F60.000
G1 X34.937 Y-4.860 Z0.819 F60.000
G1 X35.028 Y-4.849 Z0.810 F60.000
G1 X35.109 Y-4.891 Z0.800 F60.000
G1 X35.152 Y-4.979 Z0.791 F60.000
G1 X35.135 Y-5.074 Z0.779 F60.000
G1 X35.063 Y-5.140 Z0.769 F60.000
G1 X34.984 Y-5.153 Z0.761 F60.000
G1 X34.910 Y-5.124 Z0.752 F60.000
G1 X34.860 Y-5.063 Z0.744 F60.000
G1 X34.847 Y-4.984 Z0.736 F60.000
G1 X34.876 Y-4.910 Z0.727 F60.000
G1 X34.937 Y-4.860 Z0.719 F60.000
G1 X35.028 Y-4.849 Z0.710 F60.000
G1 X35.109 Y-4.891 Z0.700 F60.000
G1 X35.152 Y-4.979 Z0.691 F60.000
G1 X35.135 Y-5.074 Z0.679 F60.000
G1 X35.063 Y-5.140 Z0.669 F60.000
G1 X34.984 Y-5.153 Z0.661 F60.000
G1 X34.910 Y-5.124 Z0.652 F60.000
G1 X34.860 Y-5.063 Z0.644 F60.000
G1 X34.847 Y-4.984 Z0.636 F60.000
G1 X34.876 Y-4.910 Z0.627 F60.000
G1 X34.937 Y-4.860 Z0.619 F60.000
G1 X35.028 Y-4.849 Z0.610 F60.000
G1 X35.109 Y-4.891 Z0.600 F60.000
G1 X35.152 Y-4.979 Z0.591 F60.000
G1 X35.135 Y-5.074 Z0.579 F60.000
G1 X35.063 Y-5.140 Z0.569 F60.000
G1 X34.984 Y-5.153 Z0.561 F60.000
G1 X34.910 Y-5.124 Z0.552 F60.000
G1 X34.860 Y-5.063 Z0.544 F60.000
G1 X34.847 Y-4.984 Z0.536 F60.000
G1 X34.876 Y-4.910 Z0.527 F60.000
G1 X34.937 Y-4.860 Z0.519 F60.000
G1 X35.028 Y-4.849 Z0.510 F60.000
G1 X35.109 Y-4.891 Z0.500 F60.000
G1 X35.152 Y-4.979 Z0.491 F60.000
G1 X35.135 Y-5.074 Z0.479 F60.000
G1 X35.063 Y-5.140 Z0.469 F60.000
G1 X34.984 Y-5.153 Z0.461 F60.000
G1 X34.910 Y-5.124 Z0.452 F60.000
G1 X34.860 Y-5.063 Z0.444 F60.000
G1 X34.847 Y-4.984 Z0.436 F60.000
G1 X34.876 Y-4.910 Z0.427 F60.000
G1 X34.937 Y-4.860 Z0.419 F60.000
G1 X35.028 Y-4.849 Z0.410 F60.000
G1 X35.109 Y-4.891 Z0.400 F60.000
G1 X35.152 Y-4.979 Z0.391 F60.000
G1 X35.135 Y-5.074 Z0.379 F60.000
G1 X35.063 Y-5.140 Z0.369 F60.000
G1 X34.984 Y-5.153 Z0.361 F60.000
G1 X34.910 Y-5.124 Z0.352 F60.000
G1 X34.860 Y-5.063 Z0.344 F60.000
G1 X34.847 Y-4.984 Z0.336 F60.000
G1 X34.876 Y-4.910 Z0.327 F60.000
G1 X34.937 Y-4.860 Z0.319 F60.000
G1 X35.028 Y-4.849 Z0.310 F60.000
G1 X35.109 Y-4.891 Z0.300 F60.000
G1 X35.152 Y-4.979 Z0.291 F60.000
G1 X35.135 Y-5.074 Z0.279 F60.000
G1 X35.063 Y-5.140 Z0.269 F60.000
G1 X34.984 Y-5.153 Z0.261 F60.000
G1 X34.910 Y-5.124 Z0.252 F60.000
G1 X34.860 Y-5.063 Z0.244 F60.000
G1 X34.847 Y-4.984 Z0.236 F60.000
G1 X34.876 Y-4.910 Z0.227 F60.000
G1 X34.937 Y-4.860 Z0.219 F60.000
G1 X35.028 Y-4.849 Z0.210 F60.000
G1 X35.109 Y-4.891 Z0.200 F60.000
G1 X35.152 Y-4.979 Z0.191 F60.000
G1 X35.135 Y-5.074 Z0.179 F60.000
G1 X35.063 Y-5.140 Z0.169 F60.000
G1 X34.984 Y-5.153 Z0.161 F60.000
G1 X34.910 Y-5.124 Z0.152 F60.000
G1 X34.860 Y-5.063 Z0.144 F60.000
G1 X34.847 Y-4.984 Z0.136 F60.000
G1 X34.876 Y-4.910 Z0.127 F60.000
G1 X34.937 Y-4.860 Z0.119 F60.000
G1 X35.028 Y-4.849 Z0.110 F60.000
G1 X35.109 Y-4.891 Z0.100 F60.000
G1 X35.152 Y-4.979 Z0.091 F60.000
G1 X35.135 Y-5.074 Z0.079 F60.000
G1 X35.063 Y-5.140 Z0.069 F60.000
G1 X34.984 Y-5.153 Z0.061 F60.000
G1 X34.910 Y-5.124 Z0.052 F60.000
G1 X34.860 Y-5.063 Z0.044 F60.000
G1 X34.847 Y-4.984 Z0.036 F60.000
G1 X34.876 Y-4.910 Z0.027 F60.000
G1 X34.937 Y-4.860 Z0.019 F60.000
G1 X35.028 Y-4.849 Z0.010 F60.000
G1 X35.109 Y-4.891 Z0.000 F60.000
G1 X35.152 Y-4.979 Z-0.009 F60.000
G1 X35.135 Y-5.074 Z-0.021 F60.000
G1 X35.063 Y-5.140 Z-0.031 F60.000
G1 X34.984 Y-5.153 Z-0.039 F60.000
G1 X34.910 Y-5.124 Z-0.048 F60.000
G1 X34.860 Y-5.063 Z-0.056 F60.000
G1 X34.847 Y-4.984 Z-0.064 F60.000
G1 X34.876 Y-4.910 Z-0.073 F60.000
G1 X34.937 Y-4.860 Z-0.081 F60.000
G1 X35.028 Y-4.849 Z-0.090 F60.000
G1 X35.109 Y-4.891 Z-0.100 F60.000
G1 X35.152 Y-4.979 Z-0.109 F60.000
G1 X35.135 Y-5.074 Z-0.121 F60.000
G1 X35.063 Y-5.140 Z-0.131 F60.000
G1 X34.984 Y-5.153 Z-0.139 F60.000
G1 X34.910 Y-5.124 Z-0.148 F60.000
G1 X34.860 Y-5.063 Z-0.156 F60.000
G1 X34.847 Y-4.984 Z-0.164 F60.000
G1 X34.876 Y-4.910 Z-0.173 F60.000
G1 X34.937 Y-4.860 Z-0.181 F60.000
G1 X35.028 Y-4.849 Z-0.190 F60.000
G1 X35.109 Y-4.891 Z-0.200 F60.000
G1 X35.152 Y-4.979 Z-0.209 F60.000
G1 X35.135 Y-5.074 Z-0.221 F60.000
G1 X35.063 Y-5.140 Z-0.231 F60.000
G1 X34.984 Y-5.153 Z-0.239 F60.000
G1 X34.910 Y-5.124 Z-0.248 F60.000
G1 X34.860 Y-5.063 Z-0.256 F60.000
G1 X34.847 Y-4.984 Z-0.264 F60.000
G1 X34.876 Y-4.910 Z-0.273 F60.000
G1 X34.937 Y-4.860 Z-0.281 F60.000
G1 X35.028 Y-4.849 Z-0.290 F60.000
G1 X35.109 Y-4.891 Z-0.300 F60.000
G1 X35.152 Y-4.979 Z-0.309 F60.000
G1 X35.135 Y-5.074 Z-0.321 F60.000
G1 X35.063 Y-5.140 Z-0.331 F60.000
G1 X34.984 Y-5.153 Z-0.339 F60.000
G1 X34.910 Y-5.124 Z-0.348 F60.000
G1 X34.860 Y-5.063 Z-0.356 F60.000
G1 X34.847 Y-4.984 Z-0.364 F60.000
G1 X34.876 Y-4.910 Z-0.373 F60.000
G1 X34.937 Y-4.860 Z-0.381 F60.000
G1 X35.028 Y-4.849 Z-0.390 F60.000
G1 X35.109 Y-4.891 Z-0.400 F60.000
G1 X35.152 Y-4.979 Z-0.409 F60.000
G1 X35.135 Y-5.074 Z-0.421 F60.000
G1 X35.063 Y-5.140 Z-0.431 F60.000
G1 X34.984 Y-5.153 Z-0.439 F60.000
G1 X34.910 Y-5.124 Z-0.448 F60.000
G1 X34.860 Y-5.063 Z-0.456 F60.000
G1 X34.847 Y-4.984 Z-0.464 F60.000
G1 X34.876 Y-4.910 Z-0.473 F60.000
G1 X34.937 Y-4.860 Z-0.481 F60.000
G1 X35.028 Y-4.849 Z-0.490 F60.000
G1 X35.109 Y-4.891 Z-0.500 F60.000
G1 X35.152 Y-4.979 Z-0.509 F60.000
G1 X35.135 Y-5.074 Z-0.521 F60.000
G1 X35.063 Y-5.140 Z-0.531 F60.000
G1 X34.984 Y-5.153 Z-0.539 F60.000
G1 X34.910 Y-5.124 Z-0.548 F60.000
G1 X34.860 Y-5.063 Z-0.556 F60.000
G1 X34.847 Y-4.984 Z-0.564 F60.000
G1 X34.876 Y-4.910 Z-0.573 F60.000
G1 X34.937 Y-4.860 Z-0.581 F60.000
G1 X35.028 Y-4.849 Z-0.590 F60.000
G1 X35.109 Y-4.891 Z-0.600 F60.000
G1 X35.152 Y-4.979 Z-0.609 F60.000
G1 X35.135 Y-5.074 Z-0.621 F60.000
G1 X35.063 Y-5.140 Z-0.631 F60.000
G1 X34.984 Y-5.153 Z-0.639 F60.000
G1 X34.910 Y-5.124 Z-0.648 F60.000
G1 X34.860 Y-5.063 Z-0.656 F60.000
G1 X34.847 Y-4.984 Z-0.664 F60.000
G1 X34.876 Y-4.910 Z-0.673 F60.000
G1 X34.937 Y-4.860 Z-0.681 F60.000
G1 X35.028 Y-4.849 Z-0.690 F60.000
G1 X35.109 Y-4.891 Z-0.700 F60.000
G1 X35.152 Y-4.979 Z-0.709 F60.000
G1 X35.135 Y-5.074 Z-0.721 F60.000
G1 X35.063 Y-5.140 Z-0.731 F60.000
G1 X34.984 Y-5.153 Z-0.739 F60.000
G1 X34.910 Y-5.124 Z-0.748 F60.000
G1 X34.860 Y-5.063 Z-0.756 F60.000
G1 X34.847 Y-4.984 Z-0.764 F60.000
G1 X34.876 Y-4.910 Z-0.773 F60.000
G1 X34.937 Y-4.860 Z-0.781 F60.000
G1 X35.028 Y-4.849 Z-0.790 F60.000
G1 X35.109 Y-4.891 Z-0.800 F60.000
G1 X35.152 Y-4.979 Z-0.809 F60.000
G1 X35.135 Y-5.074 Z-0.821 F60.000
G1 X35.063 Y-5.140 Z-0.831 F60.000
G1 X34.984 Y-5.153 Z-0.839 F60.000
G1 X34.910 Y-5.124 Z-0.848 F60.000
G1 X34.860 Y-5.063 Z-0.856 F60.000
G1 X34.847 Y-4.984 Z-0.864 F60.000
G1 X34.876 Y-4.910 Z-0.873 F60.000
G1 X34.937 Y-4.860 Z-0.881 F60.000
G1 X35.028 Y-4.849 Z-0.890 F60.000
G1 X35.109 Y-4.891 Z-0.900 F60.000
G1 X35.152 Y-4.979 Z-0.909 F60.000
G1 X35.135 Y-5.074 Z-0.921 F60.000
G1 X35.063 Y-5.140 Z-0.931 F60.000
G1 X34.984 Y-5.153 Z-0.939 F60.000
G1 X34.910 Y-5.124 Z-0.948 F60.000
G1 X34.860 Y-5.063 Z-0.956 F60.000
G1 X34.847 Y-4.984 Z-0.964 F60.000
G1 X34.876 Y-4.910 Z-0.973 F60.000
G1 X34.937 Y-4.860 Z-0.981 F60.000
G1 X35.028 Y-4.849 Z-0.990 F60.000
G1 X35.109 Y-4.891 Z-1.000 F60.000
G1 X35.152 Y-4.979 Z-1.009 F60.000
G1 X35.135 Y-5.074 Z-1.021 F60.000
G1 X35.063 Y-5.140 Z-1.031 F60.000
G1 X34.984 Y-5.153 Z-1.039 F60.000
G1 X34.910 Y-5.124 Z-1.048 F60.000
G1 X34.860 Y-5.063 Z-1.056 F60.000
G1 X34.847 Y-4.984 Z-1.064 F60.000
G1 X34.876 Y-4.910 Z-1.073 F60.000
G1 X34.937 Y-4.860 Z-1.081 F60.000
G1 X35.028 Y-4.849 Z-1.090 F60.000
G1 X35.109 Y-4.891 Z-1.100 F60.000
G1 X35.152 Y-4.979 Z-1.109 F60.000
G1 X35.135 Y-5.074 Z-1.121 F60.000
G1 X35.063 Y-5.140 Z-1.131 F60.000
G1 X34.984 Y-5.153 Z-1.139 F60.000
G1 X34.910 Y-5.124 Z-1.148 F60.000
G1 X34.860 Y-5.063 Z-1.156 F60.000
G1 X34.847 Y-4.984 Z-1.164 F60.000
G1 X34.876 Y-4.910 Z-1.173 F60.000
G1 X34.937 Y-4.860 Z-1.181 F60.000
G1 X35.028 Y-4.849 Z-1.190 F60.000
G1 X35.109 Y-4.891 Z-1.200 F60.000
G1 X35.152 Y-4.979 Z-1.209 F60.000
G1 X35.135 Y-5.074 Z-1.221 F60.000
G1 X35.063 Y-5.140 Z-1.231 F60.000
G1 X34.984 Y-5.153 Z-1.239 F60.000
G1 X34.910 Y-5.124 Z-1.248 F60.000
G1 X34.860 Y-5.063 Z-1.256 F60.000
G1 X34.847 Y-4.984 Z-1.264 F60.000
G1 X34.876 Y-4.910 Z-1.273 F60.000
G1 X34.937 Y-4.860 Z-1.281 F60.000
G1 X35.028 Y-4.849 Z-1.290 F60.000
G1 X35.109 Y-4.891 Z-1.300 F60.000
G1 X35.152 Y-4.979 Z-1.309 F60.000
G1 X35.135 Y-5.074 Z-1.321 F60.000
G1 X35.063 Y-5.140 Z-1.331 F60.000
G1 X34.984 Y-5.153 Z-1.339 F60.000
G1 X34.910 Y-5.124 Z-1.348 F60.000
G1 X34.860 Y-5.063 Z-1.356 F60.000
G1 X34.847 Y-4.984 Z-1.364 F60.000
G1 X34.876 Y-4.910 Z-1.373 F60.000
G1 X34.937 Y-4.860 Z-1.381 F60.000
G1 X35.028 Y-4.849 Z-1.390 F60.000
G1 X35.109 Y-4.891 Z-1.400 F60.000
G1 X35.152 Y-4.979 Z-1.409 F60.000
G1 X35.135 Y-5.074 Z-1.421 F60.000
G1 X35.063 Y-5.140 Z-1.431 F60.000
G1 X34.984 Y-5.153 Z-1.439 F60.000
G1 X34.910 Y-5.124 Z-1.448 F60.000
G1 X34.860 Y-5.063 Z-1.456 F60.000
G1 X34.847 Y-4.984 Z-1.464 F60.000
G1 X34.876 Y-4.910 Z-1.473 F60.000
G1 X34.937 Y-4.860 Z-1.481 F60.000
G1 X35.028 Y-4.849 Z-1.490 F60.000
G1 X35.109 Y-4.891 Z-1.500 F60.000
G1 X35.152 Y-4.979 Z-1.509 F60.000
G1 X35.135 Y-5.074 Z-1.521 F60.000
G1 X35.063 Y-5.140 Z-1.531 F60.000
G1 X34.984 Y-5.153 Z-1.539 F60.000
G1 X34.910 Y-5.124 Z-1.548 F60.000
G1 X34.860 Y-5.063 Z-1.556 F60.000
G1 X34.847 Y-4.984 Z-1.564 F60.000
G1 X34.876 Y-4.910 Z-1.573 F60.000
G1 X34.937 Y-4.860 Z-1.581 F60.000
G1 X35.028 Y-4.849 Z-1.590 F60.000
G1 X35.109 Y-4.891 Z-1.600 F60.000
G1 X35.152 Y-4.979 Z-1.609 F60.000
G1 X35.135 Y-5.074 Z-1.621 F60.000
G1 X35.063 Y-5.140 Z-1.631 F60.000
G1 X34.984 Y-5.153 Z-1.639 F60.000
G1 X34.910 Y-5.124 Z-1.648 F60.000
G1 X34.860 Y-5.063 Z-1.656 F60.000
G1 X34.847 Y-4.984 Z-1.664 F60.000
G1 X34.876 Y-4.910 Z-1.673 F60.000
G1 X34.937 Y-4.860 Z-1.681 F60.000
G1 X35.028 Y-4.849 Z-1.690 F60.000
G1 X35.109 Y-4.891 Z-1.700 F60.000
G1 X35.152 Y-4.979 Z-1.709 F60.000
G1 X35.135 Y-5.074 Z-1.721 F60.000
G1 X35.063 Y-5.140 Z-1.731 F60.000
G1 X34.984 Y-5.153 Z-1.739 F60.000
G1 X34.910 Y-5.124 Z-1.748 F60.000
G1 X34.860 Y-5.063 Z-1.756 F60.000
G1 X34.847 Y-4.984 Z-1.764 F60.000
G1 X34.876 Y-4.910 Z-1.773 F60.000
G1 X34.937 Y-4.860 Z-1.781 F60.000
G1 X35.028 Y-4.849 Z-1.790 F60.000
G1 X35.109 Y-4.891 Z-1.800 F60.000
G1 X35.152 Y-4.979 Z-1.809 F60.000
G1 X35.135 Y-5.074 Z-1.821 F60.000
G1 X35.063 Y-5.140 Z-1.831 F60.000
G1 X34.984 Y-5.153 Z-1.839 F60.000
G1 X34.910 Y-5.124 Z-1.848 F60.000
G1 X34.860 Y-5.063 Z-1.856 F60.000
G1 X34.847 Y-4.984 Z-1.864 F60.000
G1 X34.876 Y-4.910 Z-1.873 F60.000
G1 X34.937 Y-4.860 Z-1.881 F60.000
G1 X35.028 Y-4.849 Z-1.890 F60.000
G1 X35.109 Y-4.891 Z-1.900 F60.000
G1 X35.152 Y-4.979 Z-1.909 F60.000
G1 X35.135 Y-5.074 Z-1.921 F60.000
G1 X35.063 Y-5.140 Z-1.931 F60.000
G1 X34.984 Y-5.153 Z-1.939 F60.000
G1 X34.910 Y-5.124 Z-1.948 F60.000
G1 X34.860 Y-5.063 Z-1.956 F60.000
G1 X34.847 Y-4.984 Z-1.964 F60.000
G1 X34.876 Y-4.910 Z-1.973 F60.000
G1 X34.937 Y-4.860 Z-1.981 F60.000
G1 X35.028 Y-4.849 Z-1.990 F60.000
G1 X35.109 Y-4.891 Z-2.000 F60.000
G1 X35.152 Y-4.979 Z-2.009 F60.000
G1 X35.135 Y-5.074 Z-2.021 F60.000
G1 X35.063 Y-5.140 Z-2.031 F60.000
G1 X34.984 Y-5.153 Z-2.039 F60.000
G1 X34.910 Y-5.124 Z-2.048 F60.000
G1 X34.860 Y-5.063 Z-2.056 F60.000
G1 X34.847 Y-4.984 Z-2.064 F60.000
G1 X34.876 Y-4.910 Z-2.073 F60.000
G1 X34.937 Y-4.860 Z-2.081 F60.000
G1 X35.028 Y-4.849 Z-2.090 F60.000
G1 X35.109 Y-4.891 Z-2.100 F60.000
G1 X35.152 Y-4.979 Z-2.109 F60.000
G1 X35.135 Y-5.074 Z-2.121 F60.000
G1 X35.063 Y-5.140 Z-2.131 F60.000
G1 X34.984 Y-5.153 Z-2.139 F60.000
G1 X34.910 Y-5.124 Z-2.148 F60.000
G1 X34.860 Y-5.063 Z-2.156 F60.000
G1 X34.847 Y-4.984 Z-2.164 F60.000
G1 X34.876 Y-4.910 Z-2.173 F60.000
G1 X34.937 Y-4.860 Z-2.181 F60.000
G1 X35.028 Y-4.849 Z-2.190 F60.000
G1 X35.109 Y-4.891 Z-2.200 F60.000
G2 X35.063 Y-5.140 Z-2.200 I-0.109 J-0.109 K0.000 F60.000
G2 X34.860 Y-5.063 Z-2.200 I-0.063 J0.140 K0.000 F60.000
G2 X34.937 Y-4.860 Z-2.200 I0.140 J0.063 K0.000 F60.000
G2 X35.109 Y-4.891 Z-2.200 I0.063 J-0.140 K0.000 F60.000
G0 X35.109 Y-4.891 Z6.000
(Finish operation: RampEntryDressup045)
(Begin operation: RampEntryDressup046)
(Path: RampEntryDressup046)
G0 X0.000 Y0.000 Z6.000
G0 X35.109 Y-94.891 Z6.000
G0 X35.109 Y-94.891 Z4.000
G1 X35.153 Y-94.986 Z3.679 F60.000
G1 X35.136 Y-95.071 Z3.352 F60.000
G1 X35.059 Y-95.143 Z3.031 F60.000
G1 X34.977 Y-95.152 Z2.774 F60.000
G1 X34.909 Y-95.124 Z2.514 F60.000
G1 X34.857 Y-95.059 Z2.256 F60.000
G1 X34.848 Y-94.977 Z1.999 F60.000
G1 X34.876 Y-94.909 Z1.739 F60.000
G1 X34.941 Y-94.857 Z1.481 F60.000
G1 X35.030 Y-94.848 Z1.191 F60.000
G1 X35.109 Y-94.891 Z0.900 F60.000
G1 X35.153 Y-94.980 Z0.890 F60.000
G1 X35.134 Y-95.077 Z0.878 F60.000
G1 X35.059 Y-95.143 Z0.869 F60.000
G1 X34.980 Y-95.153 Z0.861 F60.000
G1 X34.906 Y-95.123 Z0.852 F60.000
G1 X34.857 Y-95.059 Z0.844 F60.000
G1 X34.847 Y-94.980 Z0.836 F60.000
G1 X34.877 Y-94.906 Z0.827 F60.000
G1 X34.941 Y-94.857 Z0.819 F60.000
G1 X35.030 Y-94.848 Z0.809 F60.000
G1 X35.109 Y-94.891 Z0.800 F60.000
G1 X35.153 Y-94.980 Z0.790 F60.000
G1 X35.134 Y-95.077 Z0.778 F60.000
G1 X35.059 Y-95.143 Z0.769 F60.000
G1 X34.980 Y-95.153 Z0.761 F60.000
G1 X34.906 Y-95.123 Z0.752 F60.000
G1 X34.857 Y-95.059 Z0.744 F60.000
G1 X34.847 Y-94.980 Z0.736 F60.000
G1 X34.877 Y-94.906 Z0.727 F60.000
G1 X34.941 Y-94.857 Z0.719 F60.000
G1 X35.030 Y-94.848 Z0.709 F60.000
G1 X35.109 Y-94.891 Z0.700 F60.000
G1 X35.153 Y-94.980 Z0.690 F60.000
G1 X35.134 Y-95.077 Z0.678 F60.000
G1 X35.059 Y-95.143 Z0.669 F60.000
G1 X34.980 Y-95.153 Z0.661 F60.000
G1 X34.906 Y-95.123 Z0.652 F60.000
G1 X34.857 Y-95.059 Z0.644 F60.000
G1 X34.847 Y-94.980 Z0.636 F60.000
G1 X34.877 Y-94.906 Z0.627 F60.000
G1 X34.941 Y-94.857 Z0.619 F60.000
G1 X35.030 Y-94.848 Z0.609 F60.000
G1 X35.109 Y-94.891 Z0.600 F60.000
G1 X35.153 Y-94.980 Z0.590 F60.000
G1 X35.134 Y-95.077 Z0.578 F60.000
G1 X35.059 Y-95.143 Z0.569 F60.000
G1 X34.980 Y-95.153 Z0.561 F60.000
G1 X34.906 Y-95.123 Z0.552 F60.000
G1 X34.857 Y-95.059 Z0.544 F60.000
G1 X34.847 Y-94.980 Z0.536 F60.000
G1 X34.877 Y-94.906 Z0.527 F60.000
G1 X34.941 Y-94.857 Z0.519 F60.000
G1 X35.030 Y-94.848 Z0.509 F60.000
G1 X35.109 Y-94.891 Z0.500 F60.000
G1 X35.153 Y-94.980 Z0.490 F60.000
G1 X35.134 Y-95.077 Z0.478 F60.000
G1 X35.059 Y-95.143 Z0.469 F60.000
G1 X34.980 Y-95.153 Z0.461 F60.000
G1 X34.906 Y-95.123 Z0.452 F60.000
G1 X34.857 Y-95.059 Z0.444 F60.000
G1 X34.847 Y-94.980 Z0.436 F60.000
G1 X34.877 Y-94.906 Z0.427 F60.000
G1 X34.941 Y-94.857 Z0.419 F60.000
G1 X35.030 Y-94.848 Z0.409 F60.000
G1 X35.109 Y-94.891 Z0.400 F60.000
G1 X35.153 Y-94.980 Z0.390 F60.000
G1 X35.134 Y-95.077 Z0.378 F60.000
G1 X35.059 Y-95.143 Z0.369 F60.000
G1 X34.980 Y-95.153 Z0.361 F60.000
G1 X34.906 Y-95.123 Z0.352 F60.000
G1 X34.857 Y-95.059 Z0.344 F60.000
G1 X34.847 Y-94.980 Z0.336 F60.000
G1 X34.877 Y-94.906 Z0.327 F60.000
G1 X34.941 Y-94.857 Z0.319 F60.000
G1 X35.030 Y-94.848 Z0.309 F60.000
G1 X35.109 Y-94.891 Z0.300 F60.000
G1 X35.153 Y-94.980 Z0.290 F60.000
G1 X35.134 Y-95.077 Z0.278 F60.000
G1 X35.059 Y-95.143 Z0.269 F60.000
G1 X34.980 Y-95.153 Z0.261 F60.000
G1 X34.906 Y-95.123 Z0.252 F60.000
G1 X34.857 Y-95.059 Z0.244 F60.000
G1 X34.847 Y-94.980 Z0.236 F60.000
G1 X34.877 Y-94.906 Z0.227 F60.000
G1 X34.941 Y-94.857 Z0.219 F60.000
G1 X35.030 Y-94.848 Z0.209 F60.000
G1 X35.109 Y-94.891 Z0.200 F60.000
G1 X35.153 Y-94.980 Z0.190 F60.000
G1 X35.134 Y-95.077 Z0.178 F60.000
G1 X35.059 Y-95.143 Z0.169 F60.000
G1 X34.980 Y-95.153 Z0.161 F60.000
G1 X34.906 Y-95.123 Z0.152 F60.000
G1 X34.857 Y-95.059 Z0.144 F60.000
G1 X34.847 Y-94.980 Z0.136 F60.000
G1 X34.877 Y-94.906 Z0.127 F60.000
G1 X34.941 Y-94.857 Z0.119 F60.000
G1 X35.030 Y-94.848 Z0.109 F60.000
G1 X35.109 Y-94.891 Z0.100 F60.000
G1 X35.153 Y-94.980 Z0.090 F60.000
G1 X35.134 Y-95.077 Z0.078 F60.000
G1 X35.059 Y-95.143 Z0.069 F60.000
G1 X34.980 Y-95.153 Z0.061 F60.000
G1 X34.906 Y-95.123 Z0.052 F60.000
G1 X34.857 Y-95.059 Z0.044 F60.000
G1 X34.847 Y-94.980 Z0.036 F60.000
G1 X34.877 Y-94.906 Z0.027 F60.000
G1 X34.941 Y-94.857 Z0.019 F60.000
G1 X35.030 Y-94.848 Z0.009 F60.000
G1 X35.109 Y-94.891 Z0.000 F60.000
G1 X35.153 Y-94.980 Z-0.010 F60.000
G1 X35.134 Y-95.077 Z-0.022 F60.000
G1 X35.059 Y-95.143 Z-0.031 F60.000
G1 X34.980 Y-95.153 Z-0.039 F60.000
G1 X34.906 Y-95.123 Z-0.048 F60.000
G1 X34.857 Y-95.059 Z-0.056 F60.000
G1 X34.847 Y-94.980 Z-0.064 F60.000
G1 X34.877 Y-94.906 Z-0.073 F60.000
G1 X34.941 Y-94.857 Z-0.081 F60.000
G1 X35.030 Y-94.848 Z-0.091 F60.000
G1 X35.109 Y-94.891 Z-0.100 F60.000
G1 X35.153 Y-94.980 Z-0.110 F60.000
G1 X35.134 Y-95.077 Z-0.122 F60.000
G1 X35.059 Y-95.143 Z-0.131 F60.000
G1 X34.980 Y-95.153 Z-0.139 F60.000
G1 X34.906 Y-95.123 Z-0.148 F60.000
G1 X34.857 Y-95.059 Z-0.156 F60.000
G1 X34.847 Y-94.980 Z-0.164 F60.000
G1 X34.877 Y-94.906 Z-0.173 F60.000
G1 X34.941 Y-94.857 Z-0.181 F60.000
G1 X35.030 Y-94.848 Z-0.191 F60.000
G1 X35.109 Y-94.891 Z-0.200 F60.000
G1 X35.153 Y-94.980 Z-0.210 F60.000
G1 X35.134 Y-95.077 Z-0.222 F60.000
G1 X35.059 Y-95.143 Z-0.231 F60.000
G1 X34.980 Y-95.153 Z-0.239 F60.000
G1 X34.906 Y-95.123 Z-0.248 F60.000
G1 X34.857 Y-95.059 Z-0.256 F60.000
G1 X34.847 Y-94.980 Z-0.264 F60.000
G1 X34.877 Y-94.906 Z-0.273 F60.000
G1 X34.941 Y-94.857 Z-0.281 F60.000
G1 X35.030 Y-94.848 Z-0.291 F60.000
G1 X35.109 Y-94.891 Z-0.300 F60.000
G1 X35.153 Y-94.980 Z-0.310 F60.000
G1 X35.134 Y-95.077 Z-0.322 F60.000
G1 X35.059 Y-95.143 Z-0.331 F60.000
G1 X34.980 Y-95.153 Z-0.339 F60.000
G1 X34.906 Y-95.123 Z-0.348 F60.000
G1 X34.857 Y-95.059 Z-0.356 F60.000
G1 X34.847 Y-94.980 Z-0.364 F60.000
G1 X34.877 Y-94.906 Z-0.373 F60.000
G1 X34.941 Y-94.857 Z-0.381 F60.000
G1 X35.030 Y-94.848 Z-0.391 F60.000
G1 X35.109 Y-94.891 Z-0.400 F60.000
G1 X35.153 Y-94.980 Z-0.410 F60.000
G1 X35.134 Y-95.077 Z-0.422 F60.000
G1 X35.059 Y-95.143 Z-0.431 F60.000
G1 X34.980 Y-95.153 Z-0.439 F60.000
G1 X34.906 Y-95.123 Z-0.448 F60.000
G1 X34.857 Y-95.059 Z-0.456 F60.000
G1 X34.847 Y-94.980 Z-0.464 F60.000
G1 X34.877 Y-94.906 Z-0.473 F60.000
G1 X34.941 Y-94.857 Z-0.481 F60.000
G1 X35.030 Y-94.848 Z-0.491 F60.000
G1 X35.109 Y-94.891 Z-0.500 F60.000
G1 X35.153 Y-94.980 Z-0.510 F60.000
G1 X35.134 Y-95.077 Z-0.522 F60.000
G1 X35.059 Y-95.143 Z-0.531 F60.000
G1 X34.980 Y-95.153 Z-0.539 F60.000
G1 X34.906 Y-95.123 Z-0.548 F60.000
G1 X34.857 Y-95.059 Z-0.556 F60.000
G1 X34.847 Y-94.980 Z-0.564 F60.000
G1 X34.877 Y-94.906 Z-0.573 F60.000
G1 X34.941 Y-94.857 Z-0.581 F60.000
G1 X35.030 Y-94.848 Z-0.591 F60.000
G1 X35.109 Y-94.891 Z-0.600 F60.000
G1 X35.153 Y-94.980 Z-0.610 F60.000
G1 X35.134 Y-95.077 Z-0.622 F60.000
G1 X35.059 Y-95.143 Z-0.631 F60.000
G1 X34.980 Y-95.153 Z-0.639 F60.000
G1 X34.906 Y-95.123 Z-0.648 F60.000
G1 X34.857 Y-95.059 Z-0.656 F60.000
G1 X34.847 Y-94.980 Z-0.664 F60.000
G1 X34.877 Y-94.906 Z-0.673 F60.000
G1 X34.941 Y-94.857 Z-0.681 F60.000
G1 X35.030 Y-94.848 Z-0.691 F60.000
G1 X35.109 Y-94.891 Z-0.700 F60.000
G1 X35.153 Y-94.980 Z-0.710 F60.000
G1 X35.134 Y-95.077 Z-0.722 F60.000
G1 X35.059 Y-95.143 Z-0.731 F60.000
G1 X34.980 Y-95.153 Z-0.739 F60.000
G1 X34.906 Y-95.123 Z-0.748 F60.000
G1 X34.857 Y-95.059 Z-0.756 F60.000
G1 X34.847 Y-94.980 Z-0.764 F60.000
G1 X34.877 Y-94.906 Z-0.773 F60.000
G1 X34.941 Y-94.857 Z-0.781 F60.000
G1 X35.030 Y-94.848 Z-0.791 F60.000
G1 X35.109 Y-94.891 Z-0.800 F60.000
G1 X35.153 Y-94.980 Z-0.810 F60.000
G1 X35.134 Y-95.077 Z-0.822 F60.000
G1 X35.059 Y-95.143 Z-0.831 F60.000
G1 X34.980 Y-95.153 Z-0.839 F60.000
G1 X34.906 Y-95.123 Z-0.848 F60.000
G1 X34.857 Y-95.059 Z-0.856 F60.000
G1 X34.847 Y-94.980 Z-0.864 F60.000
G1 X34.877 Y-94.906 Z-0.873 F60.000
G1 X34.941 Y-94.857 Z-0.881 F60.000
G1 X35.030 Y-94.848 Z-0.891 F60.000
G1 X35.109 Y-94.891 Z-0.900 F60.000
G1 X35.153 Y-94.980 Z-0.910 F60.000
G1 X35.134 Y-95.077 Z-0.922 F60.000
G1 X35.059 Y-95.143 Z-0.931 F60.000
G1 X34.980 Y-95.153 Z-0.939 F60.000
G1 X34.906 Y-95.123 Z-0.948 F60.000
G1 X34.857 Y-95.059 Z-0.956 F60.000
G1 X34.847 Y-94.980 Z-0.964 F60.000
G1 X34.877 Y-94.906 Z-0.973 F60.000
G1 X34.941 Y-94.857 Z-0.981 F60.000
G1 X35.030 Y-94.848 Z-0.991 F60.000
G1 X35.109 Y-94.891 Z-1.000 F60.000
G1 X35.153 Y-94.980 Z-1.010 F60.000
G1 X35.134 Y-95.077 Z-1.022 F60.000
G1 X35.059 Y-95.143 Z-1.031 F60.000
G1 X34.980 Y-95.153 Z-1.039 F60.000
G1 X34.906 Y-95.123 Z-1.048 F60.000
G1 X34.857 Y-95.059 Z-1.056 F60.000
G1 X34.847 Y-94.980 Z-1.064 F60.000
G1 X34.877 Y-94.906 Z-1.073 F60.000
G1 X34.941 Y-94.857 Z-1.081 F60.000
G1 X35.030 Y-94.848 Z-1.091 F60.000
G1 X35.109 Y-94.891 Z-1.100 F60.000
G1 X35.153 Y-94.980 Z-1.110 F60.000
G1 X35.134 Y-95.077 Z-1.122 F60.000
G1 X35.059 Y-95.143 Z-1.131 F60.000
G1 X34.980 Y-95.153 Z-1.139 F60.000
G1 X34.906 Y-95.123 Z-1.148 F60.000
G1 X34.857 Y-95.059 Z-1.156 F60.000
G1 X34.847 Y-94.980 Z-1.164 F60.000
G1 X34.877 Y-94.906 Z-1.173 F60.000
G1 X34.941 Y-94.857 Z-1.181 F60.000
G1 X35.030 Y-94.848 Z-1.191 F60.000
G1 X35.109 Y-94.891 Z-1.200 F60.000
G1 X35.153 Y-94.980 Z-1.210 F60.000
G1 X35.134 Y-95.077 Z-1.222 F60.000
G1 X35.059 Y-95.143 Z-1.231 F60.000
G1 X34.980 Y-95.153 Z-1.239 F60.000
G1 X34.906 Y-95.123 Z-1.248 F60.000
G1 X34.857 Y-95.059 Z-1.256 F60.000
G1 X34.847 Y-94.980 Z-1.264 F60.000
G1 X34.877 Y-94.906 Z-1.273 F60.000
G1 X34.941 Y-94.857 Z-1.281 F60.000
G1 X35.030 Y-94.848 Z-1.291 F60.000
G1 X35.109 Y-94.891 Z-1.300 F60.000
G1 X35.153 Y-94.980 Z-1.310 F60.000
G1 X35.134 Y-95.077 Z-1.322 F60.000
G1 X35.059 Y-95.143 Z-1.331 F60.000
G1 X34.980 Y-95.153 Z-1.339 F60.000
G1 X34.906 Y-95.123 Z-1.348 F60.000
G1 X34.857 Y-95.059 Z-1.356 F60.000
G1 X34.847 Y-94.980 Z-1.364 F60.000
G1 X34.877 Y-94.906 Z-1.373 F60.000
G1 X34.941 Y-94.857 Z-1.381 F60.000
G1 X35.030 Y-94.848 Z-1.391 F60.000
G1 X35.109 Y-94.891 Z-1.400 F60.000
G1 X35.153 Y-94.980 Z-1.410 F60.000
G1 X35.134 Y-95.077 Z-1.422 F60.000
G1 X35.059 Y-95.143 Z-1.431 F60.000
G1 X34.980 Y-95.153 Z-1.439 F60.000
G1 X34.906 Y-95.123 Z-1.448 F60.000
G1 X34.857 Y-95.059 Z-1.456 F60.000
G1 X34.847 Y-94.980 Z-1.464 F60.000
G1 X34.877 Y-94.906 Z-1.473 F60.000
G1 X34.941 Y-94.857 Z-1.481 F60.000
G1 X35.030 Y-94.848 Z-1.491 F60.000
G1 X35.109 Y-94.891 Z-1.500 F60.000
G1 X35.153 Y-94.980 Z-1.510 F60.000
G1 X35.134 Y-95.077 Z-1.522 F60.000
G1 X35.059 Y-95.143 Z-1.531 F60.000
G1 X34.980 Y-95.153 Z-1.539 F60.000
G1 X34.906 Y-95.123 Z-1.548 F60.000
G1 X34.857 Y-95.059 Z-1.556 F60.000
G1 X34.847 Y-94.980 Z-1.564 F60.000
G1 X34.877 Y-94.906 Z-1.573 F60.000
G1 X34.941 Y-94.857 Z-1.581 F60.000
G1 X35.030 Y-94.848 Z-1.591 F60.000
G1 X35.109 Y-94.891 Z-1.600 F60.000
G1 X35.153 Y-94.980 Z-1.610 F60.000
G1 X35.134 Y-95.077 Z-1.622 F60.000
G1 X35.059 Y-95.143 Z-1.631 F60.000
G1 X34.980 Y-95.153 Z-1.639 F60.000
G1 X34.906 Y-95.123 Z-1.648 F60.000
G1 X34.857 Y-95.059 Z-1.656 F60.000
G1 X34.847 Y-94.980 Z-1.664 F60.000
G1 X34.877 Y-94.906 Z-1.673 F60.000
G1 X34.941 Y-94.857 Z-1.681 F60.000
G1 X35.030 Y-94.848 Z-1.691 F60.000
G1 X35.109 Y-94.891 Z-1.700 F60.000
G1 X35.153 Y-94.980 Z-1.710 F60.000
G1 X35.134 Y-95.077 Z-1.722 F60.000
G1 X35.059 Y-95.143 Z-1.731 F60.000
G1 X34.980 Y-95.153 Z-1.739 F60.000
G1 X34.906 Y-95.123 Z-1.748 F60.000
G1 X34.857 Y-95.059 Z-1.756 F60.000
G1 X34.847 Y-94.980 Z-1.764 F60.000
G1 X34.877 Y-94.906 Z-1.773 F60.000
G1 X34.941 Y-94.857 Z-1.781 F60.000
G1 X35.030 Y-94.848 Z-1.791 F60.000
G1 X35.109 Y-94.891 Z-1.800 F60.000
G1 X35.153 Y-94.980 Z-1.810 F60.000
G1 X35.134 Y-95.077 Z-1.822 F60.000
G1 X35.059 Y-95.143 Z-1.831 F60.000
G1 X34.980 Y-95.153 Z-1.839 F60.000
G1 X34.906 Y-95.123 Z-1.848 F60.000
G1 X34.857 Y-95.059 Z-1.856 F60.000
G1 X34.847 Y-94.980 Z-1.864 F60.000
G1 X34.877 Y-94.906 Z-1.873 F60.000
G1 X34.941 Y-94.857 Z-1.881 F60.000
G1 X35.030 Y-94.848 Z-1.891 F60.000
G1 X35.109 Y-94.891 Z-1.900 F60.000
G1 X35.153 Y-94.980 Z-1.910 F60.000
G1 X35.134 Y-95.077 Z-1.922 F60.000
G1 X35.059 Y-95.143 Z-1.931 F60.000
G1 X34.980 Y-95.153 Z-1.939 F60.000
G1 X34.906 Y-95.123 Z-1.948 F60.000
G1 X34.857 Y-95.059 Z-1.956 F60.000
G1 X34.847 Y-94.980 Z-1.964 F60.000
G1 X34.877 Y-94.906 Z-1.973 F60.000
G1 X34.941 Y-94.857 Z-1.981 F60.000
G1 X35.030 Y-94.848 Z-1.991 F60.000
G1 X35.109 Y-94.891 Z-2.000 F60.000
G1 X35.153 Y-94.980 Z-2.010 F60.000
G1 X35.134 Y-95.077 Z-2.022 F60.000
G1 X35.059 Y-95.143 Z-2.031 F60.000
G1 X34.980 Y-95.153 Z-2.039 F60.000
G1 X34.906 Y-95.123 Z-2.048 F60.000
G1 X34.857 Y-95.059 Z-2.056 F60.000
G1 X34.847 Y-94.980 Z-2.064 F60.000
G1 X34.877 Y-94.906 Z-2.073 F60.000
G1 X34.941 Y-94.857 Z-2.081 F60.000
G1 X35.030 Y-94.848 Z-2.091 F60.000
G1 X35.109 Y-94.891 Z-2.100 F60.000
G1 X35.153 Y-94.980 Z-2.110 F60.000
G1 X35.134 Y-95.077 Z-2.122 F60.000
G1 X35.059 Y-95.143 Z-2.131 F60.000
G1 X34.980 Y-95.153 Z-2.139 F60.000
G1 X34.906 Y-95.123 Z-2.148 F60.000
G1 X34.857 Y-95.059 Z-2.156 F60.000
G1 X34.847 Y-94.980 Z-2.164 F60.000
G1 X34.877 Y-94.906 Z-2.173 F60.000
G1 X34.941 Y-94.857 Z-2.181 F60.000
G1 X35.030 Y-94.848 Z-2.191 F60.000
G1 X35.109 Y-94.891 Z-2.200 F60.000
G2 X35.059 Y-95.143 Z-2.200 I-0.109 J-0.109 K0.000 F60.000
G2 X34.857 Y-95.059 Z-2.200 I-0.059 J0.143 K0.000 F60.000
G2 X34.941 Y-94.857 Z-2.200 I0.143 J0.059 K0.000 F60.000
G2 X35.109 Y-94.891 Z-2.200 I0.059 J-0.143 K0.000 F60.000
G0 X35.109 Y-94.891 Z6.000
(Finish operation: RampEntryDressup046)
(Begin operation: RampEntryDressup047)
(Path: RampEntryDressup047)
G0 X0.000 Y0.000 Z6.000
G0 X5.109 Y-94.892 Z6.000
G0 X5.109 Y-94.892 Z4.000
G1 X5.146 Y-94.952 Z3.770 F60.000
G1 X5.154 Y-94.989 Z3.651 F60.000
G1 X5.099 Y-95.104 Z3.297 F60.000
G1 X5.028 Y-95.152 Z2.930 F60.000
G1 X4.945 Y-95.133 Z2.564 F60.000
G1 X4.852 Y-95.046 Z2.210 F60.000
G1 X4.870 Y-94.933 Z1.887 F60.000
G1 X4.920 Y-94.868 Z1.555 F60.000
G1 X5.001 Y-94.855 Z1.223 F60.000
G1 X5.109 Y-94.892 Z0.900 F60.000
G1 X5.146 Y-94.952 Z0.893 F60.000
G1 X5.154 Y-94.989 Z0.889 F60.000
G1 X5.134 Y-95.076 Z0.883 F60.000
G1 X5.071 Y-95.138 Z0.872 F60.000
G1 X4.984 Y-95.154 Z0.859 F60.000
G1 X4.902 Y-95.120 Z0.848 F60.000
G1 X4.852 Y-95.046 Z0.842 F60.000
G1 X4.856 Y-94.945 Z0.834 F60.000
G1 X4.920 Y-94.868 Z0.821 F60.000
G1 X5.018 Y-94.848 Z0.808 F60.000
G1 X5.109 Y-94.892 Z0.800 F60.000
G1 X5.146 Y-94.952 Z0.793 F60.000
G1 X5.154 Y-94.989 Z0.789 F60.000
G1 X5.134 Y-95.076 Z0.783 F60.000
G1 X5.071 Y-95.138 Z0.772 F60.000
G1 X4.984 Y-95.154 Z0.759 F60.000
G1 X4.902 Y-95.120 Z0.748 F60.000
G1 X4.852 Y-95.046 Z0.742 F60.000
G1 X4.856 Y-94.945 Z0.734 F60.000
G1 X4.920 Y-94.868 Z0.721 F60.000
G1 X5.018 Y-94.848 Z0.708 F60.000
G1 X5.109 Y-94.892 Z0.700 F60.000
G1 X5.146 Y-94.952 Z0.693 F60.000
G1 X5.154 Y-94.989 Z0.689 F60.000
G1 X5.134 Y-95.076 Z0.683 F60.000
G1 X5.071 Y-95.138 Z0.672 F60.000
G1 X4.984 Y-95.154 Z0.659 F60.000
G1 X4.902 Y-95.120 Z0.648 F60.000
G1 X4.852 Y-95.046 Z0.642 F60.000
G1 X4.856 Y-94.945 Z0.634 F60.000
G1 X4.920 Y-94.868 Z0.621 F60.000
G1 X5.018 Y-94.848 Z0.608 F60.000
G1 X5.109 Y-94.892 Z0.600 F60.000
G1 X5.146 Y-94.952 Z0.593 F60.000
G1 X5.154 Y-94.989 Z0.589 F60.000
G1 X5.134 Y-95.076 Z0.583 F60.000
G1 X5.071 Y-95.138 Z0.572 F60.000
G1 X4.984 Y-95.154 Z0.559 F60.000
G1 X4.902 Y-95.120 Z0.548 F60.000
G1 X4.852 Y-95.046 Z0.542 F60.000
G1 X4.856 Y-94.945 Z0.534 F60.000
G1 X4.920 Y-94.868 Z0.521 F60.000
G1 X5.018 Y-94.848 Z0.508 F60.000
G1 X5.109 Y-94.892 Z0.500 F60.000
G1 X5.146 Y-94.952 Z0.493 F60.000
G1 X5.154 Y-94.989 Z0.489 F60.000
G1 X5.134 Y-95.076 Z0.483 F60.000
G1 X5.071 Y-95.138 Z0.472 F60.000
G1 X4.984 Y-95.154 Z0.459 F60.000
G1 X4.902 Y-95.120 Z0.448 F60.000
G1 X4.852 Y-95.046 Z0.442 F60.000
G1 X4.856 Y-94.945 Z0.434 F60.000
G1 X4.920 Y-94.868 Z0.421 F60.000
G1 X5.018 Y-94.848 Z0.408 F60.000
G1 X5.109 Y-94.892 Z0.400 F60.000
G1 X5.146 Y-94.952 Z0.393 F60.000
G1 X5.154 Y-94.989 Z0.389 F60.000
G1 X5.134 Y-95.076 Z0.383 F60.000
G1 X5.071 Y-95.138 Z0.372 F60.000
G1 X4.984 Y-95.154 Z0.359 F60.000
G1 X4.902 Y-95.120 Z0.348 F60.000
G1 X4.852 Y-95.046 Z0.342 F60.000
G1 X4.856 Y-94.945 Z0.334 F60.000
G1 X4.920 Y-94.868 Z0.321 F60.000
G1 X5.018 Y-94.848 Z0.308 F60.000
G1 X5.109 Y-94.892 Z0.300 F60.000
G1 X5.146 Y-94.952 Z0.293 F60.000
G1 X5.154 Y-94.989 Z0.289 F60.000
G1 X5.134 Y-95.076 Z0.283 F60.000
G1 X5.071 Y-95.138 Z0.272 F60.000
G1 X4.984 Y-95.154 Z0.259 F60.000
G1 X4.902 Y-95.120 Z0.248 F60.000
G1 X4.852 Y-95.046 Z0.242 F60.000
G1 X4.856 Y-94.945 Z0.234 F60.000
G1 X4.920 Y-94.868 Z0.221 F60.000
G1 X5.018 Y-94.848 Z0.208 F60.000
G1 X5.109 Y-94.892 Z0.200 F60.000
G1 X5.146 Y-94.952 Z0.193 F60.000
G1 X5.154 Y-94.989 Z0.189 F60.000
G1 X5.134 Y-95.076 Z0.183 F60.000
G1 X5.071 Y-95.138 Z0.172 F60.000
G1 X4.984 Y-95.154 Z0.159 F60.000
G1 X4.902 Y-95.120 Z0.148 F60.000
G1 X4.852 Y-95.046 Z0.142 F60.000
G1 X4.856 Y-94.945 Z0.134 F60.000
G1 X4.920 Y-94.868 Z0.121 F60.000
G1 X5.018 Y-94.848 Z0.108 F60.000
G1 X5.109 Y-94.892 Z0.100 F60.000
G1 X5.146 Y-94.952 Z0.093 F60.000
G1 X5.154 Y-94.989 Z0.089 F60.000
G1 X5.134 Y-95.076 Z0.083 F60.000
G1 X5.071 Y-95.138 Z0.072 F60.000
G1 X4.984 Y-95.154 Z0.059 F60.000
G1 X4.902 Y-95.120 Z0.048 F60.000
G1 X4.852 Y-95.046 Z0.042 F60.000
G1 X4.856 Y-94.945 Z0.034 F60.000
G1 X4.920 Y-94.868 Z0.021 F60.000
G1 X5.018 Y-94.848 Z0.008 F60.000
G1 X5.109 Y-94.892 Z0.000 F60.000
G1 X5.146 Y-94.952 Z-0.007 F60.000
G1 X5.154 Y-94.989 Z-0.011 F60.000
G1 X5.134 Y-95.076 Z-0.017 F60.000
G1 X5.071 Y-95.138 Z-0.028 F60.000
G1 X4.984 Y-95.154 Z-0.041 F60.000
G1 X4.902 Y-95.120 Z-0.052 F60.000
G1 X4.852 Y-95.046 Z-0.058 F60.000
G1 X4.856 Y-94.945 Z-0.066 F60.000
G1 X4.920 Y-94.868 Z-0.079 F60.000
G1 X5.018 Y-94.848 Z-0.092 F60.000
G1 X5.109 Y-94.892 Z-0.100 F60.000
G1 X5.146 Y-94.952 Z-0.107 F60.000
G1 X5.154 Y-94.989 Z-0.111 F60.000
G1 X5.134 Y-95.076 Z-0.117 F60.000
G1 X5.071 Y-95.138 Z-0.128 F60.000
G1 X4.984 Y-95.154 Z-0.141 F60.000
G1 X4.902 Y-95.120 Z-0.152 F60.000
G1 X4.852 Y-95.046 Z-0.158 F60.000
G1 X4.856 Y-94.945 Z-0.166 F60.000
G1 X4.920 Y-94.868 Z-0.179 F60.000
G1 X5.018 Y-94.848 Z-0.192 F60.000
G1 X5.109 Y-94.892 Z-0.200 F60.000
G1 X5.146 Y-94.952 Z-0.207 F60.000
G1 X5.154 Y-94.989 Z-0.211 F60.000
G1 X5.134 Y-95.076 Z-0.217 F60.000
G1 X5.071 Y-95.138 Z-0.228 F60.000
G1 X4.984 Y-95.154 Z-0.241 F60.000
G1 X4.902 Y-95.120 Z-0.252 F60.000
G1 X4.852 Y-95.046 Z-0.258 F60.000
G1 X4.856 Y-94.945 Z-0.266 F60.000
G1 X4.920 Y-94.868 Z-0.279 F60.000
G1 X5.018 Y-94.848 Z-0.292 F60.000
G1 X5.109 Y-94.892 Z-0.300 F60.000
G1 X5.146 Y-94.952 Z-0.307 F60.000
G1 X5.154 Y-94.989 Z-0.311 F60.000
G1 X5.134 Y-95.076 Z-0.317 F60.000
G1 X5.071 Y-95.138 Z-0.328 F60.000
G1 X4.984 Y-95.154 Z-0.341 F60.000
G1 X4.902 Y-95.120 Z-0.352 F60.000
G1 X4.852 Y-95.046 Z-0.358 F60.000
G1 X4.856 Y-94.945 Z-0.366 F60.000
G1 X4.920 Y-94.868 Z-0.379 F60.000
G1 X5.018 Y-94.848 Z-0.392 F60.000
G1 X5.109 Y-94.892 Z-0.400 F60.000
G1 X5.146 Y-94.952 Z-0.407 F60.000
G1 X5.154 Y-94.989 Z-0.411 F60.000
G1 X5.134 Y-95.076 Z-0.417 F60.000
G1 X5.071 Y-95.138 Z-0.428 F60.000
G1 X4.984 Y-95.154 Z-0.441 F60.000
G1 X4.902 Y-95.120 Z-0.452 F60.000
G1 X4.852 Y-95.046 Z-0.458 F60.000
G1 X4.856 Y-94.945 Z-0.466 F60.000
G1 X4.920 Y-94.868 Z-0.479 F60.000
G1 X5.018 Y-94.848 Z-0.492 F60.000
G1 X5.109 Y-94.892 Z-0.500 F60.000
G1 X5.146 Y-94.952 Z-0.507 F60.000
G1 X5.154 Y-94.989 Z-0.511 F60.000
G1 X5.134 Y-95.076 Z-0.517 F60.000
G1 X5.071 Y-95.138 Z-0.528 F60.000
G1 X4.984 Y-95.154 Z-0.541 F60.000
G1 X4.902 Y-95.120 Z-0.552 F60.000
G1 X4.852 Y-95.046 Z-0.558 F60.000
G1 X4.856 Y-94.945 Z-0.566 F60.000
G1 X4.920 Y-94.868 Z-0.579 F60.000
G1 X5.018 Y-94.848 Z-0.592 F60.000
G1 X5.109 Y-94.892 Z-0.600 F60.000
G1 X5.146 Y-94.952 Z-0.607 F60.000
G1 X5.154 Y-94.989 Z-0.611 F60.000
G1 X5.134 Y-95.076 Z-0.617 F60.000
G1 X5.071 Y-95.138 Z-0.628 F60.000
G1 X4.984 Y-95.154 Z-0.641 F60.000
G1 X4.902 Y-95.120 Z-0.652 F60.000
G1 X4.852 Y-95.046 Z-0.658 F60.000
G1 X4.856 Y-94.945 Z-0.666 F60.000
G1 X4.920 Y-94.868 Z-0.679 F60.000
G1 X5.018 Y-94.848 Z-0.692 F60.000
G1 X5.109 Y-94.892 Z-0.700 F60.000
G1 X5.146 Y-94.952 Z-0.707 F60.000
G1 X5.154 Y-94.989 Z-0.711 F60.000
G1 X5.134 Y-95.076 Z-0.717 F60.000
G1 X5.071 Y-95.138 Z-0.728 F60.000
G1 X4.984 Y-95.154 Z-0.741 F60.000
G1 X4.902 Y-95.120 Z-0.752 F60.000
G1 X4.852 Y-95.046 Z-0.758 F60.000
G1 X4.856 Y-94.945 Z-0.766 F60.000
G1 X4.920 Y-94.868 Z-0.779 F60.000
G1 X5.018 Y-94.848 Z-0.792 F60.000
G1 X5.109 Y-94.892 Z-0.800 F60.000
G1 X5.146 Y-94.952 Z-0.807 F60.000
G1 X5.154 Y-94.989 Z-0.811 F60.000
G1 X5.134 Y-95.076 Z-0.817 F60.000
G1 X5.071 Y-95.138 Z-0.828 F60.000
G1 X4.984 Y-95.154 Z-0.841 F60.000
G1 X4.902 Y-95.120 Z-0.852 F60.000
G1 X4.852 Y-95.046 Z-0.858 F60.000
G1 X4.856 Y-94.945 Z-0.866 F60.000
G1 X4.920 Y-94.868 Z-0.879 F60.000
G1 X5.018 Y-94.848 Z-0.892 F60.000
G1 X5.109 Y-94.892 Z-0.900 F60.000
G1 X5.146 Y-94.952 Z-0.907 F60.000
G1 X5.154 Y-94.989 Z-0.911 F60.000
G1 X5.134 Y-95.076 Z-0.917 F60.000
G1 X5.071 Y-95.138 Z-0.928 F60.000
G1 X4.984 Y-95.154 Z-0.941 F60.000
G1 X4.902 Y-95.120 Z-0.952 F60.000
G1 X4.852 Y-95.046 Z-0.958 F60.000
G1 X4.856 Y-94.945 Z-0.966 F60.000
G1 X4.920 Y-94.868 Z-0.979 F60.000
G1 X5.018 Y-94.848 Z-0.992 F60.000
G1 X5.109 Y-94.892 Z-1.000 F60.000
G1 X5.146 Y-94.952 Z-1.007 F60.000
G1 X5.154 Y-94.989 Z-1.011 F60.000
G1 X5.134 Y-95.076 Z-1.017 F60.000
G1 X5.071 Y-95.138 Z-1.028 F60.000
G1 X4.984 Y-95.154 Z-1.041 F60.000
G1 X4.902 Y-95.120 Z-1.052 F60.000
G1 X4.852 Y-95.046 Z-1.058 F60.000
G1 X4.856 Y-94.945 Z-1.066 F60.000
G1 X4.920 Y-94.868 Z-1.079 F60.000
G1 X5.018 Y-94.848 Z-1.092 F60.000
G1 X5.109 Y-94.892 Z-1.100 F60.000
G1 X5.146 Y-94.952 Z-1.107 F60.000
G1 X5.154 Y-94.989 Z-1.111 F60.000
G1 X5.134 Y-95.076 Z-1.117 F60.000
G1 X5.071 Y-95.138 Z-1.128 F60.000
G1 X4.984 Y-95.154 Z-1.141 F60.000
G1 X4.902 Y-95.120 Z-1.152 F60.000
G1 X4.852 Y-95.046 Z-1.158 F60.000
G1 X4.856 Y-94.945 Z-1.166 F60.000
G1 X4.920 Y-94.868 Z-1.179 F60.000
G1 X5.018 Y-94.848 Z-1.192 F60.000
G1 X5.109 Y-94.892 Z-1.200 F60.000
G1 X5.146 Y-94.952 Z-1.207 F60.000
G1 X5.154 Y-94.989 Z-1.211 F60.000
G1 X5.134 Y-95.076 Z-1.217 F60.000
G1 X5.071 Y-95.138 Z-1.228 F60.000
G1 X4.984 Y-95.154 Z-1.241 F60.000
G1 X4.902 Y-95.120 Z-1.252 F60.000
G1 X4.852 Y-95.046 Z-1.258 F60.000
G1 X4.856 Y-94.945 Z-1.266 F60.000
G1 X4.920 Y-94.868 Z-1.279 F60.000
G1 X5.018 Y-94.848 Z-1.292 F60.000
G1 X5.109 Y-94.892 Z-1.300 F60.000
G1 X5.146 Y-94.952 Z-1.307 F60.000
G1 X5.154 Y-94.989 Z-1.311 F60.000
G1 X5.134 Y-95.076 Z-1.317 F60.000
G1 X5.071 Y-95.138 Z-1.328 F60.000
G1 X4.984 Y-95.154 Z-1.341 F60.000
G1 X4.902 Y-95.120 Z-1.352 F60.000
G1 X4.852 Y-95.046 Z-1.358 F60.000
G1 X4.856 Y-94.945 Z-1.366 F60.000
G1 X4.920 Y-94.868 Z-1.379 F60.000
G1 X5.018 Y-94.848 Z-1.392 F60.000
G1 X5.109 Y-94.892 Z-1.400 F60.000
G1 X5.146 Y-94.952 Z-1.407 F60.000
G1 X5.154 Y-94.989 Z-1.411 F60.000
G1 X5.134 Y-95.076 Z-1.417 F60.000
G1 X5.071 Y-95.138 Z-1.428 F60.000
G1 X4.984 Y-95.154 Z-1.441 F60.000
G1 X4.902 Y-95.120 Z-1.452 F60.000
G1 X4.852 Y-95.046 Z-1.458 F60.000
G1 X4.856 Y-94.945 Z-1.466 F60.000
G1 X4.920 Y-94.868 Z-1.479 F60.000
G1 X5.018 Y-94.848 Z-1.492 F60.000
G1 X5.109 Y-94.892 Z-1.500 F60.000
G1 X5.146 Y-94.952 Z-1.507 F60.000
G1 X5.154 Y-94.989 Z-1.511 F60.000
G1 X5.134 Y-95.076 Z-1.517 F60.000
G1 X5.071 Y-95.138 Z-1.528 F60.000
G1 X4.984 Y-95.154 Z-1.541 F60.000
G1 X4.902 Y-95.120 Z-1.552 F60.000
G1 X4.852 Y-95.046 Z-1.558 F60.000
G1 X4.856 Y-94.945 Z-1.566 F60.000
G1 X4.920 Y-94.868 Z-1.579 F60.000
G1 X5.018 Y-94.848 Z-1.592 F60.000
G1 X5.109 Y-94.892 Z-1.600 F60.000
G1 X5.146 Y-94.952 Z-1.607 F60.000
G1 X5.154 Y-94.989 Z-1.611 F60.000
G1 X5.134 Y-95.076 Z-1.617 F60.000
G1 X5.071 Y-95.138 Z-1.628 F60.000
G1 X4.984 Y-95.154 Z-1.641 F60.000
G1 X4.902 Y-95.120 Z-1.652 F60.000
G1 X4.852 Y-95.046 Z-1.658 F60.000
G1 X4.856 Y-94.945 Z-1.666 F60.000
G1 X4.920 Y-94.868 Z-1.679 F60.000
G1 X5.018 Y-94.848 Z-1.692 F60.000
G1 X5.109 Y-94.892 Z-1.700 F60.000
G1 X5.146 Y-94.952 Z-1.707 F60.000
G1 X5.154 Y-94.989 Z-1.711 F60.000
G1 X5.134 Y-95.076 Z-1.717 F60.000
G1 X5.071 Y-95.138 Z-1.728 F60.000
G1 X4.984 Y-95.154 Z-1.741 F60.000
G1 X4.902 Y-95.120 Z-1.752 F60.000
G1 X4.852 Y-95.046 Z-1.758 F60.000
G1 X4.856 Y-94.945 Z-1.766 F60.000
G1 X4.920 Y-94.868 Z-1.779 F60.000
G1 X5.018 Y-94.848 Z-1.792 F60.000
G1 X5.109 Y-94.892 Z-1.800 F60.000
G1 X5.146 Y-94.952 Z-1.807 F60.000
G1 X5.154 Y-94.989 Z-1.811 F60.000
G1 X5.134 Y-95.076 Z-1.817 F60.000
G1 X5.071 Y-95.138 Z-1.828 F60.000
G1 X4.984 Y-95.154 Z-1.841 F60.000
G1 X4.902 Y-95.120 Z-1.852 F60.000
G1 X4.852 Y-95.046 Z-1.858 F60.000
G1 X4.856 Y-94.945 Z-1.866 F60.000
G1 X4.920 Y-94.868 Z-1.879 F60.000
G1 X5.018 Y-94.848 Z-1.892 F60.000
G1 X5.109 Y-94.892 Z-1.900 F60.000
G1 X5.146 Y-94.952 Z-1.907 F60.000
G1 X5.154 Y-94.989 Z-1.911 F60.000
G1 X5.134 Y-95.076 Z-1.917 F60.000
G1 X5.071 Y-95.138 Z-1.928 F60.000
G1 X4.984 Y-95.154 Z-1.941 F60.000
G1 X4.902 Y-95.120 Z-1.952 F60.000
G1 X4.852 Y-95.046 Z-1.958 F60.000
G1 X4.856 Y-94.945 Z-1.966 F60.000
G1 X4.920 Y-94.868 Z-1.979 F60.000
G1 X5.018 Y-94.848 Z-1.992 F60.000
G1 X5.109 Y-94.892 Z-2.000 F60.000
G1 X5.146 Y-94.952 Z-2.007 F60.000
G1 X5.154 Y-94.989 Z-2.011 F60.000
G1 X5.134 Y-95.076 Z-2.017 F60.000
G1 X5.071 Y-95.138 Z-2.028 F60.000
G1 X4.984 Y-95.154 Z-2.041 F60.000
G1 X4.902 Y-95.120 Z-2.052 F60.000
G1 X4.852 Y-95.046 Z-2.058 F60.000
G1 X4.856 Y-94.945 Z-2.066 F60.000
G1 X4.920 Y-94.868 Z-2.079 F60.000
G1 X5.018 Y-94.848 Z-2.092 F60.000
G1 X5.109 Y-94.892 Z-2.100 F60.000
G1 X5.146 Y-94.952 Z-2.107 F60.000
G1 X5.154 Y-94.989 Z-2.111 F60.000
G1 X5.134 Y-95.076 Z-2.117 F60.000
G1 X5.071 Y-95.138 Z-2.128 F60.000
G1 X4.984 Y-95.154 Z-2.141 F60.000
G1 X4.902 Y-95.120 Z-2.152 F60.000
G1 X4.852 Y-95.046 Z-2.158 F60.000
G1 X4.856 Y-94.945 Z-2.166 F60.000
G1 X4.920 Y-94.868 Z-2.179 F60.000
G1 X5.018 Y-94.848 Z-2.192 F60.000
G1 X5.109 Y-94.892 Z-2.200 F60.000
G2 X5.146 Y-94.952 Z-2.200 I-0.109 J-0.109 K0.000 F60.000
G1 X5.154 Y-94.989 Z-2.200 F60.000
G2 X4.852 Y-95.046 Z-2.200 I-0.154 J-0.011 K0.000 F60.000
G2 X5.109 Y-94.892 Z-2.200 I0.148 J0.045 K0.000 F60.000
G0 X5.109 Y-94.892 Z6.000
(Finish operation: RampEntryDressup047)
(Begin operation: RampEntryDressup048)
(Path: RampEntryDressup048)
G0 X0.000 Y0.000 Z6.000
G0 X30.464 Y-74.536 Z6.000
G0 X30.464 Y-74.536 Z4.000
G1 X30.587 Y-74.708 Z3.840 F60.000
G1 X30.647 Y-74.911 Z3.695 F60.000
G1 X30.646 Y-75.112 Z3.535 F60.000
G1 X30.583 Y-75.299 Z3.371 F60.000
G1 X30.463 Y-75.461 Z3.211 F60.000
G1 X30.292 Y-75.587 Z3.065 F60.000
G1 X30.089 Y-75.647 Z2.920 F60.000
G1 X29.888 Y-75.646 Z2.760 F60.000
G1 X29.701 Y-75.583 Z2.596 F60.000
G1 X29.539 Y-75.463 Z2.436 F60.000
G1 X29.413 Y-75.292 Z2.290 F60.000
G1 X29.376 Y-75.038 Z2.163 F60.000
G1 X29.400 Y-74.806 Z1.997 F60.000
G1 X29.482 Y-74.611 Z1.803 F60.000
G1 X29.617 Y-74.468 Z1.595 F60.000
G1 X29.796 Y-74.385 Z1.387 F60.000
G1 X30.007 Y-74.369 Z1.194 F60.000
G1 X30.234 Y-74.421 Z1.027 F60.000
G1 X30.464 Y-74.536 Z0.900 F60.000
G1 X30.587 Y-74.708 Z0.895 F60.000
G1 X30.649 Y-74.903 Z0.890 F60.000
G1 X30.647 Y-75.109 Z0.885 F60.000
G1 X30.581 Y-75.303 Z0.880 F60.000
G1 X30.459 Y-75.468 Z0.874 F60.000
G1 X30.292 Y-75.587 Z0.870 F60.000
G1 X30.097 Y-75.649 Z0.865 F60.000
G1 X29.891 Y-75.647 Z0.860 F60.000
G1 X29.697 Y-75.581 Z0.855 F60.000
G1 X29.532 Y-75.459 Z0.849 F60.000
G1 X29.413 Y-75.292 Z0.845 F60.000
G1 X29.352 Y-75.097 Z0.843 F60.000
G1 X29.353 Y-74.893 Z0.838 F60.000
G1 X29.418 Y-74.699 Z0.833 F60.000
G1 X29.539 Y-74.534 Z0.826 F60.000
G1 X29.705 Y-74.415 Z0.819 F60.000
G1 X29.899 Y-74.352 Z0.812 F60.000
G1 X30.104 Y-74.353 Z0.806 F60.000
G1 X30.298 Y-74.416 Z0.802 F60.000
G1 X30.464 Y-74.536 Z0.800 F60.000
G1 X30.587 Y-74.708 Z0.795 F60.000
G1 X30.649 Y-74.903 Z0.790 F60.000
G1 X30.647 Y-75.109 Z0.785 F60.000
G1 X30.581 Y-75.303 Z0.780 F60.000
G1 X30.459 Y-75.468 Z0.774 F60.000
G1 X30.292 Y-75.587 Z0.770 F60.000
G1 X30.097 Y-75.649 Z0.765 F60.000
G1 X29.891 Y-75.647 Z0.760 F60.000
G1 X29.697 Y-75.581 Z0.755 F60.000
G1 X29.532 Y-75.459 Z0.749 F60.000
G1 X29.413 Y-75.292 Z0.745 F60.000
G1 X29.352 Y-75.097 Z0.743 F60.000
G1 X29.353 Y-74.893 Z0.738 F60.000
G1 X29.418 Y-74.699 Z0.733 F60.000
G1 X29.539 Y-74.534 Z0.726 F60.000
G1 X29.705 Y-74.415 Z0.719 F60.000
G1 X29.899 Y-74.352 Z0.712 F60.000
G1 X30.104 Y-74.353 Z0.706 F60.000
G1 X30.298 Y-74.416 Z0.702 F60.000
G1 X30.464 Y-74.536 Z0.700 F60.000
G1 X30.587 Y-74.708 Z0.695 F60.000
G1 X30.649 Y-74.903 Z0.690 F60.000
G1 X30.647 Y-75.109 Z0.685 F60.000
G1 X30.581 Y-75.303 Z0.680 F60.000
G1 X30.459 Y-75.468 Z0.674 F60.000
G1 X30.292 Y-75.587 Z0.670 F60.000
G1 X30.097 Y-75.649 Z0.665 F60.000
G1 X29.891 Y-75.647 Z0.660 F60.000
G1 X29.697 Y-75.581 Z0.655 F60.000
G1 X29.532 Y-75.459 Z0.649 F60.000
G1 X29.413 Y-75.292 Z0.645 F60.000
G1 X29.352 Y-75.097 Z0.643 F60.000
G1 X29.353 Y-74.893 Z0.638 F60.000
G1 X29.418 Y-74.699 Z0.633 F60.000
G1 X29.539 Y-74.534 Z0.626 F60.000
G1 X29.705 Y-74.415 Z0.619 F60.000
G1 X29.899 Y-74.352 Z0.612 F60.000
G1 X30.104 Y-74.353 Z0.606 F60.000
G1 X30.298 Y-74.416 Z0.602 F60.000
G1 X30.464 Y-74.536 Z0.600 F60.000
G1 X30.587 Y-74.708 Z0.595 F60.000
G1 X30.649 Y-74.903 Z0.590 F60.000
G1 X30.647 Y-75.109 Z0.585 F60.000
G1 X30.581 Y-75.303 Z0.580 F60.000
G1 X30.459 Y-75.468 Z0.574 F60.000
G1 X30.292 Y-75.587 Z0.570 F60.000
G1 X30.097 Y-75.649 Z0.565 F60.000
G1 X29.891 Y-75.647 Z0.560 F60.000
G1 X29.697 Y-75.581 Z0.555 F60.000
G1 X29.532 Y-75.459 Z0.549 F60.000
G1 X29.413 Y-75.292 Z0.545 F60.000
G1 X29.352 Y-75.097 Z0.543 F60.000
G1 X29.353 Y-74.893 Z0.538 F60.000
G1 X29.418 Y-74.699 Z0.533 F60.000
G1 X29.539 Y-74.534 Z0.526 F60.000
G1 X29.705 Y-74.415 Z0.519 F60.000
G1 X29.899 Y-74.352 Z0.512 F60.000
G1 X30.104 Y-74.353 Z0.506 F60.000
G1 X30.298 Y-74.416 Z0.502 F60.000
G1 X30.464 Y-74.536 Z0.500 F60.000
G1 X30.587 Y-74.708 Z0.495 F60.000
G1 X30.649 Y-74.903 Z0.490 F60.000
G1 X30.647 Y-75.109 Z0.485 F60.000
G1 X30.581 Y-75.303 Z0.480 F60.000
G1 X30.459 Y-75.468 Z0.474 F60.000
G1 X30.292 Y-75.587 Z0.470 F60.000
G1 X30.097 Y-75.649 Z0.465 F60.000
G1 X29.891 Y-75.647 Z0.460 F60.000
G1 X29.697 Y-75.581 Z0.455 F60.000
G1 X29.532 Y-75.459 Z0.449 F60.000
G1 X29.413 Y-75.292 Z0.445 F60.000
G1 X29.352 Y-75.097 Z0.443 F60.000
G1 X29.353 Y-74.893 Z0.438 F60.000
G1 X29.418 Y-74.699 Z0.433 F60.000
G1 X29.539 Y-74.534 Z0.426 F60.000
G1 X29.705 Y-74.415 Z0.419 F60.000
G1 X29.899 Y-74.352 Z0.412 F60.000
G1 X30.104 Y-74.353 Z0.406 F60.000
G1 X30.298 Y-74.416 Z0.402 F60.000
G1 X30.464 Y-74.536 Z0.400 F60.000
G1 X30.587 Y-74.708 Z0.395 F60.000
G1 X30.649 Y-74.903 Z0.390 F60.000
G1 X30.647 Y-75.109 Z0.385 F60.000
G1 X30.581 Y-75.303 Z0.380 F60.000
G1 X30.459 Y-75.468 Z0.374 F60.000
G1 X30.292 Y-75.587 Z0.370 F60.000
G1 X30.097 Y-75.649 Z0.365 F60.000
G1 X29.891 Y-75.647 Z0.360 F60.000
G1 X29.697 Y-75.581 Z0.355 F60.000
G1 X29.532 Y-75.459 Z0.349 F60.000
G1 X29.413 Y-75.292 Z0.345 F60.000
G1 X29.352 Y-75.097 Z0.343 F60.000
G1 X29.353 Y-74.893 Z0.338 F60.000
G1 X29.418 Y-74.699 Z0.333 F60.000
G1 X29.539 Y-74.534 Z0.326 F60.000
G1 X29.705 Y-74.415 Z0.319 F60.000
G1 X29.899 Y-74.352 Z0.312 F60.000
G1 X30.104 Y-74.353 Z0.306 F60.000
G1 X30.298 Y-74.416 Z0.302 F60.000
G1 X30.464 Y-74.536 Z0.300 F60.000
G1 X30.587 Y-74.708 Z0.295 F60.000
G1 X30.649 Y-74.903 Z0.290 F60.000
G1 X30.647 Y-75.109 Z0.285 F60.000
G1 X30.581 Y-75.303 Z0.280 F60.000
G1 X30.459 Y-75.468 Z0.274 F60.000
G1 X30.292 Y-75.587 Z0.270 F60.000
G1 X30.097 Y-75.649 Z0.265 F60.000
G1 X29.891 Y-75.647 Z0.260 F60.000
G1 X29.697 Y-75.581 Z0.255 F60.000
G1 X29.532 Y-75.459 Z0.249 F60.000
G1 X29.413 Y-75.292 Z0.245 F60.000
G1 X29.352 Y-75.097 Z0.243 F60.000
G1 X29.353 Y-74.893 Z0.238 F60.000
G1 X29.418 Y-74.699 Z0.233 F60.000
G1 X29.539 Y-74.534 Z0.226 F60.000
G1 X29.705 Y-74.415 Z0.219 F60.000
G1 X29.899 Y-74.352 Z0.212 F60.000
G1 X30.104 Y-74.353 Z0.206 F60.000
G1 X30.298 Y-74.416 Z0.202 F60.000
G1 X30.464 Y-74.536 Z0.200 F60.000
G1 X30.587 Y-74.708 Z0.195 F60.000
G1 X30.649 Y-74.903 Z0.190 F60.000
G1 X30.647 Y-75.109 Z0.185 F60.000
G1 X30.581 Y-75.303 Z0.180 F60.000
G1 X30.459 Y-75.468 Z0.174 F60.000
G1 X30.292 Y-75.587 Z0.170 F60.000
G1 X30.097 Y-75.649 Z0.165 F60.000
G1 X29.891 Y-75.647 Z0.160 F60.000
G1 X29.697 Y-75.581 Z0.155 F60.000
G1 X29.532 Y-75.459 Z0.149 F60.000
G1 X29.413 Y-75.292 Z0.145 F60.000
G1 X29.352 Y-75.097 Z0.143 F60.000
G1 X29.353 Y-74.893 Z0.138 F60.000
G1 X29.418 Y-74.699 Z0.133 F60.000
G1 X29.539 Y-74.534 Z0.126 F60.000
G1 X29.705 Y-74.415 Z0.119 F60.000
G1 X29.899 Y-74.352 Z0.112 F60.000
G1 X30.104 Y-74.353 Z0.106 F60.000
G1 X30.298 Y-74.416 Z0.102 F60.000
G1 X30.464 Y-74.536 Z0.100 F60.000
G1 X30.587 Y-74.708 Z0.095 F60.000
G1 X30.649 Y-74.903 Z0.090 F60.000
G1 X30.647 Y-75.109 Z0.085 F60.000
G1 X30.581 Y-75.303 Z0.080 F60.000
G1 X30.459 Y-75.468 Z0.074 F60.000
G1 X30.292 Y-75.587 Z0.070 F60.000
G1 X30.097 Y-75.649 Z0.065 F60.000
G1 X29.891 Y-75.647 Z0.060 F60.000
G1 X29.697 Y-75.581 Z0.055 F60.000
G1 X29.532 Y-75.459 Z0.049 F60.000
G1 X29.413 Y-75.292 Z0.045 F60.000
G1 X29.352 Y-75.097 Z0.043 F60.000
G1 X29.353 Y-74.893 Z0.038 F60.000
G1 X29.418 Y-74.699 Z0.033 F60.000
G1 X29.539 Y-74.534 Z0.026 F60.000
G1 X29.705 Y-74.415 Z0.019 F60.000
G1 X29.899 Y-74.352 Z0.012 F60.000
G1 X30.104 Y-74.353 Z0.006 F60.000
G1 X30.298 Y-74.416 Z0.002 F60.000
G1 X30.464 Y-74.536 Z0.000 F60.000
G1 X30.587 Y-74.708 Z-0.005 F60.000
G1 X30.649 Y-74.903 Z-0.010 F60.000
G1 X30.647 Y-75.109 Z-0.015 F60.000
G1 X30.581 Y-75.303 Z-0.020 F60.000
G1 X30.459 Y-75.468 Z-0.026 F60.000
G1 X30.292 Y-75.587 Z-0.030 F60.000
G1 X30.097 Y-75.649 Z-0.035 F60.000
G1 X29.891 Y-75.647 Z-0.040 F60.000
G1 X29.697 Y-75.581 Z-0.045 F60.000
G1 X29.532 Y-75.459 Z-0.051 F60.000
G1 X29.413 Y-75.292 Z-0.055 F60.000
G1 X29.352 Y-75.097 Z-0.057 F60.000
G1 X29.353 Y-74.893 Z-0.062 F60.000
G1 X29.418 Y-74.699 Z-0.067 F60.000
G1 X29.539 Y-74.534 Z-0.074 F60.000
G1 X29.705 Y-74.415 Z-0.081 F60.000
G1 X29.899 Y-74.352 Z-0.088 F60.000
G1 X30.104 Y-74.353 Z-0.094 F60.000
G1 X30.298 Y-74.416 Z-0.098 F60.000
G1 X30.464 Y-74.536 Z-0.100 F60.000
G1 X30.587 Y-74.708 Z-0.105 F60.000
G1 X30.649 Y-74.903 Z-0.110 F60.000
G1 X30.647 Y-75.109 Z-0.115 F60.000
G1 X30.581 Y-75.303 Z-0.120 F60.000
G1 X30.459 Y-75.468 Z-0.126 F60.000
G1 X30.292 Y-75.587 Z-0.130 F60.000
G1 X30.097 Y-75.649 Z-0.135 F60.000
G1 X29.891 Y-75.647 Z-0.140 F60.000
G1 X29.697 Y-75.581 Z-0.145 F60.000
G1 X29.532 Y-75.459 Z-0.151 F60.000
G1 X29.413 Y-75.292 Z-0.155 F60.000
G1 X29.352 Y-75.097 Z-0.157 F60.000
G1 X29.353 Y-74.893 Z-0.162 F60.000
G1 X29.418 Y-74.699 Z-0.167 F60.000
G1 X29.539 Y-74.534 Z-0.174 F60.000
G1 X29.705 Y-74.415 Z-0.181 F60.000
G1 X29.899 Y-74.352 Z-0.188 F60.000
G1 X30.104 Y-74.353 Z-0.194 F60.000
G1 X30.298 Y-74.416 Z-0.198 F60.000
G1 X30.464 Y-74.536 Z-0.200 F60.000
G1 X30.587 Y-74.708 Z-0.205 F60.000
G1 X30.649 Y-74.903 Z-0.210 F60.000
G1 X30.647 Y-75.109 Z-0.215 F60.000
G1 X30.581 Y-75.303 Z-0.220 F60.000
G1 X30.459 Y-75.468 Z-0.226 F60.000
G1 X30.292 Y-75.587 Z-0.230 F60.000
G1 X30.097 Y-75.649 Z-0.235 F60.000
G1 X29.891 Y-75.647 Z-0.240 F60.000
G1 X29.697 Y-75.581 Z-0.245 F60.000
G1 X29.532 Y-75.459 Z-0.251 F60.000
G1 X29.413 Y-75.292 Z-0.255 F60.000
G1 X29.352 Y-75.097 Z-0.257 F60.000
G1 X29.353 Y-74.893 Z-0.262 F60.000
G1 X29.418 Y-74.699 Z-0.267 F60.000
G1 X29.539 Y-74.534 Z-0.274 F60.000
G1 X29.705 Y-74.415 Z-0.281 F60.000
G1 X29.899 Y-74.352 Z-0.288 F60.000
G1 X30.104 Y-74.353 Z-0.294 F60.000
G1 X30.298 Y-74.416 Z-0.298 F60.000
G1 X30.464 Y-74.536 Z-0.300 F60.000
G1 X30.587 Y-74.708 Z-0.305 F60.000
G1 X30.649 Y-74.903 Z-0.310 F60.000
G1 X30.647 Y-75.109 Z-0.315 F60.000
G1 X30.581 Y-75.303 Z-0.320 F60.000
G1 X30.459 Y-75.468 Z-0.326 F60.000
G1 X30.292 Y-75.587 Z-0.330 F60.000
G1 X30.097 Y-75.649 Z-0.335 F60.000
G1 X29.891 Y-75.647 Z-0.340 F60.000
G1 X29.697 Y-75.581 Z-0.345 F60.000
G1 X29.532 Y-75.459 Z-0.351 F60.000
G1 X29.413 Y-75.292 Z-0.355 F60.000
G1 X29.352 Y-75.097 Z-0.357 F60.000
G1 X29.353 Y-74.893 Z-0.362 F60.000
G1 X29.418 Y-74.699 Z-0.367 F60.000
G1 X29.539 Y-74.534 Z-0.374 F60.000
G1 X29.705 Y-74.415 Z-0.381 F60.000
G1 X29.899 Y-74.352 Z-0.388 F60.000
G1 X30.104 Y-74.353 Z-0.394 F60.000
G1 X30.298 Y-74.416 Z-0.398 F60.000
G1 X30.464 Y-74.536 Z-0.400 F60.000
G1 X30.587 Y-74.708 Z-0.405 F60.000
G1 X30.649 Y-74.903 Z-0.410 F60.000
G1 X30.647 Y-75.109 Z-0.415 F60.000
G1 X30.581 Y-75.303 Z-0.420 F60.000
G1 X30.459 Y-75.468 Z-0.426 F60.000
G1 X30.292 Y-75.587 Z-0.430 F60.000
G1 X30.097 Y-75.649 Z-0.435 F60.000
G1 X29.891 Y-75.647 Z-0.440 F60.000
G1 X29.697 Y-75.581 Z-0.445 F60.000
G1 X29.532 Y-75.459 Z-0.451 F60.000
G1 X29.413 Y-75.292 Z-0.455 F60.000
G1 X29.352 Y-75.097 Z-0.457 F60.000
G1 X29.353 Y-74.893 Z-0.462 F60.000
G1 X29.418 Y-74.699 Z-0.467 F60.000
G1 X29.539 Y-74.534 Z-0.474 F60.000
G1 X29.705 Y-74.415 Z-0.481 F60.000
G1 X29.899 Y-74.352 Z-0.488 F60.000
G1 X30.104 Y-74.353 Z-0.494 F60.000
G1 X30.298 Y-74.416 Z-0.498 F60.000
G1 X30.464 Y-74.536 Z-0.500 F60.000
G1 X30.587 Y-74.708 Z-0.505 F60.000
G1 X30.649 Y-74.903 Z-0.510 F60.000
G1 X30.647 Y-75.109 Z-0.515 F60.000
G1 X30.581 Y-75.303 Z-0.520 F60.000
G1 X30.459 Y-75.468 Z-0.526 F60.000
G1 X30.292 Y-75.587 Z-0.530 F60.000
G1 X30.097 Y-75.649 Z-0.535 F60.000
G1 X29.891 Y-75.647 Z-0.540 F60.000
G1 X29.697 Y-75.581 Z-0.545 F60.000
G1 X29.532 Y-75.459 Z-0.551 F60.000
G1 X29.413 Y-75.292 Z-0.555 F60.000
G1 X29.352 Y-75.097 Z-0.557 F60.000
G1 X29.353 Y-74.893 Z-0.562 F60.000
G1 X29.418 Y-74.699 Z-0.567 F60.000
G1 X29.539 Y-74.534 Z-0.574 F60.000
G1 X29.705 Y-74.415 Z-0.581 F60.000
G1 X29.899 Y-74.352 Z-0.588 F60.000
G1 X30.104 Y-74.353 Z-0.594 F60.000
G1 X30.298 Y-74.416 Z-0.598 F60.000
G1 X30.464 Y-74.536 Z-0.600 F60.000
G1 X30.587 Y-74.708 Z-0.605 F60.000
G1 X30.649 Y-74.903 Z-0.610 F60.000
G1 X30.647 Y-75.109 Z-0.615 F60.000
G1 X30.581 Y-75.303 Z-0.620 F60.000
G1 X30.459 Y-75.468 Z-0.626 F60.000
G1 X30.292 Y-75.587 Z-0.630 F60.000
G1 X30.097 Y-75.649 Z-0.635 F60.000
G1 X29.891 Y-75.647 Z-0.640 F60.000
G1 X29.697 Y-75.581 Z-0.645 F60.000
G1 X29.532 Y-75.459 Z-0.651 F60.000
G1 X29.413 Y-75.292 Z-0.655 F60.000
G1 X29.352 Y-75.097 Z-0.657 F60.000
G1 X29.353 Y-74.893 Z-0.662 F60.000
G1 X29.418 Y-74.699 Z-0.667 F60.000
G1 X29.539 Y-74.534 Z-0.674 F60.000
G1 X29.705 Y-74.415 Z-0.681 F60.000
G1 X29.899 Y-74.352 Z-0.688 F60.000
G1 X30.104 Y-74.353 Z-0.694 F60.000
G1 X30.298 Y-74.416 Z-0.698 F60.000
G1 X30.464 Y-74.536 Z-0.700 F60.000
G1 X30.587 Y-74.708 Z-0.705 F60.000
G1 X30.649 Y-74.903 Z-0.710 F60.000
G1 X30.647 Y-75.109 Z-0.715 F60.000
G1 X30.581 Y-75.303 Z-0.720 F60.000
G1 X30.459 Y-75.468 Z-0.726 F60.000
G1 X30.292 Y-75.587 Z-0.730 F60.000
G1 X30.097 Y-75.649 Z-0.735 F60.000
G1 X29.891 Y-75.647 Z-0.740 F60.000
G1 X29.697 Y-75.581 Z-0.745 F60.000
G1 X29.532 Y-75.459 Z-0.751 F60.000
G1 X29.413 Y-75.292 Z-0.755 F60.000
G1 X29.352 Y-75.097 Z-0.757 F60.000
G1 X29.353 Y-74.893 Z-0.762 F60.000
G1 X29.418 Y-74.699 Z-0.767 F60.000
G1 X29.539 Y-74.534 Z-0.774 F60.000
G1 X29.705 Y-74.415 Z-0.781 F60.000
G1 X29.899 Y-74.352 Z-0.788 F60.000
G1 X30.104 Y-74.353 Z-0.794 F60.000
G1 X30.298 Y-74.416 Z-0.798 F60.000
G1 X30.464 Y-74.536 Z-0.800 F60.000
G1 X30.587 Y-74.708 Z-0.805 F60.000
G1 X30.649 Y-74.903 Z-0.810 F60.000
G1 X30.647 Y-75.109 Z-0.815 F60.000
G1 X30.581 Y-75.303 Z-0.820 F60.000
G1 X30.459 Y-75.468 Z-0.826 F60.000
G1 X30.292 Y-75.587 Z-0.830 F60.000
G1 X30.097 Y-75.649 Z-0.835 F60.000
G1 X29.891 Y-75.647 Z-0.840 F60.000
G1 X29.697 Y-75.581 Z-0.845 F60.000
G1 X29.532 Y-75.459 Z-0.851 F60.000
G1 X29.413 Y-75.292 Z-0.855 F60.000
G1 X29.352 Y-75.097 Z-0.857 F60.000
G1 X29.353 Y-74.893 Z-0.862 F60.000
G1 X29.418 Y-74.699 Z-0.867 F60.000
G1 X29.539 Y-74.534 Z-0.874 F60.000
G1 X29.705 Y-74.415 Z-0.881 F60.000
G1 X29.899 Y-74.352 Z-0.888 F60.000
G1 X30.104 Y-74.353 Z-0.894 F60.000
G1 X30.298 Y-74.416 Z-0.898 F60.000
G1 X30.464 Y-74.536 Z-0.900 F60.000
G1 X30.587 Y-74.708 Z-0.905 F60.000
G1 X30.649 Y-74.903 Z-0.910 F60.000
G1 X30.647 Y-75.109 Z-0.915 F60.000
G1 X30.581 Y-75.303 Z-0.920 F60.000
G1 X30.459 Y-75.468 Z-0.926 F60.000
G1 X30.292 Y-75.587 Z-0.930 F60.000
G1 X30.097 Y-75.649 Z-0.935 F60.000
G1 X29.891 Y-75.647 Z-0.940 F60.000
G1 X29.697 Y-75.581 Z-0.945 F60.000
G1 X29.532 Y-75.459 Z-0.951 F60.000
G1 X29.413 Y-75.292 Z-0.955 F60.000
G1 X29.352 Y-75.097 Z-0.957 F60.000
G1 X29.353 Y-74.893 Z-0.962 F60.000
G1 X29.418 Y-74.699 Z-0.967 F60.000
G1 X29.539 Y-74.534 Z-0.974 F60.000
G1 X29.705 Y-74.415 Z-0.981 F60.000
G1 X29.899 Y-74.352 Z-0.988 F60.000
G1 X30.104 Y-74.353 Z-0.994 F60.000
G1 X30.298 Y-74.416 Z-0.998 F60.000
G1 X30.464 Y-74.536 Z-1.000 F60.000
G1 X30.587 Y-74.708 Z-1.005 F60.000
G1 X30.649 Y-74.903 Z-1.010 F60.000
G1 X30.647 Y-75.109 Z-1.015 F60.000
G1 X30.581 Y-75.303 Z-1.020 F60.000
G1 X30.459 Y-75.468 Z-1.026 F60.000
G1 X30.292 Y-75.587 Z-1.030 F60.000
G1 X30.097 Y-75.649 Z-1.035 F60.000
G1 X29.891 Y-75.647 Z-1.040 F60.000
G1 X29.697 Y-75.581 Z-1.045 F60.000
G1 X29.532 Y-75.459 Z-1.051 F60.000
G1 X29.413 Y-75.292 Z-1.055 F60.000
G1 X29.352 Y-75.097 Z-1.057 F60.000
G1 X29.353 Y-74.893 Z-1.062 F60.000
G1 X29.418 Y-74.699 Z-1.067 F60.000
G1 X29.539 Y-74.534 Z-1.074 F60.000
G1 X29.705 Y-74.415 Z-1.081 F60.000
G1 X29.899 Y-74.352 Z-1.088 F60.000
G1 X30.104 Y-74.353 Z-1.094 F60.000
G1 X30.298 Y-74.416 Z-1.098 F60.000
G1 X30.464 Y-74.536 Z-1.100 F60.000
G1 X30.587 Y-74.708 Z-1.105 F60.000
G1 X30.649 Y-74.903 Z-1.110 F60.000
G1 X30.647 Y-75.109 Z-1.115 F60.000
G1 X30.581 Y-75.303 Z-1.120 F60.000
G1 X30.459 Y-75.468 Z-1.126 F60.000
G1 X30.292 Y-75.587 Z-1.130 F60.000
G1 X30.097 Y-75.649 Z-1.135 F60.000
G1 X29.891 Y-75.647 Z-1.140 F60.000
G1 X29.697 Y-75.581 Z-1.145 F60.000
G1 X29.532 Y-75.459 Z-1.151 F60.000
G1 X29.413 Y-75.292 Z-1.155 F60.000
G1 X29.352 Y-75.097 Z-1.157 F60.000
G1 X29.353 Y-74.893 Z-1.162 F60.000
G1 X29.418 Y-74.699 Z-1.167 F60.000
G1 X29.539 Y-74.534 Z-1.174 F60.000
G1 X29.705 Y-74.415 Z-1.181 F60.000
G1 X29.899 Y-74.352 Z-1.188 F60.000
G1 X30.104 Y-74.353 Z-1.194 F60.000
G1 X30.298 Y-74.416 Z-1.198 F60.000
G1 X30.464 Y-74.536 Z-1.200 F60.000
G1 X30.587 Y-74.708 Z-1.205 F60.000
G1 X30.649 Y-74.903 Z-1.210 F60.000
G1 X30.647 Y-75.109 Z-1.215 F60.000
G1 X30.581 Y-75.303 Z-1.220 F60.000
G1 X30.459 Y-75.468 Z-1.226 F60.000
G1 X30.292 Y-75.587 Z-1.230 F60.000
G1 X30.097 Y-75.649 Z-1.235 F60.000
G1 X29.891 Y-75.647 Z-1.240 F60.000
G1 X29.697 Y-75.581 Z-1.245 F60.000
G1 X29.532 Y-75.459 Z-1.251 F60.000
G1 X29.413 Y-75.292 Z-1.255 F60.000
G1 X29.352 Y-75.097 Z-1.257 F60.000
G1 X29.353 Y-74.893 Z-1.262 F60.000
G1 X29.418 Y-74.699 Z-1.267 F60.000
G1 X29.539 Y-74.534 Z-1.274 F60.000
G1 X29.705 Y-74.415 Z-1.281 F60.000
G1 X29.899 Y-74.352 Z-1.288 F60.000
G1 X30.104 Y-74.353 Z-1.294 F60.000
G1 X30.298 Y-74.416 Z-1.298 F60.000
G1 X30.464 Y-74.536 Z-1.300 F60.000
G1 X30.587 Y-74.708 Z-1.305 F60.000
G1 X30.649 Y-74.903 Z-1.310 F60.000
G1 X30.647 Y-75.109 Z-1.315 F60.000
G1 X30.581 Y-75.303 Z-1.320 F60.000
G1 X30.459 Y-75.468 Z-1.326 F60.000
G1 X30.292 Y-75.587 Z-1.330 F60.000
G1 X30.097 Y-75.649 Z-1.335 F60.000
G1 X29.891 Y-75.647 Z-1.340 F60.000
G1 X29.697 Y-75.581 Z-1.345 F60.000
G1 X29.532 Y-75.459 Z-1.351 F60.000
G1 X29.413 Y-75.292 Z-1.355 F60.000
G1 X29.352 Y-75.097 Z-1.357 F60.000
G1 X29.353 Y-74.893 Z-1.362 F60.000
G1 X29.418 Y-74.699 Z-1.367 F60.000
G1 X29.539 Y-74.534 Z-1.374 F60.000
G1 X29.705 Y-74.415 Z-1.381 F60.000
G1 X29.899 Y-74.352 Z-1.388 F60.000
G1 X30.104 Y-74.353 Z-1.394 F60.000
G1 X30.298 Y-74.416 Z-1.398 F60.000
G1 X30.464 Y-74.536 Z-1.400 F60.000
G1 X30.587 Y-74.708 Z-1.405 F60.000
G1 X30.649 Y-74.903 Z-1.410 F60.000
G1 X30.647 Y-75.109 Z-1.415 F60.000
G1 X30.581 Y-75.303 Z-1.420 F60.000
G1 X30.459 Y-75.468 Z-1.426 F60.000
G1 X30.292 Y-75.587 Z-1.430 F60.000
G1 X30.097 Y-75.649 Z-1.435 F60.000
G1 X29.891 Y-75.647 Z-1.440 F60.000
G1 X29.697 Y-75.581 Z-1.445 F60.000
G1 X29.532 Y-75.459 Z-1.451 F60.000
G1 X29.413 Y-75.292 Z-1.455 F60.000
G1 X29.352 Y-75.097 Z-1.457 F60.000
G1 X29.353 Y-74.893 Z-1.462 F60.000
G1 X29.418 Y-74.699 Z-1.467 F60.000
G1 X29.539 Y-74.534 Z-1.474 F60.000
G1 X29.705 Y-74.415 Z-1.481 F60.000
G1 X29.899 Y-74.352 Z-1.488 F60.000
G1 X30.104 Y-74.353 Z-1.494 F60.000
G1 X30.298 Y-74.416 Z-1.498 F60.000
G1 X30.464 Y-74.536 Z-1.500 F60.000
G1 X30.587 Y-74.708 Z-1.505 F60.000
G1 X30.649 Y-74.903 Z-1.510 F60.000
G1 X30.647 Y-75.109 Z-1.515 F60.000
G1 X30.581 Y-75.303 Z-1.520 F60.000
G1 X30.459 Y-75.468 Z-1.526 F60.000
G1 X30.292 Y-75.587 Z-1.530 F60.000
G1 X30.097 Y-75.649 Z-1.535 F60.000
G1 X29.891 Y-75.647 Z-1.540 F60.000
G1 X29.697 Y-75.581 Z-1.545 F60.000
G1 X29.532 Y-75.459 Z-1.551 F60.000
G1 X29.413 Y-75.292 Z-1.555 F60.000
G1 X29.352 Y-75.097 Z-1.557 F60.000
G1 X29.353 Y-74.893 Z-1.562 F60.000
G1 X29.418 Y-74.699 Z-1.567 F60.000
G1 X29.539 Y-74.534 Z-1.574 F60.000
G1 X29.705 Y-74.415 Z-1.581 F60.000
G1 X29.899 Y-74.352 Z-1.588 F60.000
G1 X30.104 Y-74.353 Z-1.594 F60.000
G1 X30.298 Y-74.416 Z-1.598 F60.000
G1 X30.464 Y-74.536 Z-1.600 F60.000
G1 X30.587 Y-74.708 Z-1.605 F60.000
G1 X30.649 Y-74.903 Z-1.610 F60.000
G1 X30.647 Y-75.109 Z-1.615 F60.000
G1 X30.581 Y-75.303 Z-1.620 F60.000
G1 X30.459 Y-75.468 Z-1.626 F60.000
G1 X30.292 Y-75.587 Z-1.630 F60.000
G1 X30.097 Y-75.649 Z-1.635 F60.000
G1 X29.891 Y-75.647 Z-1.640 F60.000
G1 X29.697 Y-75.581 Z-1.645 F60.000
G1 X29.532 Y-75.459 Z-1.651 F60.000
G1 X29.413 Y-75.292 Z-1.655 F60.000
G1 X29.352 Y-75.097 Z-1.657 F60.000
G1 X29.353 Y-74.893 Z-1.662 F60.000
G1 X29.418 Y-74.699 Z-1.667 F60.000
G1 X29.539 Y-74.534 Z-1.674 F60.000
G1 X29.705 Y-74.415 Z-1.681 F60.000
G1 X29.899 Y-74.352 Z-1.688 F60.000
G1 X30.104 Y-74.353 Z-1.694 F60.000
G1 X30.298 Y-74.416 Z-1.698 F60.000
G1 X30.464 Y-74.536 Z-1.700 F60.000
G1 X30.587 Y-74.708 Z-1.705 F60.000
G1 X30.649 Y-74.903 Z-1.710 F60.000
G1 X30.647 Y-75.109 Z-1.715 F60.000
G1 X30.581 Y-75.303 Z-1.720 F60.000
G1 X30.459 Y-75.468 Z-1.726 F60.000
G1 X30.292 Y-75.587 Z-1.730 F60.000
G1 X30.097 Y-75.649 Z-1.735 F60.000
G1 X29.891 Y-75.647 Z-1.740 F60.000
G1 X29.697 Y-75.581 Z-1.745 F60.000
G1 X29.532 Y-75.459 Z-1.751 F60.000
G1 X29.413 Y-75.292 Z-1.755 F60.000
G1 X29.352 Y-75.097 Z-1.757 F60.000
G1 X29.353 Y-74.893 Z-1.762 F60.000
G1 X29.418 Y-74.699 Z-1.767 F60.000
G1 X29.539 Y-74.534 Z-1.774 F60.000
G1 X29.705 Y-74.415 Z-1.781 F60.000
G1 X29.899 Y-74.352 Z-1.788 F60.000
G1 X30.104 Y-74.353 Z-1.794 F60.000
G1 X30.298 Y-74.416 Z-1.798 F60.000
G1 X30.464 Y-74.536 Z-1.800 F60.000
G1 X30.587 Y-74.708 Z-1.805 F60.000
G1 X30.649 Y-74.903 Z-1.810 F60.000
G1 X30.647 Y-75.109 Z-1.815 F60.000
G1 X30.581 Y-75.303 Z-1.820 F60.000
G1 X30.459 Y-75.468 Z-1.826 F60.000
G1 X30.292 Y-75.587 Z-1.830 F60.000
G1 X30.097 Y-75.649 Z-1.835 F60.000
G1 X29.891 Y-75.647 Z-1.840 F60.000
G1 X29.697 Y-75.581 Z-1.845 F60.000
G1 X29.532 Y-75.459 Z-1.851 F60.000
G1 X29.413 Y-75.292 Z-1.855 F60.000
G1 X29.352 Y-75.097 Z-1.857 F60.000
G1 X29.353 Y-74.893 Z-1.862 F60.000
G1 X29.418 Y-74.699 Z-1.867 F60.000
G1 X29.539 Y-74.534 Z-1.874 F60.000
G1 X29.705 Y-74.415 Z-1.881 F60.000
G1 X29.899 Y-74.352 Z-1.888 F60.000
G1 X30.104 Y-74.353 Z-1.894 F60.000
G1 X30.298 Y-74.416 Z-1.898 F60.000
G1 X30.464 Y-74.536 Z-1.900 F60.000
G1 X30.587 Y-74.708 Z-1.905 F60.000
G1 X30.649 Y-74.903 Z-1.910 F60.000
G1 X30.647 Y-75.109 Z-1.915 F60.000
G1 X30.581 Y-75.303 Z-1.920 F60.000
G1 X30.459 Y-75.468 Z-1.926 F60.000
G1 X30.292 Y-75.587 Z-1.930 F60.000
G1 X30.097 Y-75.649 Z-1.935 F60.000
G1 X29.891 Y-75.647 Z-1.940 F60.000
G1 X29.697 Y-75.581 Z-1.945 F60.000
G1 X29.532 Y-75.459 Z-1.951 F60.000
G1 X29.413 Y-75.292 Z-1.955 F60.000
G1 X29.352 Y-75.097 Z-1.957 F60.000
G1 X29.353 Y-74.893 Z-1.962 F60.000
G1 X29.418 Y-74.699 Z-1.967 F60.000
G1 X29.539 Y-74.534 Z-1.974 F60.000
G1 X29.705 Y-74.415 Z-1.981 F60.000
G1 X29.899 Y-74.352 Z-1.988 F60.000
G1 X30.104 Y-74.353 Z-1.994 F60.000
G1 X30.298 Y-74.416 Z-1.998 F60.000
G1 X30.464 Y-74.536 Z-2.000 F60.000
G1 X30.587 Y-74.708 Z-2.005 F60.000
G1 X30.649 Y-74.903 Z-2.010 F60.000
G1 X30.647 Y-75.109 Z-2.015 F60.000
G1 X30.581 Y-75.303 Z-2.020 F60.000
G1 X30.459 Y-75.468 Z-2.026 F60.000
G1 X30.292 Y-75.587 Z-2.030 F60.000
G1 X30.097 Y-75.649 Z-2.035 F60.000
G1 X29.891 Y-75.647 Z-2.040 F60.000
G1 X29.697 Y-75.581 Z-2.045 F60.000
G1 X29.532 Y-75.459 Z-2.051 F60.000
G1 X29.413 Y-75.292 Z-2.055 F60.000
G1 X29.352 Y-75.097 Z-2.057 F60.000
G1 X29.353 Y-74.893 Z-2.062 F60.000
G1 X29.418 Y-74.699 Z-2.067 F60.000
G1 X29.539 Y-74.534 Z-2.074 F60.000
G1 X29.705 Y-74.415 Z-2.081 F60.000
G1 X29.899 Y-74.352 Z-2.088 F60.000
G1 X30.104 Y-74.353 Z-2.094 F60.000
G1 X30.298 Y-74.416 Z-2.098 F60.000
G1 X30.464 Y-74.536 Z-2.100 F60.000
G1 X30.587 Y-74.708 Z-2.105 F60.000
G1 X30.649 Y-74.903 Z-2.110 F60.000
G1 X30.647 Y-75.109 Z-2.115 F60.000
G1 X30.581 Y-75.303 Z-2.120 F60.000
G1 X30.459 Y-75.468 Z-2.126 F60.000
G1 X30.292 Y-75.587 Z-2.130 F60.000
G1 X30.097 Y-75.649 Z-2.135 F60.000
G1 X29.891 Y-75.647 Z-2.140 F60.000
G1 X29.697 Y-75.581 Z-2.145 F60.000
G1 X29.532 Y-75.459 Z-2.151 F60.000
G1 X29.413 Y-75.292 Z-2.155 F60.000
G1 X29.352 Y-75.097 Z-2.157 F60.000
G1 X29.353 Y-74.893 Z-2.162 F60.000
G1 X29.418 Y-74.699 Z-2.167 F60.000
G1 X29.539 Y-74.534 Z-2.174 F60.000
G1 X29.705 Y-74.415 Z-2.181 F60.000
G1 X29.899 Y-74.352 Z-2.188 F60.000
G1 X30.104 Y-74.353 Z-2.194 F60.000
G1 X30.298 Y-74.416 Z-2.198 F60.000
G1 X30.464 Y-74.536 Z-2.200 F60.000
G2 X30.587 Y-74.708 Z-2.200 I-0.464 J-0.464 K0.000 F60.000
G2 X30.292 Y-75.587 Z-2.200 I-0.587 J-0.292 K0.000 F60.000
G2 X29.413 Y-75.292 Z-2.200 I-0.292 J0.587 K0.000 F60.000
G2 X30.464 Y-74.536 Z-2.200 I0.587 J0.292 K0.000 F60.000
G0 X30.464 Y-74.536 Z6.000
(Finish operation: RampEntryDressup048)
(Begin operation: RampEntryDressup049)
(Path: RampEntryDressup049)
G0 X0.000 Y0.000 Z6.000
G0 X30.464 Y-59.537 Z6.000
G0 X30.464 Y-59.537 Z4.000
G1 X30.588 Y-59.751 Z3.861 F60.000
G1 X30.645 Y-59.971 Z3.689 F60.000
G1 X30.630 Y-60.180 Z3.498 F60.000
G1 X30.544 Y-60.365 Z3.299 F60.000
G1 X30.394 Y-60.511 Z3.107 F60.000
G1 X30.190 Y-60.610 Z2.936 F60.000
G1 X29.946 Y-60.654 Z2.797 F60.000
G1 X29.833 Y-60.635 Z2.711 F60.000
G1 X29.627 Y-60.488 Z2.598 F60.000
G1 X29.472 Y-60.318 Z2.445 F60.000
G1 X29.377 Y-60.134 Z2.261 F60.000
G1 X29.349 Y-59.947 Z2.058 F60.000
G1 X29.388 Y-59.770 Z1.849 F60.000
G1 X29.494 Y-59.614 Z1.646 F60.000
G1 X29.658 Y-59.488 Z1.463 F60.000
G1 X29.872 Y-59.400 Z1.310 F60.000
G1 X30.120 Y-59.355 Z1.197 F60.000
G1 X30.306 Y-59.420 Z1.048 F60.000
G1 X30.464 Y-59.537 Z0.900 F60.000
G1 X30.595 Y-59.723 Z0.896 F60.000
G1 X30.654 Y-59.942 Z0.891 F60.000
G1 X30.634 Y-60.169 Z0.884 F60.000
G1 X30.539 Y-60.375 Z0.877 F60.000
G1 X30.378 Y-60.537 Z0.870 F60.000
G1 X30.173 Y-60.633 Z0.865 F60.000
G1 X29.946 Y-60.654 Z0.861 F60.000
G1 X29.833 Y-60.635 Z0.858 F60.000
G1 X29.631 Y-60.542 Z0.857 F60.000
G1 X29.471 Y-60.388 Z0.852 F60.000
G1 X29.372 Y-60.188 Z0.846 F60.000
G1 X29.345 Y-59.967 Z0.838 F60.000
G1 X29.394 Y-59.750 Z0.830 F60.000
G1 X29.512 Y-59.562 Z0.822 F60.000
G1 X29.687 Y-59.424 Z0.816 F60.000
G1 X29.898 Y-59.353 Z0.811 F60.000
G1 X30.120 Y-59.355 Z0.810 F60.000
G1 X30.306 Y-59.420 Z0.805 F60.000
G1 X30.464 Y-59.537 Z0.800 F60.000
G1 X30.595 Y-59.723 Z0.796 F60.000
G1 X30.654 Y-59.942 Z0.791 F60.000
G1 X30.634 Y-60.169 Z0.784 F60.000
G1 X30.539 Y-60.375 Z0.777 F60.000
G1 X30.378 Y-60.537 Z0.770 F60.000
G1 X30.173 Y-60.633 Z0.765 F60.000
G1 X29.946 Y-60.654 Z0.761 F60.000
G1 X29.833 Y-60.635 Z0.758 F60.000
G1 X29.631 Y-60.542 Z0.757 F60.000
G1 X29.471 Y-60.388 Z0.752 F60.000
G1 X29.372 Y-60.188 Z0.746 F60.000
G1 X29.345 Y-59.967 Z0.738 F60.000
G1 X29.394 Y-59.750 Z0.730 F60.000
G1 X29.512 Y-59.562 Z0.722 F60.000
G1 X29.687 Y-59.424 Z0.716 F60.000
G1 X29.898 Y-59.353 Z0.711 F60.000
G1 X30.120 Y-59.355 Z0.710 F60.000
G1 X30.306 Y-59.420 Z0.705 F60.000
G1 X30.464 Y-59.537 Z0.700 F60.000
G1 X30.595 Y-59.723 Z0.696 F60.000
G1 X30.654 Y-59.942 Z0.691 F60.000
G1 X30.634 Y-60.169 Z0.684 F60.000
G1 X30.539 Y-60.375 Z0.677 F60.000
G1 X30.378 Y-60.537 Z0.670 F60.000
G1 X30.173 Y-60.633 Z0.665 F60.000
G1 X29.946 Y-60.654 Z0.661 F60.000
G1 X29.833 Y-60.635 Z0.658 F60.000
G1 X29.631 Y-60.542 Z0.657 F60.000
G1 X29.471 Y-60.388 Z0.652 F60.000
G1 X29.372 Y-60.188 Z0.646 F60.000
G1 X29.345 Y-59.967 Z0.638 F60.000
G1 X29.394 Y-59.750 Z0.630 F60.000
G1 X29.512 Y-59.562 Z0.622 F60.000
G1 X29.687 Y-59.424 Z0.616 F60.000
G1 X29.898 Y-59.353 Z0.611 F60.000
G1 X30.120 Y-59.355 Z0.610 F60.000
G1 X30.306 Y-59.420 Z0.605 F60.000
G1 X30.464 Y-59.537 Z0.600 F60.000
G1 X30.595 Y-59.723 Z0.596 F60.000
G1 X30.654 Y-59.942 Z0.591 F60.000
G1 X30.634 Y-60.169 Z0.584 F60.000
G1 X30.539 Y-60.375 Z0.577 F60.000
G1 X30.378 Y-60.537 Z0.570 F60.000
G1 X30.173 Y-60.633 Z0.565 F60.000
G1 X29.946 Y-60.654 Z0.561 F60.000
G1 X29.833 Y-60.635 Z0.558 F60.000
G1 X29.631 Y-60.542 Z0.557 F60.000
G1 X29.471 Y-60.388 Z0.552 F60.000
G1 X29.372 Y-60.188 Z0.546 F60.000
G1 X29.345 Y-59.967 Z0.538 F60.000
G1 X29.394 Y-59.750 Z0.530 F60.000
G1 X29.512 Y-59.562 Z0.522 F60.000
G1 X29.687 Y-59.424 Z0.516 F60.000
G1 X29.898 Y-59.353 Z0.511 F60.000
G1 X30.120 Y-59.355 Z0.510 F60.000
G1 X30.306 Y-59.420 Z0.505 F60.000
G1 X30.464 Y-59.537 Z0.500 F60.000
G1 X30.595 Y-59.723 Z0.496 F60.000
G1 X30.654 Y-59.942 Z0.491 F60.000
G1 X30.634 Y-60.169 Z0.484 F60.000
G1 X30.539 Y-60.375 Z0.477 F60.000
G1 X30.378 Y-60.537 Z0.470 F60.000
G1 X30.173 Y-60.633 Z0.465 F60.000
G1 X29.946 Y-60.654 Z0.461 F60.000
G1 X29.833 Y-60.635 Z0.458 F60.000
G1 X29.631 Y-60.542 Z0.457 F60.000
G1 X29.471 Y-60.388 Z0.452 F60.000
G1 X29.372 Y-60.188 Z0.446 F60.000
G1 X29.345 Y-59.967 Z0.438 F60.000
G1 X29.394 Y-59.750 Z0.430 F60.000
G1 X29.512 Y-59.562 Z0.422 F60.000
G1 X29.687 Y-59.424 Z0.416 F60.000
G1 X29.898 Y-59.353 Z0.411 F60.000
G1 X30.120 Y-59.355 Z0.410 F60.000
G1 X30.306 Y-59.420 Z0.405 F60.000
G1 X30.464 Y-59.537 Z0.400 F60.000
G1 X30.595 Y-59.723 Z0.396 F60.000
G1 X30.654 Y-59.942 Z0.391 F60.000
G1 X30.634 Y-60.169 Z0.384 F60.000
G1 X30.539 Y-60.375 Z0.377 F60.000
G1 X30.378 Y-60.537 Z0.370 F60.000
G1 X30.173 Y-60.633 Z0.365 F60.000
G1 X29.946 Y-60.654 Z0.361 F60.000
G1 X29.833 Y-60.635 Z0.358 F60.000
G1 X29.631 Y-60.542 Z0.357 F60.000
G1 X29.471 Y-60.388 Z0.352 F60.000
G1 X29.372 Y-60.188 Z0.346 F60.000
G1 X29.345 Y-59.967 Z0.338 F60.000
G1 X29.394 Y-59.750 Z0.330 F60.000
G1 X29.512 Y-59.562 Z0.322 F60.000
G1 X29.687 Y-59.424 Z0.316 F60.000
G1 X29.898 Y-59.353 Z0.311 F60.000
G1 X30.120 Y-59.355 Z0.310 F60.000
G1 X30.306 Y-59.420 Z0.305 F60.000
G1 X30.464 Y-59.537 Z0.300 F60.000
G1 X30.595 Y-59.723 Z0.296 F60.000
G1 X30.654 Y-59.942 Z0.291 F60.000
G1 X30.634 Y-60.169 Z0.284 F60.000
G1 X30.539 Y-60.375 Z0.277 F60.000
G1 X30.378 Y-60.537 Z0.270 F60.000
G1 X30.173 Y-60.633 Z0.265 F60.000
G1 X29.946 Y-60.654 Z0.261 F60.000
G1 X29.833 Y-60.635 Z0.258 F60.000
G1 X29.631 Y-60.542 Z0.257 F60.000
G1 X29.471 Y-60.388 Z0.252 F60.000
G1 X29.372 Y-60.188 Z0.246 F60.000
G1 X29.345 Y-59.967 Z0.238 F60.000
G1 X29.394 Y-59.750 Z0.230 F60.000
G1 X29.512 Y-59.562 Z0.222 F60.000
G1 X29.687 Y-59.424 Z0.216 F60.000
G1 X29.898 Y-59.353 Z0.211 F60.000
G1 X30.120 Y-59.355 Z0.210 F60.000
G1 X30.306 Y-59.420 Z0.205 F60.000
G1 X30.464 Y-59.537 Z0.200 F60.000
G1 X30.595 Y-59.723 Z0.196 F60.000
G1 X30.654 Y-59.942 Z0.191 F60.000
G1 X30.634 Y-60.169 Z0.184 F60.000
G1 X30.539 Y-60.375 Z0.177 F60.000
G1 X30.378 Y-60.537 Z0.170 F60.000
G1 X30.173 Y-60.633 Z0.165 F60.000
G1 X29.946 Y-60.654 Z0.161 F60.000
G1 X29.833 Y-60.635 Z0.158 F60.000
G1 X29.631 Y-60.542 Z0.157 F60.000
G1 X29.471 Y-60.388 Z0.152 F60.000
G1 X29.372 Y-60.188 Z0.146 F60.000
G1 X29.345 Y-59.967 Z0.138 F60.000
G1 X29.394 Y-59.750 Z0.130 F60.000
G1 X29.512 Y-59.562 Z0.122 F60.000
G1 X29.687 Y-59.424 Z0.116 F60.000
G1 X29.898 Y-59.353 Z0.111 F60.000
G1 X30.120 Y-59.355 Z0.110 F60.000
G1 X30.306 Y-59.420 Z0.105 F60.000
G1 X30.464 Y-59.537 Z0.100 F60.000
G1 X30.595 Y-59.723 Z0.096 F60.000
G1 X30.654 Y-59.942 Z0.091 F60.000
G1 X30.634 Y-60.169 Z0.084 F60.000
G1 X30.539 Y-60.375 Z0.077 F60.000
G1 X30.378 Y-60.537 Z0.070 F60.000
G1 X30.173 Y-60.633 Z0.065 F60.000
G1 X29.946 Y-60.654 Z0.061 F60.000
G1 X29.833 Y-60.635 Z0.058 F60.000
G1 X29.631 Y-60.542 Z0.057 F60.000
G1 X29.471 Y-60.388 Z0.052 F60.000
G1 X29.372 Y-60.188 Z0.046 F60.000
G1 X29.345 Y-59.967 Z0.038 F60.000
G1 X29.394 Y-59.750 Z0.030 F60.000
G1 X29.512 Y-59.562 Z0.022 F60.000
G1 X29.687 Y-59.424 Z0.016 F60.000
G1 X29.898 Y-59.353 Z0.011 F60.000
G1 X30.120 Y-59.355 Z0.010 F60.000
G1 X30.306 Y-59.420 Z0.005 F60.000
G1 X30.464 Y-59.537 Z0.000 F60.000
G1 X30.595 Y-59.723 Z-0.004 F60.000
G1 X30.654 Y-59.942 Z-0.009 F60.000
G1 X30.634 Y-60.169 Z-0.016 F60.000
G1 X30.539 Y-60.375 Z-0.023 F60.000
G1 X30.378 Y-60.537 Z-0.030 F60.000
G1 X30.173 Y-60.633 Z-0.035 F60.000
G1 X29.946 Y-60.654 Z-0.039 F60.000
G1 X29.833 Y-60.635 Z-0.042 F60.000
G1 X29.631 Y-60.542 Z-0.043 F60.000
G1 X29.471 Y-60.388 Z-0.048 F60.000
G1 X29.372 Y-60.188 Z-0.054 F60.000
G1 X29.345 Y-59.967 Z-0.062 F60.000
G1 X29.394 Y-59.750 Z-0.070 F60.000
G1 X29.512 Y-59.562 Z-0.078 F60.000
G1 X29.687 Y-59.424 Z-0.084 F60.000
G1 X29.898 Y-59.353 Z-0.089 F60.000
G1 X30.120 Y-59.355 Z-0.090 F60.000
G1 X30.306 Y-59.420 Z-0.095 F60.000
G1 X30.464 Y-59.537 Z-0.100 F60.000
G1 X30.595 Y-59.723 Z-0.104 F60.000
G1 X30.654 Y-59.942 Z-0.109 F60.000
G1 X30.634 Y-60.169 Z-0.116 F60.000
G1 X30.539 Y-60.375 Z-0.123 F60.000
G1 X30.378 Y-60.537 Z-0.130 F60.000
G1 X30.173 Y-60.633 Z-0.135 F60.000
G1 X29.946 Y-60.654 Z-0.139 F60.000
G1 X29.833 Y-60.635 Z-0.142 F60.000
G1 X29.631 Y-60.542 Z-0.143 F60.000
G1 X29.471 Y-60.388 Z-0.148 F60.000
G1 X29.372 Y-60.188 Z-0.154 F60.000
G1 X29.345 Y-59.967 Z-0.162 F60.000
G1 X29.394 Y-59.750 Z-0.170 F60.000
G1 X29.512 Y-59.562 Z-0.178 F60.000
G1 X29.687 Y-59.424 Z-0.184 F60.000
G1 X29.898 Y-59.353 Z-0.189 F60.000
G1 X30.120 Y-59.355 Z-0.190 F60.000
G1 X30.306 Y-59.420 Z-0.195 F60.000
G1 X30.464 Y-59.537 Z-0.200 F60.000
G1 X30.595 Y-59.723 Z-0.204 F60.000
G1 X30.654 Y-59.942 Z-0.209 F60.000
G1 X30.634 Y-60.169 Z-0.216 F60.000
G1 X30.539 Y-60.375 Z-0.223 F60.000
G1 X30.378 Y-60.537 Z-0.230 F60.000
G1 X30.173 Y-60.633 Z-0.235 F60.000
G1 X29.946 Y-60.654 Z-0.239 F60.000
G1 X29.833 Y-60.635 Z-0.242 F60.000
G1 X29.631 Y-60.542 Z-0.243 F60.000
G1 X29.471 Y-60.388 Z-0.248 F60.000
G1 X29.372 Y-60.188 Z-0.254 F60.000
G1 X29.345 Y-59.967 Z-0.262 F60.000
G1 X29.394 Y-59.750 Z-0.270 F60.000
G1 X29.512 Y-59.562 Z-0.278 F60.000
G1 X29.687 Y-59.424 Z-0.284 F60.000
G1 X29.898 Y-59.353 Z-0.289 F60.000
G1 X30.120 Y-59.355 Z-0.290 F60.000
G1 X30.306 Y-59.420 Z-0.295 F60.000
G1 X30.464 Y-59.537 Z-0.300 F60.000
G1 X30.595 Y-59.723 Z-0.304 F60.000
G1 X30.654 Y-59.942 Z-0.309 F60.000
G1 X30.634 Y-60.169 Z-0.316 F60.000
G1 X30.539 Y-60.375 Z-0.323 F60.000
G1 X30.378 Y-60.537 Z-0.330 F60.000
G1 X30.173 Y-60.633 Z-0.335 F60.000
G1 X29.946 Y-60.654 Z-0.339 F60.000
G1 X29.833 Y-60.635 Z-0.342 F60.000
G1 X29.631 Y-60.542 Z-0.343 F60.000
G1 X29.471 Y-60.388 Z-0.348 F60.000
G1 X29.372 Y-60.188 Z-0.354 F60.000
G1 X29.345 Y-59.967 Z-0.362 F60.000
G1 X29.394 Y-59.750 Z-0.370 F60.000
G1 X29.512 Y-59.562 Z-0.378 F60.000
G1 X29.687 Y-59.424 Z-0.384 F60.000
G1 X29.898 Y-59.353 Z-0.389 F60.000
G1 X30.120 Y-59.355 Z-0.390 F60.000
G1 X30.306 Y-59.420 Z-0.395 F60.000
G1 X30.464 Y-59.537 Z-0.400 F60.000
G1 X30.595 Y-59.723 Z-0.404 F60.000
G1 X30.654 Y-59.942 Z-0.409 F60.000
G1 X30.634 Y-60.169 Z-0.416 F60.000
G1 X30.539 Y-60.375 Z-0.423 F60.000
G1 X30.378 Y-60.537 Z-0.430 F60.000
G1 X30.173 Y-60.633 Z-0.435 F60.000
G1 X29.946 Y-60.654 Z-0.439 F60.000
G1 X29.833 Y-60.635 Z-0.442 F60.000
G1 X29.631 Y-60.542 Z-0.443 F60.000
G1 X29.471 Y-60.388 Z-0.448 F60.000
G1 X29.372 Y-60.188 Z-0.454 F60.000
G1 X29.345 Y-59.967 Z-0.462 F60.000
G1 X29.394 Y-59.750 Z-0.470 F60.000
G1 X29.512 Y-59.562 Z-0.478 F60.000
G1 X29.687 Y-59.424 Z-0.484 F60.000
G1 X29.898 Y-59.353 Z-0.489 F60.000
G1 X30.120 Y-59.355 Z-0.490 F60.000
G1 X30.306 Y-59.420 Z-0.495 F60.000
G1 X30.464 Y-59.537 Z-0.500 F60.000
G1 X30.595 Y-59.723 Z-0.504 F60.000
G1 X30.654 Y-59.942 Z-0.509 F60.000
G1 X30.634 Y-60.169 Z-0.516 F60.000
G1 X30.539 Y-60.375 Z-0.523 F60.000
G1 X30.378 Y-60.537 Z-0.530 F60.000
G1 X30.173 Y-60.633 Z-0.535 F60.000
G1 X29.946 Y-60.654 Z-0.539 F60.000
G1 X29.833 Y-60.635 Z-0.542 F60.000
G1 X29.631 Y-60.542 Z-0.543 F60.000
G1 X29.471 Y-60.388 Z-0.548 F60.000
G1 X29.372 Y-60.188 Z-0.554 F60.000
G1 X29.345 Y-59.967 Z-0.562 F60.000
G1 X29.394 Y-59.750 Z-0.570 F60.000
G1 X29.512 Y-59.562 Z-0.578 F60.000
G1 X29.687 Y-59.424 Z-0.584 F60.000
G1 X29.898 Y-59.353 Z-0.589 F60.000
G1 X30.120 Y-59.355 Z-0.590 F60.000
G1 X30.306 Y-59.420 Z-0.595 F60.000
G1 X30.464 Y-59.537 Z-0.600 F60.000
G1 X30.595 Y-59.723 Z-0.604 F60.000
G1 X30.654 Y-59.942 Z-0.609 F60.000
G1 X30.634 Y-60.169 Z-0.616 F60.000
G1 X30.539 Y-60.375 Z-0.623 F60.000
G1 X30.378 Y-60.537 Z-0.630 F60.000
G1 X30.173 Y-60.633 Z-0.635 F60.000
G1 X29.946 Y-60.654 Z-0.639 F60.000
G1 X29.833 Y-60.635 Z-0.642 F60.000
G1 X29.631 Y-60.542 Z-0.643 F60.000
G1 X29.471 Y-60.388 Z-0.648 F60.000
G1 X29.372 Y-60.188 Z-0.654 F60.000
G1 X29.345 Y-59.967 Z-0.662 F60.000
G1 X29.394 Y-59.750 Z-0.670 F60.000
G1 X29.512 Y-59.562 Z-0.678 F60.000
G1 X29.687 Y-59.424 Z-0.684 F60.000
G1 X29.898 Y-59.353 Z-0.689 F60.000
G1 X30.120 Y-59.355 Z-0.690 F60.000
G1 X30.306 Y-59.420 Z-0.695 F60.000
G1 X30.464 Y-59.537 Z-0.700 F60.000
G1 X30.595 Y-59.723 Z-0.704 F60.000
G1 X30.654 Y-59.942 Z-0.709 F60.000
G1 X30.634 Y-60.169 Z-0.716 F60.000
G1 X30.539 Y-60.375 Z-0.723 F60.000
G1 X30.378 Y-60.537 Z-0.730 F60.000
G1 X30.173 Y-60.633 Z-0.735 F60.000
G1 X29.946 Y-60.654 Z-0.739 F60.000
G1 X29.833 Y-60.635 Z-0.742 F60.000
G1 X29.631 Y-60.542 Z-0.743 F60.000
G1 X29.471 Y-60.388 Z-0.748 F60.000
G1 X29.372 Y-60.188 Z-0.754 F60.000
G1 X29.345 Y-59.967 Z-0.762 F60.000
G1 X29.394 Y-59.750 Z-0.770 F60.000
G1 X29.512 Y-59.562 Z-0.778 F60.000
G1 X29.687 Y-59.424 Z-0.784 F60.000
G1 X29.898 Y-59.353 Z-0.789 F60.000
G1 X30.120 Y-59.355 Z-0.790 F60.000
G1 X30.306 Y-59.420 Z-0.795 F60.000
G1 X30.464 Y-59.537 Z-0.800 F60.000
G1 X30.595 Y-59.723 Z-0.804 F60.000
G1 X30.654 Y-59.942 Z-0.809 F60.000
G1 X30.634 Y-60.169 Z-0.816 F60.000
G1 X30.539 Y-60.375 Z-0.823 F60.000
G1 X30.378 Y-60.537 Z-0.830 F60.000
G1 X30.173 Y-60.633 Z-0.835 F60.000
G1 X29.946 Y-60.654 Z-0.839 F60.000
G1 X29.833 Y-60.635 Z-0.842 F60.000
G1 X29.631 Y-60.542 Z-0.843 F60.000
G1 X29.471 Y-60.388 Z-0.848 F60.000
G1 X29.372 Y-60.188 Z-0.854 F60.000
G1 X29.345 Y-59.967 Z-0.862 F60.000
G1 X29.394 Y-59.750 Z-0.870 F60.000
G1 X29.512 Y-59.562 Z-0.878 F60.000
G1 X29.687 Y-59.424 Z-0.884 F60.000
G1 X29.898 Y-59.353 Z-0.889 F60.000
G1 X30.120 Y-59.355 Z-0.890 F60.000
G1 X30.306 Y-59.420 Z-0.895 F60.000
G1 X30.464 Y-59.537 Z-0.900 F60.000
G1 X30.595 Y-59.723 Z-0.904 F60.000
G1 X30.654 Y-59.942 Z-0.909 F60.000
G1 X30.634 Y-60.169 Z-0.916 F60.000
G1 X30.539 Y-60.375 Z-0.923 F60.000
G1 X30.378 Y-60.537 Z-0.930 F60.000
G1 X30.173 Y-60.633 Z-0.935 F60.000
G1 X29.946 Y-60.654 Z-0.939 F60.000
G1 X29.833 Y-60.635 Z-0.942 F60.000
G1 X29.631 Y-60.542 Z-0.943 F60.000
G1 X29.471 Y-60.388 Z-0.948 F60.000
G1 X29.372 Y-60.188 Z-0.954 F60.000
G1 X29.345 Y-59.967 Z-0.962 F60.000
G1 X29.394 Y-59.750 Z-0.970 F60.000
G1 X29.512 Y-59.562 Z-0.978 F60.000
G1 X29.687 Y-59.424 Z-0.984 F60.000
G1 X29.898 Y-59.353 Z-0.989 F60.000
G1 X30.120 Y-59.355 Z-0.990 F60.000
G1 X30.306 Y-59.420 Z-0.995 F60.000
G1 X30.464 Y-59.537 Z-1.000 F60.000
G1 X30.595 Y-59.723 Z-1.004 F60.000
G1 X30.654 Y-59.942 Z-1.009 F60.000
G1 X30.634 Y-60.169 Z-1.016 F60.000
G1 X30.539 Y-60.375 Z-1.023 F60.000
G1 X30.378 Y-60.537 Z-1.030 F60.000
G1 X30.173 Y-60.633 Z-1.035 F60.000
G1 X29.946 Y-60.654 Z-1.039 F60.000
G1 X29.833 Y-60.635 Z-1.042 F60.000
G1 X29.631 Y-60.542 Z-1.043 F60.000
G1 X29.471 Y-60.388 Z-1.048 F60.000
G1 X29.372 Y-60.188 Z-1.054 F60.000
G1 X29.345 Y-59.967 Z-1.062 F60.000
G1 X29.394 Y-59.750 Z-1.070 F60.000
G1 X29.512 Y-59.562 Z-1.078 F60.000
G1 X29.687 Y-59.424 Z-1.084 F60.000
G1 X29.898 Y-59.353 Z-1.089 F60.000
G1 X30.120 Y-59.355 Z-1.090 F60.000
G1 X30.306 Y-59.420 Z-1.095 F60.000
G1 X30.464 Y-59.537 Z-1.100 F60.000
G1 X30.595 Y-59.723 Z-1.104 F60.000
G1 X30.654 Y-59.942 Z-1.109 F60.000
G1 X30.634 Y-60.169 Z-1.116 F60.000
G1 X30.539 Y-60.375 Z-1.123 F60.000
G1 X30.378 Y-60.537 Z-1.130 F60.000
G1 X30.173 Y-60.633 Z-1.135 F60.000
G1 X29.946 Y-60.654 Z-1.139 F60.000
G1 X29.833 Y-60.635 Z-1.142 F60.000
G1 X29.631 Y-60.542 Z-1.143 F60.000
G1 X29.471 Y-60.388 Z-1.148 F60.000
G1 X29.372 Y-60.188 Z-1.154 F60.000
G1 X29.345 Y-59.967 Z-1.162 F60.000
G1 X29.394 Y-59.750 Z-1.170 F60.000
G1 X29.512 Y-59.562 Z-1.178 F60.000
G1 X29.687 Y-59.424 Z-1.184 F60.000
G1 X29.898 Y-59.353 Z-1.189 F60.000
G1 X30.120 Y-59.355 Z-1.190 F60.000
G1 X30.306 Y-59.420 Z-1.195 F60.000
G1 X30.464 Y-59.537 Z-1.200 F60.000
G1 X30.595 Y-59.723 Z-1.204 F60.000
G1 X30.654 Y-59.942 Z-1.209 F60.000
G1 X30.634 Y-60.169 Z-1.216 F60.000
G1 X30.539 Y-60.375 Z-1.223 F60.000
G1 X30.378 Y-60.537 Z-1.230 F60.000
G1 X30.173 Y-60.633 Z-1.235 F60.000
G1 X29.946 Y-60.654 Z-1.239 F60.000
G1 X29.833 Y-60.635 Z-1.242 F60.000
G1 X29.631 Y-60.542 Z-1.243 F60.000
G1 X29.471 Y-60.388 Z-1.248 F60.000
G1 X29.372 Y-60.188 Z-1.254 F60.000
G1 X29.345 Y-59.967 Z-1.262 F60.000
G1 X29.394 Y-59.750 Z-1.270 F60.000
G1 X29.512 Y-59.562 Z-1.278 F60.000
G1 X29.687 Y-59.424 Z-1.284 F60.000
G1 X29.898 Y-59.353 Z-1.289 F60.000
G1 X30.120 Y-59.355 Z-1.290 F60.000
G1 X30.306 Y-59.420 Z-1.295 F60.000
G1 X30.464 Y-59.537 Z-1.300 F60.000
G1 X30.595 Y-59.723 Z-1.304 F60.000
G1 X30.654 Y-59.942 Z-1.309 F60.000
G1 X30.634 Y-60.169 Z-1.316 F60.000
G1 X30.539 Y-60.375 Z-1.323 F60.000
G1 X30.378 Y-60.537 Z-1.330 F60.000
G1 X30.173 Y-60.633 Z-1.335 F60.000
G1 X29.946 Y-60.654 Z-1.339 F60.000
G1 X29.833 Y-60.635 Z-1.342 F60.000
G1 X29.631 Y-60.542 Z-1.343 F60.000
G1 X29.471 Y-60.388 Z-1.348 F60.000
G1 X29.372 Y-60.188 Z-1.354 F60.000
G1 X29.345 Y-59.967 Z-1.362 F60.000
G1 X29.394 Y-59.750 Z-1.370 F60.000
G1 X29.512 Y-59.562 Z-1.378 F60.000
G1 X29.687 Y-59.424 Z-1.384 F60.000
G1 X29.898 Y-59.353 Z-1.389 F60.000
G1 X30.120 Y-59.355 Z-1.390 F60.000
G1 X30.306 Y-59.420 Z-1.395 F60.000
G1 X30.464 Y-59.537 Z-1.400 F60.000
G1 X30.595 Y-59.723 Z-1.404 F60.000
G1 X30.654 Y-59.942 Z-1.409 F60.000
G1 X30.634 Y-60.169 Z-1.416 F60.000
G1 X30.539 Y-60.375 Z-1.423 F60.000
G1 X30.378 Y-60.537 Z-1.430 F60.000
G1 X30.173 Y-60.633 Z-1.435 F60.000
G1 X29.946 Y-60.654 Z-1.439 F60.000
G1 X29.833 Y-60.635 Z-1.442 F60.000
G1 X29.631 Y-60.542 Z-1.443 F60.000
G1 X29.471 Y-60.388 Z-1.448 F60.000
G1 X29.372 Y-60.188 Z-1.454 F60.000
G1 X29.345 Y-59.967 Z-1.462 F60.000
G1 X29.394 Y-59.750 Z-1.470 F60.000
G1 X29.512 Y-59.562 Z-1.478 F60.000
G1 X29.687 Y-59.424 Z-1.484 F60.000
G1 X29.898 Y-59.353 Z-1.489 F60.000
G1 X30.120 Y-59.355 Z-1.490 F60.000
G1 X30.306 Y-59.420 Z-1.495 F60.000
G1 X30.464 Y-59.537 Z-1.500 F60.000
G1 X30.595 Y-59.723 Z-1.504 F60.000
G1 X30.654 Y-59.942 Z-1.509 F60.000
G1 X30.634 Y-60.169 Z-1.516 F60.000
G1 X30.539 Y-60.375 Z-1.523 F60.000
G1 X30.378 Y-60.537 Z-1.530 F60.000
G1 X30.173 Y-60.633 Z-1.535 F60.000
G1 X29.946 Y-60.654 Z-1.539 F60.000
G1 X29.833 Y-60.635 Z-1.542 F60.000
G1 X29.631 Y-60.542 Z-1.543 F60.000
G1 X29.471 Y-60.388 Z-1.548 F60.000
G1 X29.372 Y-60.188 Z-1.554 F60.000
G1 X29.345 Y-59.967 Z-1.562 F60.000
G1 X29.394 Y-59.750 Z-1.570 F60.000
G1 X29.512 Y-59.562 Z-1.578 F60.000
G1 X29.687 Y-59.424 Z-1.584 F60.000
G1 X29.898 Y-59.353 Z-1.589 F60.000
G1 X30.120 Y-59.355 Z-1.590 F60.000
G1 X30.306 Y-59.420 Z-1.595 F60.000
G1 X30.464 Y-59.537 Z-1.600 F60.000
G1 X30.595 Y-59.723 Z-1.604 F60.000
G1 X30.654 Y-59.942 Z-1.609 F60.000
G1 X30.634 Y-60.169 Z-1.616 F60.000
G1 X30.539 Y-60.375 Z-1.623 F60.000
G1 X30.378 Y-60.537 Z-1.630 F60.000
G1 X30.173 Y-60.633 Z-1.635 F60.000
G1 X29.946 Y-60.654 Z-1.639 F60.000
G1 X29.833 Y-60.635 Z-1.642 F60.000
G1 X29.631 Y-60.542 Z-1.643 F60.000
G1 X29.471 Y-60.388 Z-1.648 F60.000
G1 X29.372 Y-60.188 Z-1.654 F60.000
G1 X29.345 Y-59.967 Z-1.662 F60.000
G1 X29.394 Y-59.750 Z-1.670 F60.000
G1 X29.512 Y-59.562 Z-1.678 F60.000
G1 X29.687 Y-59.424 Z-1.684 F60.000
G1 X29.898 Y-59.353 Z-1.689 F60.000
G1 X30.120 Y-59.355 Z-1.690 F60.000
G1 X30.306 Y-59.420 Z-1.695 F60.000
G1 X30.464 Y-59.537 Z-1.700 F60.000
G1 X30.595 Y-59.723 Z-1.704 F60.000
G1 X30.654 Y-59.942 Z-1.709 F60.000
G1 X30.634 Y-60.169 Z-1.716 F60.000
G1 X30.539 Y-60.375 Z-1.723 F60.000
G1 X30.378 Y-60.537 Z-1.730 F60.000
G1 X30.173 Y-60.633 Z-1.735 F60.000
G1 X29.946 Y-60.654 Z-1.739 F60.000
G1 X29.833 Y-60.635 Z-1.742 F60.000
G1 X29.631 Y-60.542 Z-1.743 F60.000
G1 X29.471 Y-60.388 Z-1.748 F60.000
G1 X29.372 Y-60.188 Z-1.754 F60.000
G1 X29.345 Y-59.967 Z-1.762 F60.000
G1 X29.394 Y-59.750 Z-1.770 F60.000
G1 X29.512 Y-59.562 Z-1.778 F60.000
G1 X29.687 Y-59.424 Z-1.784 F60.000
G1 X29.898 Y-59.353 Z-1.789 F60.000
G1 X30.120 Y-59.355 Z-1.790 F60.000
G1 X30.306 Y-59.420 Z-1.795 F60.000
G1 X30.464 Y-59.537 Z-1.800 F60.000
G1 X30.595 Y-59.723 Z-1.804 F60.000
G1 X30.654 Y-59.942 Z-1.809 F60.000
G1 X30.634 Y-60.169 Z-1.816 F60.000
G1 X30.539 Y-60.375 Z-1.823 F60.000
G1 X30.378 Y-60.537 Z-1.830 F60.000
G1 X30.173 Y-60.633 Z-1.835 F60.000
G1 X29.946 Y-60.654 Z-1.839 F60.000
G1 X29.833 Y-60.635 Z-1.842 F60.000
G1 X29.631 Y-60.542 Z-1.843 F60.000
G1 X29.471 Y-60.388 Z-1.848 F60.000
G1 X29.372 Y-60.188 Z-1.854 F60.000
G1 X29.345 Y-59.967 Z-1.862 F60.000
G1 X29.394 Y-59.750 Z-1.870 F60.000
G1 X29.512 Y-59.562 Z-1.878 F60.000
G1 X29.687 Y-59.424 Z-1.884 F60.000
G1 X29.898 Y-59.353 Z-1.889 F60.000
G1 X30.120 Y-59.355 Z-1.890 F60.000
G1 X30.306 Y-59.420 Z-1.895 F60.000
G1 X30.464 Y-59.537 Z-1.900 F60.000
G1 X30.595 Y-59.723 Z-1.904 F60.000
G1 X30.654 Y-59.942 Z-1.909 F60.000
G1 X30.634 Y-60.169 Z-1.916 F60.000
G1 X30.539 Y-60.375 Z-1.923 F60.000
G1 X30.378 Y-60.537 Z-1.930 F60.000
G1 X30.173 Y-60.633 Z-1.935 F60.000
G1 X29.946 Y-60.654 Z-1.939 F60.000
G1 X29.833 Y-60.635 Z-1.942 F60.000
G1 X29.631 Y-60.542 Z-1.943 F60.000
G1 X29.471 Y-60.388 Z-1.948 F60.000
G1 X29.372 Y-60.188 Z-1.954 F60.000
G1 X29.345 Y-59.967 Z-1.962 F60.000
G1 X29.394 Y-59.750 Z-1.970 F60.000
G1 X29.512 Y-59.562 Z-1.978 F60.000
G1 X29.687 Y-59.424 Z-1.984 F60.000
G1 X29.898 Y-59.353 Z-1.989 F60.000
G1 X30.120 Y-59.355 Z-1.990 F60.000
G1 X30.306 Y-59.420 Z-1.995 F60.000
G1 X30.464 Y-59.537 Z-2.000 F60.000
G1 X30.595 Y-59.723 Z-2.004 F60.000
G1 X30.654 Y-59.942 Z-2.009 F60.000
G1 X30.634 Y-60.169 Z-2.016 F60.000
G1 X30.539 Y-60.375 Z-2.023 F60.000
G1 X30.378 Y-60.537 Z-2.030 F60.000
G1 X30.173 Y-60.633 Z-2.035 F60.000
G1 X29.946 Y-60.654 Z-2.039 F60.000
G1 X29.833 Y-60.635 Z-2.042 F60.000
G1 X29.631 Y-60.542 Z-2.043 F60.000
G1 X29.471 Y-60.388 Z-2.048 F60.000
G1 X29.372 Y-60.188 Z-2.054 F60.000
G1 X29.345 Y-59.967 Z-2.062 F60.000
G1 X29.394 Y-59.750 Z-2.070 F60.000
G1 X29.512 Y-59.562 Z-2.078 F60.000
G1 X29.687 Y-59.424 Z-2.084 F60.000
G1 X29.898 Y-59.353 Z-2.089 F60.000
G1 X30.120 Y-59.355 Z-2.090 F60.000
G1 X30.306 Y-59.420 Z-2.095 F60.000
G1 X30.464 Y-59.537 Z-2.100 F60.000
G1 X30.595 Y-59.723 Z-2.104 F60.000
G1 X30.654 Y-59.942 Z-2.109 F60.000
G1 X30.634 Y-60.169 Z-2.116 F60.000
G1 X30.539 Y-60.375 Z-2.123 F60.000
G1 X30.378 Y-60.537 Z-2.130 F60.000
G1 X30.173 Y-60.633 Z-2.135 F60.000
G1 X29.946 Y-60.654 Z-2.139 F60.000
G1 X29.833 Y-60.635 Z-2.142 F60.000
G1 X29.631 Y-60.542 Z-2.143 F60.000
G1 X29.471 Y-60.388 Z-2.148 F60.000
G1 X29.372 Y-60.188 Z-2.154 F60.000
G1 X29.345 Y-59.967 Z-2.162 F60.000
G1 X29.394 Y-59.750 Z-2.170 F60.000
G1 X29.512 Y-59.562 Z-2.178 F60.000
G1 X29.687 Y-59.424 Z-2.184 F60.000
G1 X29.898 Y-59.353 Z-2.189 F60.000
G1 X30.120 Y-59.355 Z-2.190 F60.000
G1 X30.306 Y-59.420 Z-2.195 F60.000
G1 X30.464 Y-59.537 Z-2.200 F60.000
G2 X29.946 Y-60.654 Z-2.200 I-0.464 J-0.464 K0.000 F60.000
G1 X29.833 Y-60.635 Z-2.200 F60.000
G2 X30.120 Y-59.355 Z-2.200 I0.167 J0.634 K0.000 F60.000
G2 X30.464 Y-59.537 Z-2.200 I-0.120 J-0.645 K0.000 F60.000
G0 X30.464 Y-59.537 Z6.000
(Finish operation: RampEntryDressup049)
(Begin operation: RampEntryDressup050)
(Path: RampEntryDressup050)
G0 X0.000 Y0.000 Z6.000
G0 X17.234 Y-27.766 Z6.000
G0 X17.234 Y-27.766 Z4.000
G1 X17.544 Y-28.133 Z3.958 F60.000
G1 X17.795 Y-28.541 Z3.904 F60.000
G1 X17.984 Y-28.979 Z3.839 F60.000
G1 X18.104 Y-29.440 Z3.764 F60.000
G1 X18.155 Y-29.912 Z3.681 F60.000
G1 X18.134 Y-30.385 Z3.592 F60.000
G1 X18.043 Y-30.849 Z3.499 F60.000
G1 X17.883 Y-31.293 Z3.404 F60.000
G1 X17.657 Y-31.709 Z3.309 F60.000
G1 X17.372 Y-32.085 Z3.216 F60.000
G1 X17.032 Y-32.415 Z3.128 F60.000
G1 X16.646 Y-32.691 Z3.045 F60.000
G1 X16.221 Y-32.907 Z2.970 F60.000
G1 X15.768 Y-33.058 Z2.905 F60.000
G1 X15.297 Y-33.141 Z2.851 F60.000
G1 X14.817 Y-33.154 Z2.809 F60.000
G1 X14.438 Y-33.109 Z2.749 F60.000
G1 X13.965 Y-32.973 Z2.734 F60.000
G1 X13.517 Y-32.770 Z2.702 F60.000
G1 X13.106 Y-32.503 Z2.653 F60.000
G1 X12.740 Y-32.179 Z2.590 F60.000
G1 X12.428 Y-31.805 Z2.512 F60.000
G1 X12.177 Y-31.391 Z2.422 F60.000
G1 X11.993 Y-30.944 Z2.323 F60.000
G1 X11.881 Y-30.477 Z2.215 F60.000
G1 X11.842 Y-29.999 Z2.103 F60.000
G1 X11.877 Y-29.521 Z1.987 F60.000
G1 X11.987 Y-29.054 Z1.872 F60.000
G1 X12.167 Y-28.610 Z1.760 F60.000
G1 X12.415 Y-28.198 Z1.652 F60.000
G1 X12.724 Y-27.827 Z1.553 F60.000
G1 X13.087 Y-27.507 Z1.463 F60.000
G1 X13.497 Y-27.244 Z1.385 F60.000
G1 X13.943 Y-27.044 Z1.321 F60.000
G1 X14.416 Y-26.913 Z1.273 F60.000
G1 X14.904 Y-26.853 Z1.241 F60.000
G1 X15.396 Y-26.866 Z1.226 F60.000
G1 X15.805 Y-26.945 Z1.162 F60.000
G1 X16.200 Y-27.077 Z1.096 F60.000
G1 X16.574 Y-27.261 Z1.030 F60.000
G1 X16.921 Y-27.491 Z0.964 F60.000
G1 X17.234 Y-27.766 Z0.900 F60.000
G1 X17.545 Y-28.127 Z0.899 F60.000
G1 X17.797 Y-28.531 Z0.897 F60.000
G1 X17.986 Y-28.968 Z0.895 F60.000
G1 X18.107 Y-29.429 Z0.892 F60.000
G1 X18.158 Y-29.902 Z0.890 F60.000
G1 X18.137 Y-30.378 Z0.887 F60.000
G1 X18.044 Y-30.845 Z0.884 F60.000
G1 X17.883 Y-31.293 Z0.881 F60.000
G1 X17.656 Y-31.712 Z0.878 F60.000
G1 X17.368 Y-32.092 Z0.875 F60.000
G1 X17.027 Y-32.424 Z0.872 F60.000
G1 X16.639 Y-32.701 Z0.869 F60.000
G1 X16.215 Y-32.917 Z0.867 F60.000
G1 X15.763 Y-33.066 Z0.865 F60.000
G1 X15.293 Y-33.146 Z0.863 F60.000
G1 X14.817 Y-33.154 Z0.862 F60.000
G1 X14.438 Y-33.109 Z0.860 F60.000
G1 X13.966 Y-32.986 Z0.859 F60.000
G1 X13.520 Y-32.791 Z0.858 F60.000
G1 X13.108 Y-32.530 Z0.857 F60.000
G1 X12.741 Y-32.209 Z0.855 F60.000
G1 X12.428 Y-31.835 Z0.852 F60.000
G1 X12.177 Y-31.418 Z0.849 F60.000
G1 X11.992 Y-30.967 Z0.846 F60.000
G1 X11.879 Y-30.493 Z0.843 F60.000
G1 X11.841 Y-30.007 Z0.839 F60.000
G1 X11.877 Y-29.521 Z0.835 F60.000
G1 X11.988 Y-29.046 Z0.831 F60.000
G1 X12.171 Y-28.594 Z0.828 F60.000
G1 X12.420 Y-28.176 Z0.824 F60.000
G1 X12.732 Y-27.801 Z0.821 F60.000
G1 X13.097 Y-27.478 Z0.818 F60.000
G1 X13.507 Y-27.216 Z0.815 F60.000
G1 X13.954 Y-27.019 Z0.813 F60.000
G1 X14.424 Y-26.894 Z0.812 F60.000
G1 X14.909 Y-26.842 Z0.811 F60.000
G1 X15.396 Y-26.866 Z0.811 F60.000
G1 X15.805 Y-26.945 Z0.808 F60.000
G1 X16.200 Y-27.077 Z0.806 F60.000
G1 X16.574 Y-27.261 Z0.804 F60.000
G1 X16.921 Y-27.492 Z0.802 F60.000
G1 X17.234 Y-27.766 Z0.800 F60.000
G1 X17.545 Y-28.127 Z0.799 F60.000
G1 X17.797 Y-28.531 Z0.797 F60.000
G1 X17.986 Y-28.968 Z0.795 F60.000
G1 X18.107 Y-29.429 Z0.792 F60.000
G1 X18.158 Y-29.902 Z0.790 F60.000
G1 X18.137 Y-30.378 Z0.787 F60.000
G1 X18.044 Y-30.845 Z0.784 F60.000
G1 X17.883 Y-31.293 Z0.781 F60.000
G1 X17.656 Y-31.712 Z0.778 F60.000
G1 X17.368 Y-32.092 Z0.775 F60.000
G1 X17.027 Y-32.424 Z0.772 F60.000
G1 X16.639 Y-32.701 Z0.769 F60.000
G1 X16.215 Y-32.917 Z0.767 F60.000
G1 X15.763 Y-33.066 Z0.765 F60.000
G1 X15.293 Y-33.146 Z0.763 F60.000
G1 X14.817 Y-33.154 Z0.762 F60.000
G1 X14.438 Y-33.109 Z0.760 F60.000
G1 X13.966 Y-32.986 Z0.759 F60.000
G1 X13.520 Y-32.791 Z0.758 F60.000
G1 X13.108 Y-32.530 Z0.757 F60.000
G1 X12.741 Y-32.209 Z0.755 F60.000
G1 X12.428 Y-31.835 Z0.752 F60.000
G1 X12.177 Y-31.418 Z0.749 F60.000
G1 X11.992 Y-30.967 Z0.746 F60.000
G1 X11.879 Y-30.493 Z0.743 F60.000
G1 X11.841 Y-30.007 Z0.739 F60.000
G1 X11.877 Y-29.521 Z0.735 F60.000
G1 X11.988 Y-29.046 Z0.731 F60.000
G1 X12.171 Y-28.594 Z0.728 F60.000
G1 X12.420 Y-28.176 Z0.724 F60.000
G1 X12.732 Y-27.801 Z0.721 F60.000
G1 X13.097 Y-27.478 Z0.718 F60.000
G1 X13.507 Y-27.216 Z0.715 F60.000
G1 X13.954 Y-27.019 Z0.713 F60.000
G1 X14.424 Y-26.894 Z0.712 F60.000
G1 X14.909 Y-26.842 Z0.711 F60.000
G1 X15.396 Y-26.866 Z0.711 F60.000
G1 X15.805 Y-26.945 Z0.708 F60.000
G1 X16.200 Y-27.077 Z0.706 F60.000
G1 X16.574 Y-27.261 Z0.704 F60.000
G1 X16.921 Y-27.492 Z0.702 F60.000
G1 X17.234 Y-27.766 Z0.700 F60.000
G1 X17.545 Y-28.127 Z0.699 F60.000
G1 X17.797 Y-28.531 Z0.697 F60.000
G1 X17.986 Y-28.968 Z0.695 F60.000
G1 X18.107 Y-29.429 Z0.692 F60.000
G1 X18.158 Y-29.902 Z0.690 F60.000
G1 X18.137 Y-30.378 Z0.687 F60.000
G1 X18.044 Y-30.845 Z0.684 F60.000
G1 X17.883 Y-31.293 Z0.681 F60.000
G1 X17.656 Y-31.712 Z0.678 F60.000
