(Exported by FreeCAD)
(Post Processor: grbl_post)
(Output Time:2022-05-28 13:01:48.552545)
(Begin preamble)
G17 G90
G21
(Begin operation: Fixture)
(Path: Fixture)
G54
(Finish operation: Fixture)
(Begin operation: TC: endmill_FC1D321)
(Path: TC: endmill_FC1D321)
(TC: endmill_FC1D321)
(Begin toolchange)
( M6 T1.0 )
M3 S10000.0
(Finish operation: TC: endmill_FC1D321)
(Begin operation: RampEntryDressup032)
(Path: RampEntryDressup032)
G0 X0.000 Y0.000 Z6.000
G0 X37.113 Y-29.888 Z6.000
G0 X37.113 Y-29.888 Z4.000
G1 X37.158 Y-29.980 Z3.507 F480.000
G1 X37.145 Y-30.065 Z3.011 F480.000
G1 X37.076 Y-30.140 Z2.518 F480.000
G1 X37.047 Y-30.153 Z2.362 F480.000
G1 X36.911 Y-30.113 Z1.746 F480.000
G1 X36.849 Y-30.049 Z1.120 F480.000
G1 X36.862 Y-29.960 Z0.494 F480.000
G1 X36.951 Y-29.849 Z-0.122 F480.000
G1 X37.038 Y-29.845 Z-0.561 F480.000
G1 X37.113 Y-29.888 Z-1.000 F480.000
G1 X37.158 Y-29.979 Z-1.195 F480.000
G1 X37.145 Y-30.065 Z-1.397 F480.000
G1 X37.076 Y-30.140 Z-1.593 F480.000
G1 X37.047 Y-30.153 Z-1.655 F480.000
G1 X36.934 Y-30.126 Z-1.843 F480.000
G1 X36.865 Y-30.079 Z-2.047 F480.000
G1 X36.845 Y-30.014 Z-2.257 F480.000
G1 X36.874 Y-29.936 Z-2.461 F480.000
G1 X36.951 Y-29.849 Z-2.649 F480.000
G1 X37.038 Y-29.845 Z-2.824 F480.000
G1 X37.113 Y-29.888 Z-3.000 F480.000
G1 X37.158 Y-29.979 Z-3.195 F480.000
G1 X37.145 Y-30.065 Z-3.397 F480.000
G1 X37.076 Y-30.140 Z-3.593 F480.000
G1 X37.047 Y-30.153 Z-3.655 F480.000
G1 X36.934 Y-30.126 Z-3.843 F480.000
G1 X36.865 Y-30.079 Z-4.047 F480.000
G1 X36.845 Y-30.014 Z-4.257 F480.000
G1 X36.874 Y-29.936 Z-4.461 F480.000
G1 X36.951 Y-29.849 Z-4.649 F480.000
G1 X37.038 Y-29.845 Z-4.824 F480.000
G1 X37.113 Y-29.888 Z-5.000 F480.000
G1 X37.158 Y-29.979 Z-5.195 F480.000
G1 X37.145 Y-30.065 Z-5.397 F480.000
G1 X37.076 Y-30.140 Z-5.593 F480.000
G1 X37.047 Y-30.153 Z-5.655 F480.000
G1 X36.934 Y-30.126 Z-5.843 F480.000
G1 X36.865 Y-30.079 Z-6.047 F480.000
G1 X36.845 Y-30.014 Z-6.257 F480.000
G1 X36.874 Y-29.936 Z-6.461 F480.000
G1 X36.951 Y-29.849 Z-6.649 F480.000
G1 X37.038 Y-29.845 Z-6.824 F480.000
G1 X37.113 Y-29.888 Z-7.000 F480.000
G1 X37.158 Y-29.979 Z-7.195 F480.000
G1 X37.145 Y-30.065 Z-7.397 F480.000
G1 X37.076 Y-30.140 Z-7.593 F480.000
G1 X37.047 Y-30.153 Z-7.655 F480.000
G1 X36.934 Y-30.126 Z-7.843 F480.000
G1 X36.865 Y-30.079 Z-8.047 F480.000
G1 X36.845 Y-30.014 Z-8.257 F480.000
G1 X36.874 Y-29.936 Z-8.461 F480.000
G1 X36.951 Y-29.849 Z-8.649 F480.000
G1 X37.038 Y-29.845 Z-8.824 F480.000
G1 X37.113 Y-29.888 Z-9.000 F480.000
G1 X37.158 Y-29.978 Z-9.096 F480.000
G1 X37.145 Y-30.067 Z-9.201 F480.000
G1 X37.076 Y-30.140 Z-9.296 F480.000
G1 X37.047 Y-30.153 Z-9.328 F480.000
G1 X36.938 Y-30.132 Z-9.410 F480.000
G1 X36.867 Y-30.082 Z-9.518 F480.000
G1 X36.844 Y-30.011 Z-9.634 F480.000
G1 X36.874 Y-29.929 Z-9.742 F480.000
G1 X36.951 Y-29.849 Z-9.824 F480.000
G1 X37.038 Y-29.845 Z-9.912 F480.000
G1 X37.113 Y-29.888 Z-10.000 F480.000
G2 X37.076 Y-30.140 Z-10.000 I-0.113 J-0.113 K0.000 F480.000
G1 X37.047 Y-30.153 Z-10.000 F480.000
G2 X36.951 Y-29.849 Z-10.000 I-0.047 J0.152 K0.000 F480.000
G2 X37.113 Y-29.888 Z-10.000 I0.050 J-0.151 K0.000 F480.000
G0 X37.113 Y-29.888 Z6.000
(Finish operation: RampEntryDressup032)
(Begin operation: RampEntryDressup033)
(Path: RampEntryDressup033)
G0 X0.000 Y0.000 Z6.000
G0 X93.113 Y-29.888 Z6.000
G0 X93.113 Y-29.888 Z4.000
G1 X93.158 Y-29.980 Z3.507 F480.000
G1 X93.145 Y-30.065 Z3.011 F480.000
G1 X93.076 Y-30.140 Z2.518 F480.000
G1 X93.047 Y-30.153 Z2.362 F480.000
G1 X92.911 Y-30.113 Z1.746 F480.000
G1 X92.849 Y-30.049 Z1.120 F480.000
G1 X92.862 Y-29.960 Z0.494 F480.000
G1 X92.951 Y-29.849 Z-0.122 F480.000
G1 X93.038 Y-29.845 Z-0.561 F480.000
G1 X93.113 Y-29.888 Z-1.000 F480.000
G1 X93.158 Y-29.979 Z-1.195 F480.000
G1 X93.145 Y-30.065 Z-1.397 F480.000
G1 X93.076 Y-30.140 Z-1.593 F480.000
G1 X93.047 Y-30.153 Z-1.655 F480.000
G1 X92.934 Y-30.126 Z-1.843 F480.000
G1 X92.865 Y-30.079 Z-2.047 F480.000
G1 X92.845 Y-30.014 Z-2.257 F480.000
G1 X92.874 Y-29.936 Z-2.461 F480.000
G1 X92.951 Y-29.849 Z-2.649 F480.000
G1 X93.038 Y-29.845 Z-2.824 F480.000
G1 X93.113 Y-29.888 Z-3.000 F480.000
G1 X93.158 Y-29.979 Z-3.195 F480.000
G1 X93.145 Y-30.065 Z-3.397 F480.000
G1 X93.076 Y-30.140 Z-3.593 F480.000
G1 X93.047 Y-30.153 Z-3.655 F480.000
G1 X92.934 Y-30.126 Z-3.843 F480.000
G1 X92.865 Y-30.079 Z-4.047 F480.000
G1 X92.845 Y-30.014 Z-4.257 F480.000
G1 X92.874 Y-29.936 Z-4.461 F480.000
G1 X92.951 Y-29.849 Z-4.649 F480.000
G1 X93.038 Y-29.845 Z-4.824 F480.000
G1 X93.113 Y-29.888 Z-5.000 F480.000
G1 X93.158 Y-29.979 Z-5.195 F480.000
G1 X93.145 Y-30.065 Z-5.397 F480.000
G1 X93.076 Y-30.140 Z-5.593 F480.000
G1 X93.047 Y-30.153 Z-5.655 F480.000
G1 X92.934 Y-30.126 Z-5.843 F480.000
G1 X92.865 Y-30.079 Z-6.047 F480.000
G1 X92.845 Y-30.014 Z-6.257 F480.000
G1 X92.874 Y-29.936 Z-6.461 F480.000
G1 X92.951 Y-29.849 Z-6.649 F480.000
G1 X93.038 Y-29.845 Z-6.824 F480.000
G1 X93.113 Y-29.888 Z-7.000 F480.000
G1 X93.158 Y-29.979 Z-7.195 F480.000
G1 X93.145 Y-30.065 Z-7.397 F480.000
G1 X93.076 Y-30.140 Z-7.593 F480.000
G1 X93.047 Y-30.153 Z-7.655 F480.000
G1 X92.934 Y-30.126 Z-7.843 F480.000
G1 X92.865 Y-30.079 Z-8.047 F480.000
G1 X92.845 Y-30.014 Z-8.257 F480.000
G1 X92.874 Y-29.936 Z-8.461 F480.000
G1 X92.951 Y-29.849 Z-8.649 F480.000
G1 X93.038 Y-29.845 Z-8.824 F480.000
G1 X93.113 Y-29.888 Z-9.000 F480.000
G1 X93.158 Y-29.978 Z-9.096 F480.000
G1 X93.145 Y-30.067 Z-9.201 F480.000
G1 X93.076 Y-30.140 Z-9.296 F480.000
G1 X93.047 Y-30.153 Z-9.328 F480.000
G1 X92.938 Y-30.132 Z-9.410 F480.000
G1 X92.867 Y-30.082 Z-9.518 F480.000
G1 X92.844 Y-30.011 Z-9.634 F480.000
G1 X92.874 Y-29.929 Z-9.742 F480.000
G1 X92.951 Y-29.849 Z-9.824 F480.000
G1 X93.038 Y-29.845 Z-9.912 F480.000
G1 X93.113 Y-29.888 Z-10.000 F480.000
G2 X93.076 Y-30.140 Z-10.000 I-0.113 J-0.113 K0.000 F480.000
G1 X93.047 Y-30.153 Z-10.000 F480.000
G2 X92.951 Y-29.849 Z-10.000 I-0.047 J0.152 K0.000 F480.000
G2 X93.113 Y-29.888 Z-10.000 I0.050 J-0.151 K0.000 F480.000
G0 X93.113 Y-29.888 Z6.000
(Finish operation: RampEntryDressup033)
(Begin operation: DressupTag005)
(Path: DressupTag005)
G0 Z6.000
G0 X86.967 Y-17.533 Z6.000
G0 X86.967 Y-17.533 Z4.000
G1 X86.967 Y-42.467 Z3.095 F475.842
G1 X43.033 Y-42.467 Z1.500 F475.842
G1 X43.033 Y-17.533 Z0.595 F475.842
G1 X86.967 Y-17.533 Z-1.000 F475.842
G1 X86.967 Y-42.467 Z-1.362 F478.336
G1 X43.033 Y-42.467 Z-2.000 F478.336
G1 X43.033 Y-17.533 Z-2.362 F478.336
G1 X86.967 Y-17.533 Z-3.000 F478.336
G1 X86.967 Y-42.467 Z-3.362 F478.336
G1 X43.033 Y-42.467 Z-4.000 F478.336
G1 X43.033 Y-17.533 Z-4.362 F478.336
G1 X86.967 Y-17.533 Z-5.000 F478.336
G1 X86.967 Y-42.467 Z-5.362 F478.336
G1 X43.033 Y-42.467 Z-6.000 F478.336
G1 X43.033 Y-17.533 Z-6.362 F478.336
G1 X86.967 Y-17.533 Z-7.000 F478.336
G1 X86.967 Y-42.467 Z-7.362 F478.336
G1 X43.033 Y-42.467 Z-8.000 F478.336
G1 X43.033 Y-32.211 Z-8.149 F478.336
G1 X43.033 Y-32.062 Z-8.000 F390.000
G1 X43.033 Y-27.937 Z-8.000 F480.000
G1 X43.033 Y-27.723 Z-8.214 F390.000
G1 X43.033 Y-17.533 Z-8.362 F478.336
G1 X86.967 Y-17.533 Z-9.000 F478.336
G1 X86.967 Y-26.870 Z-9.068 F479.168
G1 X86.967 Y-27.937 Z-8.000 F390.000
G1 X86.967 Y-32.062 Z-8.000 F480.000
G1 X86.967 Y-33.176 Z-9.114 F390.000
G1 X86.967 Y-42.467 Z-9.181 F479.168
G1 X43.033 Y-42.467 Z-9.500 F479.168
G1 X43.033 Y-33.627 Z-9.564 F479.168
G1 X43.033 Y-32.062 Z-8.000 F390.000
G1 X43.033 Y-27.937 Z-8.000 F480.000
G1 X43.033 Y-26.320 Z-9.617 F390.000
G1 X43.033 Y-17.533 Z-9.681 F479.168
G1 X86.967 Y-17.533 Z-10.000 F479.168
G1 X86.967 Y-25.937 Z-10.000 F480.000
G1 X86.967 Y-27.937 Z-8.000 F390.000
G1 X86.967 Y-32.062 Z-8.000 F480.000
G1 X86.967 Y-34.062 Z-10.000 F390.000
G1 X86.967 Y-42.467 Z-10.000 F480.000
G1 X43.033 Y-42.467 Z-10.000 F480.000
G1 X43.033 Y-34.062 Z-10.000 F480.000
G1 X43.033 Y-32.062 Z-8.000 F390.000
G1 X43.033 Y-27.937 Z-8.000 F480.000
G1 X43.033 Y-25.937 Z-10.000 F390.000
G1 X43.033 Y-17.533 Z-10.000 F480.000
G1 X86.967 Y-17.533 Z-10.000 F480.000
G0 X86.967 Y-17.533 Z6.000
(Finish operation: DressupTag005)
(Begin operation: DressupTag004)
(Path: DressupTag004)
G0 Z6.000
G0 X131.119 Y1.119 Z6.000
G0 X131.119 Y1.119 Z4.000
G1 X130.879 Y1.316 Z3.996 F478.557
G1 X130.606 Y1.462 Z3.992 F478.500
G1 X130.309 Y1.552 Z3.988 F478.500
G1 X130.000 Y1.583 Z3.984 F478.557
G1 X0.000 Y1.582 Z2.317 F478.531
G1 X-0.352 Y1.543 Z2.313 F478.724
G1 X-0.687 Y1.426 Z2.309 F478.530
G1 X-0.987 Y1.237 Z2.304 F478.409
G1 X-1.237 Y0.987 Z2.299 F478.368
G1 X-1.426 Y0.687 Z2.294 F478.409
G1 X-1.543 Y0.352 Z2.289 F478.530
G1 X-1.582 Y-0.000 Z2.285 F478.724
G1 X-1.582 Y-60.000 Z1.516 F478.531
G1 X-1.543 Y-60.352 Z1.512 F478.724
G1 X-1.426 Y-60.687 Z1.507 F478.530
G1 X-1.237 Y-60.987 Z1.503 F478.409
G1 X-0.987 Y-61.237 Z1.497 F478.368
G1 X-0.687 Y-61.426 Z1.493 F478.409
G1 X-0.352 Y-61.543 Z1.488 F478.530
G1 X0.000 Y-61.583 Z1.484 F478.724
G1 X130.000 Y-61.582 Z-0.183 F478.531
G1 X130.352 Y-61.543 Z-0.187 F478.724
G1 X130.687 Y-61.426 Z-0.191 F478.530
G1 X130.987 Y-61.237 Z-0.196 F478.409
G1 X131.237 Y-60.987 Z-0.201 F478.368
G1 X131.426 Y-60.687 Z-0.206 F478.409
G1 X131.543 Y-60.352 Z-0.211 F478.530
G1 X131.582 Y-60.000 Z-0.215 F478.724
G1 X131.582 Y-0.000 Z-0.984 F478.531
G1 X131.552 Y0.309 Z-0.988 F478.557
G1 X131.462 Y0.606 Z-0.992 F478.500
G1 X131.316 Y0.879 Z-0.996 F478.500
G1 X131.119 Y1.119 Z-1.000 F478.557
G1 X130.879 Y1.316 Z-1.002 F479.423
G1 X130.606 Y1.462 Z-1.003 F479.400
G1 X130.309 Y1.552 Z-1.005 F479.400
G1 X130.000 Y1.583 Z-1.006 F479.423
G1 X0.000 Y1.582 Z-1.673 F479.412
G1 X-0.352 Y1.543 Z-1.675 F479.490
G1 X-0.687 Y1.426 Z-1.677 F479.412
G1 X-0.987 Y1.237 Z-1.679 F479.364
G1 X-1.237 Y0.987 Z-1.681 F479.347
G1 X-1.426 Y0.687 Z-1.682 F479.364
G1 X-1.543 Y0.352 Z-1.684 F479.412
G1 X-1.582 Y-0.000 Z-1.686 F479.490
G1 X-1.582 Y-60.000 Z-1.994 F479.412
G1 X-1.543 Y-60.352 Z-1.995 F479.490
G1 X-1.426 Y-60.687 Z-1.997 F479.412
G1 X-1.237 Y-60.987 Z-1.999 F479.364
G1 X-0.987 Y-61.237 Z-2.001 F479.347
G1 X-0.687 Y-61.426 Z-2.003 F479.364
G1 X-0.352 Y-61.543 Z-2.005 F479.412
G1 X0.000 Y-61.583 Z-2.006 F479.490
G1 X130.000 Y-61.582 Z-2.673 F479.412
G1 X130.352 Y-61.543 Z-2.675 F479.490
G1 X130.687 Y-61.426 Z-2.677 F479.412
G1 X130.987 Y-61.237 Z-2.679 F479.364
G1 X131.237 Y-60.987 Z-2.681 F479.347
G1 X131.426 Y-60.687 Z-2.682 F479.364
G1 X131.543 Y-60.352 Z-2.684 F479.412
G1 X131.582 Y-60.000 Z-2.686 F479.490
G1 X131.582 Y-0.000 Z-2.994 F479.412
G1 X131.552 Y0.309 Z-2.995 F479.423
G1 X131.462 Y0.606 Z-2.997 F479.400
G1 X131.316 Y0.879 Z-2.998 F479.400
G1 X131.119 Y1.119 Z-3.000 F479.423
G1 X130.879 Y1.316 Z-3.002 F479.423
G1 X130.606 Y1.462 Z-3.003 F479.400
G1 X130.309 Y1.552 Z-3.005 F479.400
G1 X130.000 Y1.583 Z-3.006 F479.423
G1 X0.000 Y1.582 Z-3.673 F479.412
G1 X-0.352 Y1.543 Z-3.675 F479.490
G1 X-0.687 Y1.426 Z-3.677 F479.412
G1 X-0.987 Y1.237 Z-3.679 F479.364
G1 X-1.237 Y0.987 Z-3.681 F479.347
G1 X-1.426 Y0.687 Z-3.682 F479.364
G1 X-1.543 Y0.352 Z-3.684 F479.412
G1 X-1.582 Y-0.000 Z-3.686 F479.490
G1 X-1.582 Y-60.000 Z-3.994 F479.412
G1 X-1.543 Y-60.352 Z-3.995 F479.490
G1 X-1.426 Y-60.687 Z-3.997 F479.412
G1 X-1.237 Y-60.987 Z-3.999 F479.364
G1 X-0.987 Y-61.237 Z-4.001 F479.347
G1 X-0.687 Y-61.426 Z-4.003 F479.364
G1 X-0.352 Y-61.543 Z-4.005 F479.412
G1 X0.000 Y-61.583 Z-4.006 F479.490
G1 X130.000 Y-61.582 Z-4.673 F479.412
G1 X130.352 Y-61.543 Z-4.675 F479.490
G1 X130.687 Y-61.426 Z-4.677 F479.412
G1 X130.987 Y-61.237 Z-4.679 F479.364
G1 X131.237 Y-60.987 Z-4.681 F479.347
G1 X131.426 Y-60.687 Z-4.682 F479.364
G1 X131.543 Y-60.352 Z-4.684 F479.412
G1 X131.582 Y-60.000 Z-4.686 F479.490
G1 X131.582 Y-0.000 Z-4.994 F479.412
G1 X131.552 Y0.309 Z-4.995 F479.423
G1 X131.462 Y0.606 Z-4.997 F479.400
G1 X131.316 Y0.879 Z-4.998 F479.400
G1 X131.119 Y1.119 Z-5.000 F479.423
G1 X130.879 Y1.316 Z-5.002 F479.423
G1 X130.606 Y1.462 Z-5.003 F479.400
G1 X130.309 Y1.552 Z-5.005 F479.400
G1 X130.000 Y1.583 Z-5.006 F479.423
G1 X0.000 Y1.582 Z-5.673 F479.412
G1 X-0.352 Y1.543 Z-5.675 F479.490
G1 X-0.687 Y1.426 Z-5.677 F479.412
G1 X-0.987 Y1.237 Z-5.679 F479.364
G1 X-1.237 Y0.987 Z-5.681 F479.347
G1 X-1.426 Y0.687 Z-5.682 F479.364
G1 X-1.543 Y0.352 Z-5.684 F479.412
G1 X-1.582 Y-0.000 Z-5.686 F479.490
G1 X-1.582 Y-60.000 Z-5.994 F479.412
G1 X-1.543 Y-60.352 Z-5.995 F479.490
G1 X-1.426 Y-60.687 Z-5.997 F479.412
G1 X-1.237 Y-60.987 Z-5.999 F479.364
G1 X-0.987 Y-61.237 Z-6.001 F479.347
G1 X-0.687 Y-61.426 Z-6.003 F479.364
G1 X-0.352 Y-61.543 Z-6.005 F479.412
G1 X0.000 Y-61.583 Z-6.006 F479.490
G1 X130.000 Y-61.582 Z-6.673 F479.412
G1 X130.352 Y-61.543 Z-6.675 F479.490
G1 X130.687 Y-61.426 Z-6.677 F479.412
G1 X130.987 Y-61.237 Z-6.679 F479.364
G1 X131.237 Y-60.987 Z-6.681 F479.347
G1 X131.426 Y-60.687 Z-6.682 F479.364
G1 X131.543 Y-60.352 Z-6.684 F479.412
G1 X131.582 Y-60.000 Z-6.686 F479.490
G1 X131.582 Y-0.000 Z-6.994 F479.412
G1 X131.552 Y0.309 Z-6.995 F479.423
G1 X131.462 Y0.606 Z-6.997 F479.400
G1 X131.316 Y0.879 Z-6.998 F479.400
G1 X131.119 Y1.119 Z-7.000 F479.423
G1 X130.879 Y1.316 Z-7.002 F479.423
G1 X130.606 Y1.462 Z-7.003 F479.400
G1 X130.309 Y1.552 Z-7.005 F479.400
G1 X130.000 Y1.583 Z-7.006 F479.423
G1 X0.000 Y1.582 Z-7.673 F479.412
G1 X-0.352 Y1.543 Z-7.675 F479.490
G1 X-0.687 Y1.426 Z-7.677 F479.412
G1 X-0.987 Y1.237 Z-7.679 F479.364
G1 X-1.237 Y0.987 Z-7.681 F479.347
G1 X-1.426 Y0.687 Z-7.682 F479.364
G1 X-1.543 Y0.352 Z-7.684 F479.412
G1 X-1.582 Y-0.000 Z-7.686 F479.490
G1 X-1.582 Y-60.000 Z-7.994 F479.412
G1 X-1.543 Y-60.352 Z-7.995 F479.490
G1 X-1.426 Y-60.687 Z-7.997 F479.412
G1 X-1.237 Y-60.987 Z-7.999 F479.364
G1 X-0.987 Y-61.237 Z-8.001 F479.347
G1 X-0.687 Y-61.426 Z-8.003 F479.364
G1 X-0.352 Y-61.543 Z-8.005 F479.412
G1 X0.000 Y-61.583 Z-8.006 F479.490
G1 X30.276 Y-61.582 Z-8.162 F479.412
G1 X30.438 Y-61.582 Z-8.000 F390.000
G1 X34.563 Y-61.582 Z-8.000 F480.000
G1 X34.747 Y-61.582 Z-8.185 F390.000
G1 X94.944 Y-61.582 Z-8.493 F479.412
G1 X95.437 Y-61.582 Z-8.000 F390.000
G1 X99.562 Y-61.582 Z-8.000 F480.000
G1 X100.082 Y-61.582 Z-8.520 F390.000
G1 X130.000 Y-61.582 Z-8.673 F479.412
G1 X130.352 Y-61.543 Z-8.675 F479.490
G1 X130.687 Y-61.426 Z-8.677 F479.412
G1 X130.987 Y-61.237 Z-8.679 F479.364
G1 X131.237 Y-60.987 Z-8.681 F479.347
G1 X131.426 Y-60.687 Z-8.682 F479.364
G1 X131.543 Y-60.352 Z-8.684 F479.412
G1 X131.582 Y-60.000 Z-8.686 F479.490
G1 X131.582 Y-0.000 Z-8.994 F479.412
G1 X131.552 Y0.309 Z-8.995 F479.423
G1 X131.462 Y0.606 Z-8.997 F479.400
G1 X131.316 Y0.879 Z-8.998 F479.400
G1 X131.119 Y1.119 Z-9.000 F479.423
G1 X130.879 Y1.316 Z-9.001 F479.711
G1 X130.606 Y1.462 Z-9.002 F479.700
G1 X130.309 Y1.552 Z-9.002 F479.700
G1 X130.000 Y1.583 Z-9.003 F479.711
G1 X100.641 Y1.583 Z-9.078 F479.706
G1 X99.562 Y1.583 Z-8.000 F390.000
G1 X95.437 Y1.583 Z-8.000 F480.000
G1 X94.343 Y1.583 Z-9.095 F390.000
G1 X35.807 Y1.583 Z-9.245 F479.706
G1 X34.563 Y1.583 Z-8.000 F390.000
G1 X30.438 Y1.583 Z-8.000 F480.000
G1 X29.176 Y1.583 Z-9.262 F390.000
G1 X0.000 Y1.582 Z-9.337 F479.706
G1 X-0.352 Y1.543 Z-9.337 F479.745
G1 X-0.687 Y1.426 Z-9.338 F479.706
G1 X-0.987 Y1.237 Z-9.339 F479.682
G1 X-1.237 Y0.987 Z-9.340 F479.674
G1 X-1.426 Y0.687 Z-9.341 F479.682
G1 X-1.543 Y0.352 Z-9.342 F479.706
G1 X-1.582 Y-0.000 Z-9.343 F479.745
G1 X-1.582 Y-60.000 Z-9.497 F479.706
G1 X-1.543 Y-60.352 Z-9.498 F479.745
G1 X-1.426 Y-60.687 Z-9.499 F479.706
G1 X-1.237 Y-60.987 Z-9.499 F479.682
G1 X-0.987 Y-61.237 Z-9.501 F479.674
G1 X-0.687 Y-61.426 Z-9.501 F479.682
G1 X-0.352 Y-61.543 Z-9.502 F479.706
G1 X0.000 Y-61.583 Z-9.503 F479.745
G1 X28.860 Y-61.582 Z-9.577 F479.706
G1 X30.438 Y-61.582 Z-8.000 F390.000
G1 X34.563 Y-61.582 Z-8.000 F480.000
G1 X36.158 Y-61.582 Z-9.596 F390.000
G1 X93.694 Y-61.582 Z-9.743 F479.706
G1 X95.437 Y-61.582 Z-8.000 F390.000
G1 X99.562 Y-61.582 Z-8.000 F480.000
G1 X101.326 Y-61.582 Z-9.763 F390.000
G1 X130.000 Y-61.582 Z-9.837 F479.706
G1 X130.352 Y-61.543 Z-9.837 F479.745
G1 X130.687 Y-61.426 Z-9.838 F479.706
G1 X130.987 Y-61.237 Z-9.839 F479.682
G1 X131.237 Y-60.987 Z-9.840 F479.674
G1 X131.426 Y-60.687 Z-9.841 F479.682
G1 X131.543 Y-60.352 Z-9.842 F479.706
G1 X131.582 Y-60.000 Z-9.843 F479.745
G1 X131.582 Y-0.000 Z-9.997 F479.706
G1 X131.552 Y0.309 Z-9.998 F479.711
G1 X131.462 Y0.606 Z-9.998 F479.700
G1 X131.316 Y0.879 Z-9.999 F479.700
G1 X131.119 Y1.119 Z-10.000 F479.711
G3 X130.000 Y1.583 Z-10.000 I-1.119 J-1.119 K0.000 F480.000
G1 X101.562 Y1.583 Z-10.000 F480.000
G1 X99.562 Y1.583 Z-8.000 F390.000
G1 X95.437 Y1.583 Z-8.000 F480.000
G1 X93.437 Y1.583 Z-10.000 F390.000
G1 X36.563 Y1.583 Z-10.000 F480.000
G1 X34.563 Y1.583 Z-8.000 F390.000
G1 X30.438 Y1.583 Z-8.000 F480.000
G1 X28.438 Y1.583 Z-10.000 F390.000
G1 X0.000 Y1.582 Z-10.000 F480.000
G3 X-1.582 Y-0.000 Z-10.000 I0.000 J-1.583 K0.000 F480.000
G1 X-1.582 Y-60.000 Z-10.000 F480.000
G3 X0.000 Y-61.583 Z-10.000 I1.583 J0.000 K0.000 F480.000
G1 X28.438 Y-61.582 Z-10.000 F480.000
G1 X30.438 Y-61.582 Z-8.000 F390.000
G1 X34.563 Y-61.582 Z-8.000 F480.000
G1 X36.563 Y-61.582 Z-10.000 F390.000
G1 X93.437 Y-61.582 Z-10.000 F480.000
G1 X95.437 Y-61.582 Z-8.000 F390.000
G1 X99.562 Y-61.582 Z-8.000 F480.000
G1 X101.562 Y-61.582 Z-10.000 F390.000
G1 X130.000 Y-61.582 Z-10.000 F480.000
G3 X131.582 Y-60.000 Z-10.000 I-0.000 J1.583 K0.000 F480.000
G1 X131.582 Y-0.000 Z-10.000 F480.000
G3 X131.119 Y1.119 Z-10.000 I-1.583 J-0.000 K0.000 F480.000
G0 X131.119 Y1.119 Z6.000
(Finish operation: DressupTag004)
(Begin postamble)
M5
G17 G90
M2
