(Exported by FreeCAD)
(Post Processor: grbl_post)
(Output Time:2022-05-28 09:08:40.844071)
(Begin preamble)
G17 G90
G21
(Begin operation: Fixture)
(Path: Fixture)
G54
(Finish operation: Fixture)
(Begin operation: TC: endmill_FC1D317)
(Path: TC: endmill_FC1D317)
(TC: endmill_FC1D317)
(Begin toolchange)
( M6 T1.0 )
M3 S10000.0
(Finish operation: TC: endmill_FC1D317)
(Begin operation: RampEntryDressup)
(Path: RampEntryDressup)
G0 X0.000 Y0.000 Z6.000
G0 X174.113 Y-27.887 Z6.000
G0 X174.113 Y-27.887 Z4.000
G1 X174.158 Y-27.986 Z3.480 F600.000
G1 X174.140 Y-28.073 Z2.957 F600.000
G1 X174.061 Y-28.148 Z2.438 F600.000
G1 X173.976 Y-28.157 Z2.022 F600.000
G1 X173.906 Y-28.128 Z1.603 F600.000
G1 X173.852 Y-28.061 Z1.187 F600.000
G1 X173.843 Y-27.976 Z0.772 F600.000
G1 X173.872 Y-27.906 Z0.353 F600.000
G1 X173.939 Y-27.852 Z-0.063 F600.000
G1 X174.031 Y-27.843 Z-0.531 F600.000
G1 X174.113 Y-27.887 Z-1.000 F600.000
G1 X174.158 Y-27.985 Z-1.206 F600.000
G1 X174.140 Y-28.074 Z-1.419 F600.000
G1 X174.061 Y-28.148 Z-1.625 F600.000
G1 X173.976 Y-28.157 Z-1.790 F600.000
G1 X173.905 Y-28.128 Z-1.960 F600.000
G1 X173.852 Y-28.061 Z-2.125 F600.000
G1 X173.843 Y-27.976 Z-2.290 F600.000
G1 X173.872 Y-27.905 Z-2.460 F600.000
G1 X173.939 Y-27.852 Z-2.625 F600.000
G1 X174.031 Y-27.843 Z-2.813 F600.000
G1 X174.113 Y-27.887 Z-3.000 F600.000
G1 X174.158 Y-27.985 Z-3.206 F600.000
G1 X174.140 Y-28.074 Z-3.419 F600.000
G1 X174.061 Y-28.148 Z-3.625 F600.000
G1 X173.976 Y-28.157 Z-3.790 F600.000
G1 X173.905 Y-28.128 Z-3.960 F600.000
G1 X173.852 Y-28.061 Z-4.125 F600.000
G1 X173.843 Y-27.976 Z-4.290 F600.000
G1 X173.872 Y-27.905 Z-4.460 F600.000
G1 X173.939 Y-27.852 Z-4.625 F600.000
G1 X174.031 Y-27.843 Z-4.813 F600.000
G1 X174.113 Y-27.887 Z-5.000 F600.000
G1 X174.158 Y-27.985 Z-5.206 F600.000
G1 X174.140 Y-28.074 Z-5.419 F600.000
G1 X174.061 Y-28.148 Z-5.625 F600.000
G1 X173.976 Y-28.157 Z-5.790 F600.000
G1 X173.905 Y-28.128 Z-5.960 F600.000
G1 X173.852 Y-28.061 Z-6.125 F600.000
G1 X173.843 Y-27.976 Z-6.290 F600.000
G1 X173.872 Y-27.905 Z-6.460 F600.000
G1 X173.939 Y-27.852 Z-6.625 F600.000
G1 X174.031 Y-27.843 Z-6.813 F600.000
G1 X174.113 Y-27.887 Z-7.000 F600.000
G1 X174.158 Y-27.985 Z-7.206 F600.000
G1 X174.140 Y-28.074 Z-7.419 F600.000
G1 X174.061 Y-28.148 Z-7.625 F600.000
G1 X173.976 Y-28.157 Z-7.790 F600.000
G1 X173.905 Y-28.128 Z-7.960 F600.000
G1 X173.852 Y-28.061 Z-8.125 F600.000
G1 X173.843 Y-27.976 Z-8.290 F600.000
G1 X173.872 Y-27.905 Z-8.460 F600.000
G1 X173.939 Y-27.852 Z-8.625 F600.000
G1 X174.031 Y-27.843 Z-8.813 F600.000
G1 X174.113 Y-27.887 Z-9.000 F600.000
G1 X174.158 Y-27.983 Z-9.101 F600.000
G1 X174.140 Y-28.076 Z-9.212 F600.000
G1 X174.061 Y-28.148 Z-9.312 F600.000
G1 X173.977 Y-28.158 Z-9.394 F600.000
G1 X173.904 Y-28.128 Z-9.481 F600.000
G1 X173.852 Y-28.061 Z-9.562 F600.000
G1 X173.842 Y-27.977 Z-9.644 F600.000
G1 X173.872 Y-27.904 Z-9.731 F600.000
G1 X173.939 Y-27.852 Z-9.812 F600.000
G1 X174.031 Y-27.843 Z-9.906 F600.000
G1 X174.113 Y-27.887 Z-10.000 F600.000
G2 X174.061 Y-28.148 Z-10.000 I-0.113 J-0.113 K0.000 F600.000
G2 X173.852 Y-28.061 Z-10.000 I-0.061 J0.148 K0.000 F600.000
G2 X173.939 Y-27.852 Z-10.000 I0.148 J0.061 K0.000 F600.000
G2 X174.113 Y-27.887 Z-10.000 I0.061 J-0.148 K0.000 F600.000
G0 X174.113 Y-27.887 Z6.000
(Finish operation: RampEntryDressup)
(Begin operation: RampEntryDressup002)
(Path: RampEntryDressup002)
G0 X0.000 Y0.000 Z6.000
G0 X100.613 Y-52.887 Z6.000
G0 X100.613 Y-52.887 Z4.000
G1 X100.658 Y-52.986 Z3.480 F600.000
G1 X100.640 Y-53.073 Z2.957 F600.000
G1 X100.561 Y-53.148 Z2.437 F600.000
G1 X100.476 Y-53.157 Z2.022 F600.000
G1 X100.406 Y-53.128 Z1.603 F600.000
G1 X100.352 Y-53.061 Z1.187 F600.000
G1 X100.343 Y-52.976 Z0.772 F600.000
G1 X100.372 Y-52.906 Z0.353 F600.000
G1 X100.439 Y-52.852 Z-0.063 F600.000
G1 X100.531 Y-52.843 Z-0.531 F600.000
G1 X100.613 Y-52.887 Z-1.000 F600.000
G1 X100.658 Y-52.985 Z-1.206 F600.000
G1 X100.640 Y-53.074 Z-1.419 F600.000
G1 X100.561 Y-53.148 Z-1.625 F600.000
G1 X100.476 Y-53.157 Z-1.790 F600.000
G1 X100.405 Y-53.128 Z-1.960 F600.000
G1 X100.352 Y-53.061 Z-2.125 F600.000
G1 X100.343 Y-52.976 Z-2.290 F600.000
G1 X100.372 Y-52.905 Z-2.460 F600.000
G1 X100.439 Y-52.852 Z-2.625 F600.000
G1 X100.531 Y-52.843 Z-2.813 F600.000
G1 X100.613 Y-52.887 Z-3.000 F600.000
G1 X100.658 Y-52.985 Z-3.206 F600.000
G1 X100.640 Y-53.074 Z-3.419 F600.000
G1 X100.561 Y-53.148 Z-3.625 F600.000
G1 X100.476 Y-53.157 Z-3.790 F600.000
G1 X100.405 Y-53.128 Z-3.960 F600.000
G1 X100.352 Y-53.061 Z-4.125 F600.000
G1 X100.343 Y-52.976 Z-4.290 F600.000
G1 X100.372 Y-52.905 Z-4.460 F600.000
G1 X100.439 Y-52.852 Z-4.625 F600.000
G1 X100.531 Y-52.843 Z-4.813 F600.000
G1 X100.613 Y-52.887 Z-5.000 F600.000
G1 X100.658 Y-52.985 Z-5.206 F600.000
G1 X100.640 Y-53.074 Z-5.419 F600.000
G1 X100.561 Y-53.148 Z-5.625 F600.000
G1 X100.476 Y-53.157 Z-5.790 F600.000
G1 X100.405 Y-53.128 Z-5.960 F600.000
G1 X100.352 Y-53.061 Z-6.125 F600.000
G1 X100.343 Y-52.976 Z-6.290 F600.000
G1 X100.372 Y-52.905 Z-6.460 F600.000
G1 X100.439 Y-52.852 Z-6.625 F600.000
G1 X100.531 Y-52.843 Z-6.813 F600.000
G1 X100.613 Y-52.887 Z-7.000 F600.000
G1 X100.658 Y-52.985 Z-7.206 F600.000
G1 X100.640 Y-53.074 Z-7.419 F600.000
G1 X100.561 Y-53.148 Z-7.625 F600.000
G1 X100.476 Y-53.157 Z-7.790 F600.000
G1 X100.405 Y-53.128 Z-7.960 F600.000
G1 X100.352 Y-53.061 Z-8.125 F600.000
G1 X100.343 Y-52.976 Z-8.290 F600.000
G1 X100.372 Y-52.905 Z-8.460 F600.000
G1 X100.439 Y-52.852 Z-8.625 F600.000
G1 X100.531 Y-52.843 Z-8.813 F600.000
G1 X100.613 Y-52.887 Z-9.000 F600.000
G1 X100.658 Y-52.983 Z-9.101 F600.000
G1 X100.640 Y-53.076 Z-9.212 F600.000
G1 X100.561 Y-53.148 Z-9.312 F600.000
G1 X100.477 Y-53.158 Z-9.394 F600.000
G1 X100.404 Y-53.128 Z-9.481 F600.000
G1 X100.352 Y-53.061 Z-9.562 F600.000
G1 X100.342 Y-52.977 Z-9.644 F600.000
G1 X100.372 Y-52.904 Z-9.731 F600.000
G1 X100.439 Y-52.852 Z-9.812 F600.000
G1 X100.531 Y-52.843 Z-9.906 F600.000
G1 X100.613 Y-52.887 Z-10.000 F600.000
G2 X100.561 Y-53.148 Z-10.000 I-0.113 J-0.113 K0.000 F600.000
G2 X100.352 Y-53.061 Z-10.000 I-0.061 J0.148 K0.000 F600.000
G2 X100.439 Y-52.852 Z-10.000 I0.148 J0.061 K0.000 F600.000
G2 X100.613 Y-52.887 Z-10.000 I0.061 J-0.148 K0.000 F600.000
G0 X100.613 Y-52.887 Z6.000
(Finish operation: RampEntryDressup002)
(Begin operation: RampEntryDressup003)
(Path: RampEntryDressup003)
G0 X0.000 Y0.000 Z6.000
G0 X100.613 Y-85.887 Z6.000
G0 X100.613 Y-85.887 Z4.000
G1 X100.658 Y-85.986 Z3.480 F600.000
G1 X100.640 Y-86.073 Z2.957 F600.000
G1 X100.561 Y-86.148 Z2.438 F600.000
G1 X100.476 Y-86.157 Z2.022 F600.000
G1 X100.406 Y-86.128 Z1.603 F600.000
G1 X100.352 Y-86.061 Z1.187 F600.000
G1 X100.343 Y-85.976 Z0.772 F600.000
G1 X100.372 Y-85.906 Z0.353 F600.000
G1 X100.439 Y-85.852 Z-0.063 F600.000
G1 X100.531 Y-85.843 Z-0.531 F600.000
G1 X100.613 Y-85.887 Z-1.000 F600.000
G1 X100.658 Y-85.985 Z-1.206 F600.000
G1 X100.640 Y-86.074 Z-1.419 F600.000
G1 X100.561 Y-86.148 Z-1.625 F600.000
G1 X100.476 Y-86.157 Z-1.790 F600.000
G1 X100.405 Y-86.128 Z-1.960 F600.000
G1 X100.352 Y-86.061 Z-2.125 F600.000
G1 X100.343 Y-85.976 Z-2.290 F600.000
G1 X100.372 Y-85.905 Z-2.460 F600.000
G1 X100.439 Y-85.852 Z-2.625 F600.000
G1 X100.531 Y-85.843 Z-2.813 F600.000
G1 X100.613 Y-85.887 Z-3.000 F600.000
G1 X100.658 Y-85.985 Z-3.206 F600.000
G1 X100.640 Y-86.074 Z-3.419 F600.000
G1 X100.561 Y-86.148 Z-3.625 F600.000
G1 X100.476 Y-86.157 Z-3.790 F600.000
G1 X100.405 Y-86.128 Z-3.960 F600.000
G1 X100.352 Y-86.061 Z-4.125 F600.000
G1 X100.343 Y-85.976 Z-4.290 F600.000
G1 X100.372 Y-85.905 Z-4.460 F600.000
G1 X100.439 Y-85.852 Z-4.625 F600.000
G1 X100.531 Y-85.843 Z-4.813 F600.000
G1 X100.613 Y-85.887 Z-5.000 F600.000
G1 X100.658 Y-85.985 Z-5.206 F600.000
G1 X100.640 Y-86.074 Z-5.419 F600.000
G1 X100.561 Y-86.148 Z-5.625 F600.000
G1 X100.476 Y-86.157 Z-5.790 F600.000
G1 X100.405 Y-86.128 Z-5.960 F600.000
G1 X100.352 Y-86.061 Z-6.125 F600.000
G1 X100.343 Y-85.976 Z-6.290 F600.000
G1 X100.372 Y-85.905 Z-6.460 F600.000
G1 X100.439 Y-85.852 Z-6.625 F600.000
G1 X100.531 Y-85.843 Z-6.813 F600.000
G1 X100.613 Y-85.887 Z-7.000 F600.000
G1 X100.658 Y-85.985 Z-7.206 F600.000
G1 X100.640 Y-86.074 Z-7.419 F600.000
G1 X100.561 Y-86.148 Z-7.625 F600.000
G1 X100.476 Y-86.157 Z-7.790 F600.000
G1 X100.405 Y-86.128 Z-7.960 F600.000
G1 X100.352 Y-86.061 Z-8.125 F600.000
G1 X100.343 Y-85.976 Z-8.290 F600.000
G1 X100.372 Y-85.905 Z-8.460 F600.000
G1 X100.439 Y-85.852 Z-8.625 F600.000
G1 X100.531 Y-85.843 Z-8.813 F600.000
G1 X100.613 Y-85.887 Z-9.000 F600.000
G1 X100.658 Y-85.983 Z-9.101 F600.000
G1 X100.640 Y-86.076 Z-9.212 F600.000
G1 X100.561 Y-86.148 Z-9.312 F600.000
G1 X100.477 Y-86.158 Z-9.394 F600.000
G1 X100.404 Y-86.128 Z-9.481 F600.000
G1 X100.352 Y-86.061 Z-9.562 F600.000
G1 X100.342 Y-85.977 Z-9.644 F600.000
G1 X100.372 Y-85.904 Z-9.731 F600.000
G1 X100.439 Y-85.852 Z-9.812 F600.000
G1 X100.531 Y-85.843 Z-9.906 F600.000
G1 X100.613 Y-85.887 Z-10.000 F600.000
G2 X100.561 Y-86.148 Z-10.000 I-0.113 J-0.113 K0.000 F600.000
G2 X100.352 Y-86.061 Z-10.000 I-0.061 J0.148 K0.000 F600.000
G2 X100.439 Y-85.852 Z-10.000 I0.148 J0.061 K0.000 F600.000
G2 X100.613 Y-85.887 Z-10.000 I0.061 J-0.148 K0.000 F600.000
G0 X100.613 Y-85.887 Z6.000
(Finish operation: RampEntryDressup003)
(Begin operation: RampEntryDressup004)
(Path: RampEntryDressup004)
G0 X0.000 Y0.000 Z6.000
G0 X51.613 Y-111.887 Z6.000
G0 X51.613 Y-111.887 Z4.000
G1 X51.658 Y-111.986 Z3.480 F600.000
G1 X51.640 Y-112.073 Z2.957 F600.000
G1 X51.561 Y-112.148 Z2.438 F600.000
G1 X51.476 Y-112.157 Z2.022 F600.000
G1 X51.406 Y-112.128 Z1.603 F600.000
G1 X51.352 Y-112.061 Z1.187 F600.000
G1 X51.343 Y-111.976 Z0.772 F600.000
G1 X51.372 Y-111.906 Z0.353 F600.000
G1 X51.439 Y-111.852 Z-0.063 F600.000
G1 X51.531 Y-111.843 Z-0.531 F600.000
G1 X51.613 Y-111.887 Z-1.000 F600.000
G1 X51.658 Y-111.985 Z-1.206 F600.000
G1 X51.640 Y-112.074 Z-1.419 F600.000
G1 X51.561 Y-112.148 Z-1.625 F600.000
G1 X51.476 Y-112.157 Z-1.790 F600.000
G1 X51.405 Y-112.128 Z-1.960 F600.000
G1 X51.352 Y-112.061 Z-2.125 F600.000
G1 X51.343 Y-111.976 Z-2.290 F600.000
G1 X51.372 Y-111.905 Z-2.460 F600.000
G1 X51.439 Y-111.852 Z-2.625 F600.000
G1 X51.531 Y-111.843 Z-2.813 F600.000
G1 X51.613 Y-111.887 Z-3.000 F600.000
G1 X51.658 Y-111.985 Z-3.206 F600.000
G1 X51.640 Y-112.074 Z-3.419 F600.000
G1 X51.561 Y-112.148 Z-3.625 F600.000
G1 X51.476 Y-112.157 Z-3.790 F600.000
G1 X51.405 Y-112.128 Z-3.960 F600.000
G1 X51.352 Y-112.061 Z-4.125 F600.000
G1 X51.343 Y-111.976 Z-4.290 F600.000
G1 X51.372 Y-111.905 Z-4.460 F600.000
G1 X51.439 Y-111.852 Z-4.625 F600.000
G1 X51.531 Y-111.843 Z-4.813 F600.000
G1 X51.613 Y-111.887 Z-5.000 F600.000
G1 X51.658 Y-111.985 Z-5.206 F600.000
G1 X51.640 Y-112.074 Z-5.419 F600.000
G1 X51.561 Y-112.148 Z-5.625 F600.000
G1 X51.476 Y-112.157 Z-5.790 F600.000
G1 X51.405 Y-112.128 Z-5.960 F600.000
G1 X51.352 Y-112.061 Z-6.125 F600.000
G1 X51.343 Y-111.976 Z-6.290 F600.000
G1 X51.372 Y-111.905 Z-6.460 F600.000
G1 X51.439 Y-111.852 Z-6.625 F600.000
G1 X51.531 Y-111.843 Z-6.813 F600.000
G1 X51.613 Y-111.887 Z-7.000 F600.000
G1 X51.658 Y-111.985 Z-7.206 F600.000
G1 X51.640 Y-112.074 Z-7.419 F600.000
G1 X51.561 Y-112.148 Z-7.625 F600.000
G1 X51.476 Y-112.157 Z-7.790 F600.000
G1 X51.405 Y-112.128 Z-7.960 F600.000
G1 X51.352 Y-112.061 Z-8.125 F600.000
G1 X51.343 Y-111.976 Z-8.290 F600.000
G1 X51.372 Y-111.905 Z-8.460 F600.000
G1 X51.439 Y-111.852 Z-8.625 F600.000
G1 X51.531 Y-111.843 Z-8.813 F600.000
G1 X51.613 Y-111.887 Z-9.000 F600.000
G1 X51.658 Y-111.983 Z-9.101 F600.000
G1 X51.640 Y-112.076 Z-9.212 F600.000
G1 X51.561 Y-112.148 Z-9.312 F600.000
G1 X51.477 Y-112.158 Z-9.394 F600.000
G1 X51.404 Y-112.128 Z-9.481 F600.000
G1 X51.352 Y-112.061 Z-9.562 F600.000
G1 X51.342 Y-111.977 Z-9.644 F600.000
G1 X51.372 Y-111.904 Z-9.731 F600.000
G1 X51.439 Y-111.852 Z-9.812 F600.000
G1 X51.531 Y-111.843 Z-9.906 F600.000
G1 X51.613 Y-111.887 Z-10.000 F600.000
G2 X51.561 Y-112.148 Z-10.000 I-0.113 J-0.113 K0.000 F600.000
G2 X51.352 Y-112.061 Z-10.000 I-0.061 J0.148 K0.000 F600.000
G2 X51.439 Y-111.852 Z-10.000 I0.148 J0.061 K0.000 F600.000
G2 X51.613 Y-111.887 Z-10.000 I0.061 J-0.148 K0.000 F600.000
G0 X51.613 Y-111.887 Z6.000
(Finish operation: RampEntryDressup004)
(Begin operation: Pocket_Shape)
(Path: Pocket_Shape)
(Pocket_Shape)
G0 Z6.000
G0 X102.207 Y-51.293
G0 Z4.000
G1 X102.207 Y-51.293 Z-1.000 F300.000
G2 X102.914 Y-53.000 Z-1.000 I-1.707 J-1.707 K0.000 F600.000
G2 X100.500 Y-55.414 Z-1.000 I-2.414 J-0.000 K0.000 F600.000
G2 X98.086 Y-53.000 Z-1.000 I0.000 J2.414 K0.000 F600.000
G2 X102.207 Y-51.293 Z-1.000 I2.414 J0.000 K0.000 F600.000
G0 Z6.000
G0 X102.148 Y-51.236 Z6.000
G0 X102.148 Y-51.236 Z4.000
G1 X102.148 Y-51.236 Z-1.000 F300.000
G3 X98.350 Y-51.915 Z-1.000 I-1.645 J-1.756 K0.000 F600.000
G1 X101.588 Y-55.153 Z-1.000 F600.000
G2 X98.350 Y-51.915 Z-1.000 I-1.091 J2.147 K0.000 F600.000
G1 X98.350 Y-51.915 Z-3.000 F300.000
G3 X101.588 Y-55.153 Z-3.000 I2.147 J-1.091 K0.000 F600.000
G1 X98.350 Y-51.915 Z-3.000 F600.000
G2 X102.148 Y-51.236 Z-3.000 I2.152 J-1.078 K0.000 F600.000
G1 X102.148 Y-51.236 Z-3.000 F300.000
G2 X102.914 Y-53.000 Z-3.000 I-1.648 J-1.764 K0.000 F600.000
G2 X100.500 Y-55.414 Z-3.000 I-2.414 J-0.000 K0.000 F600.000
G2 X98.086 Y-53.000 Z-3.000 I0.000 J2.414 K0.000 F600.000
G2 X102.148 Y-51.236 Z-3.000 I2.414 J0.000 K0.000 F600.000
G0 Z6.000
G0 Z6.000
G0 X102.148 Y-51.236
G0 X100.614 Y-83.589
G0 X100.614 Y-83.589 Z4.000
G1 X100.614 Y-83.589 Z-1.000 F300.000
G2 X100.665 Y-88.408 Z-1.000 I-0.114 J-2.411 K0.000 F600.000
G2 X100.335 Y-83.592 Z-1.000 I-0.165 J2.408 K0.000 F600.000
G2 X100.614 Y-83.589 Z-1.000 I0.165 J-2.408 K0.000 F600.000
G0 Z6.000
G0 X101.588 Y-83.847 Z6.000
G0 X101.588 Y-83.847 Z4.000
G1 X101.588 Y-83.847 Z-1.000 F300.000
G3 X98.350 Y-87.085 Z-1.000 I-1.090 J-2.148 K0.000 F600.000
G1 X101.588 Y-83.847 Z-1.000 F600.000
G2 X102.148 Y-87.764 Z-1.000 I-1.086 J-2.153 K0.000 F600.000
G1 X102.148 Y-87.764 Z-3.000 F300.000
G3 X101.588 Y-83.847 Z-3.000 I-1.645 J1.763 K0.000 F600.000
G1 X98.350 Y-87.085 Z-3.000 F600.000
G2 X101.588 Y-83.847 Z-3.000 I2.148 J1.090 K0.000 F600.000
G0 Z6.000
G0 X101.589 Y-83.846 Z6.000
G0 X101.589 Y-83.846 Z4.000
G1 X101.589 Y-83.846 Z-3.000 F300.000
G2 X100.665 Y-88.408 Z-3.000 I-1.089 J-2.154 K0.000 F600.000
G2 X100.335 Y-83.592 Z-3.000 I-0.165 J2.408 K0.000 F600.000
G2 X101.589 Y-83.846 Z-3.000 I0.165 J-2.408 K0.000 F600.000
G0 Z6.000
G0 Z6.000
G0 X101.589 Y-83.846
G0 X53.604 Y-110.817
G0 X53.604 Y-110.817 Z4.000
G1 X53.604 Y-110.817 Z-1.000 F300.000
G2 X51.665 Y-114.408 Z-1.000 I-2.104 J-1.183 K0.000 F600.000
G2 X51.335 Y-109.592 Z-1.000 I-0.165 J2.408 K0.000 F600.000
G2 X53.604 Y-110.817 Z-1.000 I0.165 J-2.408 K0.000 F600.000
G0 Z6.000
G0 X52.588 Y-109.847 Z6.000
G0 X52.588 Y-109.847 Z4.000
G1 X52.588 Y-109.847 Z-1.000 F300.000
G3 X49.350 Y-113.085 Z-1.000 I-1.090 J-2.148 K0.000 F600.000
G1 X52.588 Y-109.847 Z-1.000 F600.000
G2 X53.148 Y-113.764 Z-1.000 I-1.086 J-2.153 K0.000 F600.000
G1 X53.148 Y-113.764 Z-3.000 F300.000
G3 X52.588 Y-109.847 Z-3.000 I-1.645 J1.763 K0.000 F600.000
G1 X49.350 Y-113.085 Z-3.000 F600.000
G2 X52.588 Y-109.847 Z-3.000 I2.148 J1.090 K0.000 F600.000
G0 Z6.000
G0 X52.589 Y-109.846 Z6.000
G0 X52.589 Y-109.846 Z4.000
G1 X52.589 Y-109.846 Z-3.000 F300.000
G2 X51.665 Y-114.408 Z-3.000 I-1.089 J-2.154 K0.000 F600.000
G2 X51.335 Y-109.592 Z-3.000 I-0.165 J2.408 K0.000 F600.000
G2 X52.589 Y-109.846 Z-3.000 I0.165 J-2.408 K0.000 F600.000
G0 Z6.000
G0 Z6.000
G0 X52.589 Y-109.846
G0 X171.999 Y-29.349
G0 X171.999 Y-29.349 Z4.000
G1 X171.999 Y-29.349 Z-1.000 F300.000
G2 X171.586 Y-28.000 Z-1.000 I2.001 J1.349 K0.000 F600.000
G2 X174.000 Y-25.586 Z-1.000 I2.414 J0.000 K0.000 F600.000
G2 X176.414 Y-28.000 Z-1.000 I0.000 J-2.414 K0.000 F600.000
G2 X171.999 Y-29.349 Z-1.000 I-2.414 J-0.000 K0.000 F600.000
G0 Z6.000
G0 X171.850 Y-26.915 Z6.000
G0 X171.850 Y-26.915 Z4.000
G1 X171.850 Y-26.915 Z-1.000 F300.000
G3 X175.088 Y-30.153 Z-1.000 I2.147 J-1.091 K0.000 F600.000
G1 X171.850 Y-26.915 Z-1.000 F600.000
G2 X175.648 Y-26.236 Z-1.000 I2.152 J-1.078 K0.000 F600.000
G1 X175.648 Y-26.236 Z-3.000 F300.000
G3 X171.850 Y-26.915 Z-3.000 I-1.645 J-1.756 K0.000 F600.000
G1 X175.088 Y-30.153 Z-3.000 F600.000
G2 X171.850 Y-26.915 Z-3.000 I-1.091 J2.147 K0.000 F600.000
G0 Z6.000
G0 X171.845 Y-26.912 Z6.000
G0 X171.845 Y-26.912 Z4.000
G1 X171.845 Y-26.912 Z-3.000 F300.000
G2 X176.414 Y-28.000 Z-3.000 I2.155 J-1.088 K0.000 F600.000
G2 X174.000 Y-30.414 Z-3.000 I-2.414 J-0.000 K0.000 F600.000
G2 X171.586 Y-28.000 Z-3.000 I0.000 J2.414 K0.000 F600.000
G2 X171.845 Y-26.912 Z-3.000 I2.414 J0.000 K0.000 F600.000
G0 Z6.000
G0 Z6.000
(Finish operation: Pocket_Shape)
(Begin operation: DressupTag)
(Path: DressupTag)
G0 Z6.000
G0 X241.119 Y1.119 Z6.000
G0 X241.119 Y1.119 Z4.000
G1 X241.316 Y0.879 Z3.998 F598.750
G1 X241.462 Y0.606 Z3.996 F598.700
G1 X241.552 Y0.309 Z3.994 F598.700
G1 X241.582 Y-0.000 Z3.992 F598.750
G1 X241.583 Y-130.000 Z3.125 F598.727
G1 X241.543 Y-130.352 Z3.123 F598.894
G1 X241.426 Y-130.687 Z3.121 F598.726
G1 X241.237 Y-130.987 Z3.118 F598.621
G1 X240.987 Y-131.237 Z3.115 F598.586
G1 X240.687 Y-131.426 Z3.113 F598.621
G1 X240.352 Y-131.543 Z3.110 F598.726
G1 X240.000 Y-131.582 Z3.108 F598.894
G1 X0.000 Y-131.582 Z1.508 F598.727
G1 X-0.352 Y-131.543 Z1.506 F598.894
G1 X-0.687 Y-131.426 Z1.504 F598.726
G1 X-0.987 Y-131.237 Z1.501 F598.621
G1 X-1.237 Y-130.987 Z1.499 F598.586
G1 X-1.426 Y-130.687 Z1.496 F598.621
G1 X-1.543 Y-130.352 Z1.494 F598.726
G1 X-1.582 Y-130.000 Z1.492 F598.894
G1 X-1.582 Y-0.000 Z0.625 F598.727
G1 X-1.543 Y0.352 Z0.623 F598.894
G1 X-1.426 Y0.687 Z0.621 F598.726
G1 X-1.237 Y0.987 Z0.618 F598.621
G1 X-0.987 Y1.237 Z0.615 F598.586
G1 X-0.687 Y1.426 Z0.613 F598.621
G1 X-0.352 Y1.543 Z0.610 F598.726
G1 X0.000 Y1.582 Z0.608 F598.894
G1 X240.000 Y1.583 Z-0.992 F598.727
G1 X240.309 Y1.552 Z-0.994 F598.750
G1 X240.606 Y1.462 Z-0.996 F598.700
G1 X240.879 Y1.316 Z-0.998 F598.700
G1 X241.119 Y1.119 Z-1.000 F598.750
G1 X241.316 Y0.879 Z-1.001 F599.500
G1 X241.462 Y0.606 Z-1.002 F599.480
G1 X241.552 Y0.309 Z-1.003 F599.480
G1 X241.582 Y-0.000 Z-1.003 F599.500
G1 X241.583 Y-130.000 Z-1.350 F599.491
G1 X241.543 Y-130.352 Z-1.351 F599.558
G1 X241.426 Y-130.687 Z-1.352 F599.490
G1 X241.237 Y-130.987 Z-1.353 F599.448
G1 X240.987 Y-131.237 Z-1.354 F599.434
G1 X240.687 Y-131.426 Z-1.355 F599.448
G1 X240.352 Y-131.543 Z-1.356 F599.490
G1 X240.000 Y-131.582 Z-1.357 F599.558
G1 X0.000 Y-131.582 Z-1.997 F599.491
G1 X-0.352 Y-131.543 Z-1.998 F599.558
G1 X-0.687 Y-131.426 Z-1.998 F599.490
G1 X-0.987 Y-131.237 Z-1.999 F599.448
G1 X-1.237 Y-130.987 Z-2.001 F599.434
G1 X-1.426 Y-130.687 Z-2.002 F599.448
G1 X-1.543 Y-130.352 Z-2.002 F599.490
G1 X-1.582 Y-130.000 Z-2.003 F599.558
G1 X-1.582 Y-0.000 Z-2.350 F599.491
G1 X-1.543 Y0.352 Z-2.351 F599.558
G1 X-1.426 Y0.687 Z-2.352 F599.490
G1 X-1.237 Y0.987 Z-2.353 F599.448
G1 X-0.987 Y1.237 Z-2.354 F599.434
G1 X-0.687 Y1.426 Z-2.355 F599.448
G1 X-0.352 Y1.543 Z-2.356 F599.490
G1 X0.000 Y1.582 Z-2.357 F599.558
G1 X240.000 Y1.583 Z-2.997 F599.491
G1 X240.309 Y1.552 Z-2.997 F599.500
G1 X240.606 Y1.462 Z-2.998 F599.480
G1 X240.879 Y1.316 Z-2.999 F599.480
G1 X241.119 Y1.119 Z-3.000 F599.500
G1 X241.316 Y0.879 Z-3.001 F599.500
G1 X241.462 Y0.606 Z-3.002 F599.480
G1 X241.552 Y0.309 Z-3.003 F599.480
G1 X241.582 Y-0.000 Z-3.003 F599.500
G1 X241.583 Y-130.000 Z-3.350 F599.491
G1 X241.543 Y-130.352 Z-3.351 F599.558
G1 X241.426 Y-130.687 Z-3.352 F599.490
G1 X241.237 Y-130.987 Z-3.353 F599.448
G1 X240.987 Y-131.237 Z-3.354 F599.434
G1 X240.687 Y-131.426 Z-3.355 F599.448
G1 X240.352 Y-131.543 Z-3.356 F599.490
G1 X240.000 Y-131.582 Z-3.357 F599.558
G1 X0.000 Y-131.582 Z-3.997 F599.491
G1 X-0.352 Y-131.543 Z-3.998 F599.558
G1 X-0.687 Y-131.426 Z-3.998 F599.490
G1 X-0.987 Y-131.237 Z-3.999 F599.448
G1 X-1.237 Y-130.987 Z-4.001 F599.434
G1 X-1.426 Y-130.687 Z-4.002 F599.448
G1 X-1.543 Y-130.352 Z-4.002 F599.490
G1 X-1.582 Y-130.000 Z-4.003 F599.558
G1 X-1.582 Y-0.000 Z-4.350 F599.491
G1 X-1.543 Y0.352 Z-4.351 F599.558
G1 X-1.426 Y0.687 Z-4.352 F599.490
G1 X-1.237 Y0.987 Z-4.353 F599.448
G1 X-0.987 Y1.237 Z-4.354 F599.434
G1 X-0.687 Y1.426 Z-4.355 F599.448
G1 X-0.352 Y1.543 Z-4.356 F599.490
G1 X0.000 Y1.582 Z-4.357 F599.558
G1 X240.000 Y1.583 Z-4.997 F599.491
G1 X240.309 Y1.552 Z-4.997 F599.500
G1 X240.606 Y1.462 Z-4.998 F599.480
G1 X240.879 Y1.316 Z-4.999 F599.480
G1 X241.119 Y1.119 Z-5.000 F599.500
G1 X241.316 Y0.879 Z-5.001 F599.500
G1 X241.462 Y0.606 Z-5.002 F599.480
G1 X241.552 Y0.309 Z-5.003 F599.480
G1 X241.582 Y-0.000 Z-5.003 F599.500
G1 X241.583 Y-130.000 Z-5.350 F599.491
G1 X241.543 Y-130.352 Z-5.351 F599.558
G1 X241.426 Y-130.687 Z-5.352 F599.490
G1 X241.237 Y-130.987 Z-5.353 F599.448
G1 X240.987 Y-131.237 Z-5.354 F599.434
G1 X240.687 Y-131.426 Z-5.355 F599.448
G1 X240.352 Y-131.543 Z-5.356 F599.490
G1 X240.000 Y-131.582 Z-5.357 F599.558
G1 X0.000 Y-131.582 Z-5.997 F599.491
G1 X-0.352 Y-131.543 Z-5.998 F599.558
G1 X-0.687 Y-131.426 Z-5.998 F599.490
G1 X-0.987 Y-131.237 Z-5.999 F599.448
G1 X-1.237 Y-130.987 Z-6.001 F599.434
G1 X-1.426 Y-130.687 Z-6.002 F599.448
G1 X-1.543 Y-130.352 Z-6.002 F599.490
G1 X-1.582 Y-130.000 Z-6.003 F599.558
G1 X-1.582 Y-0.000 Z-6.350 F599.491
G1 X-1.543 Y0.352 Z-6.351 F599.558
G1 X-1.426 Y0.687 Z-6.352 F599.490
G1 X-1.237 Y0.987 Z-6.353 F599.448
G1 X-0.987 Y1.237 Z-6.354 F599.434
G1 X-0.687 Y1.426 Z-6.355 F599.448
G1 X-0.352 Y1.543 Z-6.356 F599.490
G1 X0.000 Y1.582 Z-6.357 F599.558
G1 X240.000 Y1.583 Z-6.997 F599.491
G1 X240.309 Y1.552 Z-6.997 F599.500
G1 X240.606 Y1.462 Z-6.998 F599.480
G1 X240.879 Y1.316 Z-6.999 F599.480
G1 X241.119 Y1.119 Z-7.000 F599.500
G1 X241.316 Y0.879 Z-7.001 F599.500
G1 X241.462 Y0.606 Z-7.002 F599.480
G1 X241.552 Y0.309 Z-7.003 F599.480
G1 X241.582 Y-0.000 Z-7.003 F599.500
G1 X241.583 Y-130.000 Z-7.350 F599.491
G1 X241.543 Y-130.352 Z-7.351 F599.558
G1 X241.426 Y-130.687 Z-7.352 F599.490
G1 X241.237 Y-130.987 Z-7.353 F599.448
G1 X240.987 Y-131.237 Z-7.354 F599.434
G1 X240.687 Y-131.426 Z-7.355 F599.448
G1 X240.352 Y-131.543 Z-7.356 F599.490
G1 X240.000 Y-131.582 Z-7.357 F599.558
G1 X0.000 Y-131.582 Z-7.997 F599.491
G1 X-0.352 Y-131.543 Z-7.998 F599.558
G1 X-0.687 Y-131.426 Z-7.998 F599.490
G1 X-0.987 Y-131.237 Z-7.999 F599.448
G1 X-1.237 Y-130.987 Z-8.001 F599.434
G1 X-1.426 Y-130.687 Z-8.002 F599.448
G1 X-1.543 Y-130.352 Z-8.002 F599.490
G1 X-1.582 Y-130.000 Z-8.003 F599.558
G1 X-1.582 Y-0.000 Z-8.350 F599.491
G1 X-1.543 Y0.352 Z-8.351 F599.558
G1 X-1.426 Y0.687 Z-8.352 F599.490
G1 X-1.237 Y0.987 Z-8.353 F599.448
G1 X-0.987 Y1.237 Z-8.354 F599.434
G1 X-0.687 Y1.426 Z-8.355 F599.448
G1 X-0.352 Y1.543 Z-8.356 F599.490
G1 X0.000 Y1.582 Z-8.357 F599.558
G1 X57.428 Y1.582 Z-8.510 F599.491
G1 X57.937 Y1.582 Z-8.000 F450.000
G1 X62.062 Y1.582 Z-8.000 F600.000
G1 X62.586 Y1.582 Z-8.524 F450.000
G1 X177.109 Y1.582 Z-8.829 F599.491
G1 X177.937 Y1.582 Z-8.000 F450.000
G1 X182.062 Y1.582 Z-8.000 F600.000
G1 X182.907 Y1.582 Z-8.844 F450.000
G1 X240.000 Y1.583 Z-8.997 F599.491
G1 X240.309 Y1.552 Z-8.997 F599.500
G1 X240.606 Y1.462 Z-8.998 F599.480
G1 X240.879 Y1.316 Z-8.999 F599.480
G1 X241.119 Y1.119 Z-9.000 F599.500
G1 X241.316 Y0.879 Z-9.000 F599.750
G1 X241.462 Y0.606 Z-9.001 F599.740
G1 X241.552 Y0.309 Z-9.001 F599.740
G1 X241.582 Y-0.000 Z-9.002 F599.750
G1 X241.583 Y-130.000 Z-9.175 F599.745
G1 X241.543 Y-130.352 Z-9.175 F599.779
G1 X241.426 Y-130.687 Z-9.176 F599.745
G1 X241.237 Y-130.987 Z-9.176 F599.724
G1 X240.987 Y-131.237 Z-9.177 F599.717
G1 X240.687 Y-131.426 Z-9.177 F599.724
G1 X240.352 Y-131.543 Z-9.178 F599.745
G1 X240.000 Y-131.582 Z-9.178 F599.779
G1 X183.316 Y-131.582 Z-9.254 F599.745
G1 X182.063 Y-131.582 Z-8.000 F450.000
G1 X177.938 Y-131.582 Z-8.000 F600.000
G1 X176.675 Y-131.582 Z-9.263 F450.000
G1 X63.476 Y-131.582 Z-9.414 F599.745
G1 X62.063 Y-131.582 Z-8.000 F450.000
G1 X57.938 Y-131.582 Z-8.000 F600.000
G1 X56.515 Y-131.582 Z-9.423 F450.000
G1 X0.000 Y-131.582 Z-9.498 F599.745
G1 X-0.352 Y-131.543 Z-9.499 F599.779
G1 X-0.687 Y-131.426 Z-9.499 F599.745
G1 X-0.987 Y-131.237 Z-9.500 F599.724
G1 X-1.237 Y-130.987 Z-9.500 F599.717
G1 X-1.426 Y-130.687 Z-9.501 F599.724
G1 X-1.543 Y-130.352 Z-9.501 F599.745
G1 X-1.582 Y-130.000 Z-9.502 F599.779
G1 X-1.582 Y-0.000 Z-9.675 F599.745
G1 X-1.543 Y0.352 Z-9.675 F599.779
G1 X-1.426 Y0.687 Z-9.676 F599.745
G1 X-1.237 Y0.987 Z-9.676 F599.724
G1 X-0.987 Y1.237 Z-9.677 F599.717
G1 X-0.687 Y1.426 Z-9.677 F599.724
G1 X-0.352 Y1.543 Z-9.678 F599.745
G1 X0.000 Y1.582 Z-9.678 F599.779
G1 X56.184 Y1.582 Z-9.753 F599.745
G1 X57.937 Y1.582 Z-8.000 F450.000
G1 X62.062 Y1.582 Z-8.000 F600.000
G1 X63.826 Y1.582 Z-9.763 F450.000
G1 X176.024 Y1.582 Z-9.913 F599.745
G1 X177.937 Y1.582 Z-8.000 F450.000
G1 X182.062 Y1.582 Z-8.000 F600.000
G1 X183.986 Y1.582 Z-9.924 F450.000
G1 X240.000 Y1.583 Z-9.998 F599.745
G1 X240.309 Y1.552 Z-9.999 F599.750
G1 X240.606 Y1.462 Z-9.999 F599.740
G1 X240.879 Y1.316 Z-10.000 F599.740
G1 X241.119 Y1.119 Z-10.000 F599.750
G2 X241.582 Y-0.000 Z-10.000 I-1.119 J-1.119 K0.000 F600.000
G1 X241.583 Y-130.000 Z-10.000 F600.000
G2 X240.000 Y-131.582 Z-10.000 I-1.583 J0.000 K0.000 F600.000
G1 X184.063 Y-131.582 Z-10.000 F600.000
G1 X182.063 Y-131.582 Z-8.000 F450.000
G1 X177.938 Y-131.582 Z-8.000 F600.000
G1 X175.938 Y-131.582 Z-10.000 F450.000
G1 X64.063 Y-131.582 Z-10.000 F600.000
G1 X62.063 Y-131.582 Z-8.000 F450.000
G1 X57.938 Y-131.582 Z-8.000 F600.000
G1 X55.938 Y-131.582 Z-10.000 F450.000
G1 X0.000 Y-131.582 Z-10.000 F600.000
G2 X-1.582 Y-130.000 Z-10.000 I0.000 J1.583 K0.000 F600.000
G1 X-1.582 Y-0.000 Z-10.000 F600.000
G2 X0.000 Y1.582 Z-10.000 I1.583 J-0.000 K0.000 F600.000
G1 X55.937 Y1.582 Z-10.000 F600.000
G1 X57.937 Y1.582 Z-8.000 F450.000
G1 X62.062 Y1.582 Z-8.000 F600.000
G1 X64.062 Y1.582 Z-10.000 F450.000
G1 X175.937 Y1.582 Z-10.000 F600.000
G1 X177.937 Y1.582 Z-8.000 F450.000
G1 X182.062 Y1.582 Z-8.000 F600.000
G1 X184.062 Y1.582 Z-10.000 F450.000
G1 X240.000 Y1.583 Z-10.000 F600.000
G2 X241.119 Y1.119 Z-10.000 I-0.000 J-1.583 K0.000 F600.000
G0 X241.119 Y1.119 Z6.000
(Finish operation: DressupTag)
(Begin postamble)
M5
G17 G90
M2
