(Exported by FreeCAD)
(Post Processor: grbl_post)
(Output Time:2022-05-28 13:16:26.363873)
(Begin preamble)
G17 G90
G21
(Begin operation: Fixture)
(Path: Fixture)
G54
(Finish operation: Fixture)
(Begin operation: TC: endmill_FC1D322)
(Path: TC: endmill_FC1D322)
(TC: endmill_FC1D322)
(Begin toolchange)
( M6 T1.0 )
M3 S10000.0
(Finish operation: TC: endmill_FC1D322)
(Begin operation: Pocket_Shape003)
(Path: Pocket_Shape003)
(Pocket_Shape003)
G0 Z6.000
G0 X112.414 Y-12.586
G0 Z4.000
G1 X112.414 Y-12.586 Z-1.000 F300.000
G2 X113.417 Y-15.048 Z-1.000 I-2.422 J-2.422 K0.000 F480.000
G1 X113.417 Y-44.952 Z-1.000 F480.000
G2 X109.952 Y-48.418 Z-1.000 I-3.425 J-0.040 K0.000 F480.000
G1 X20.048 Y-48.418 Z-1.000 F480.000
G2 X16.583 Y-44.952 Z-1.000 I-0.040 J3.425 K0.000 F480.000
G1 X16.583 Y-15.048 Z-1.000 F480.000
G2 X20.048 Y-11.583 Z-1.000 I3.425 J0.040 K0.000 F480.000
G1 X109.952 Y-11.583 Z-1.000 F480.000
G2 X112.414 Y-12.586 Z-1.000 I0.040 J-3.425 K0.000 F480.000
G0 Z6.000
G0 X112.264 Y-47.556 Z6.000
G0 X112.264 Y-47.556 Z4.000
G1 X112.264 Y-47.556 Z-1.000 F300.000
G3 X113.417 Y-44.952 Z-1.000 I-2.281 J2.568 K0.000 F480.000
G1 X113.417 Y-41.927 Z-1.000 F480.000
G1 X106.927 Y-48.417 Z-1.000 F480.000
G1 X102.451 Y-48.417 Z-1.000 F480.000
G1 X113.417 Y-37.451 Z-1.000 F480.000
G1 X113.417 Y-32.975 Z-1.000 F480.000
G1 X97.975 Y-48.417 Z-1.000 F480.000
G1 X93.499 Y-48.417 Z-1.000 F480.000
G1 X113.417 Y-28.499 Z-1.000 F480.000
G1 X113.417 Y-24.023 Z-1.000 F480.000
G1 X89.023 Y-48.417 Z-1.000 F480.000
G1 X84.547 Y-48.417 Z-1.000 F480.000
G1 X113.417 Y-19.547 Z-1.000 F480.000
G1 X113.417 Y-15.071 Z-1.000 F480.000
G1 X80.071 Y-48.417 Z-1.000 F480.000
G1 X75.595 Y-48.417 Z-1.000 F480.000
G1 X111.867 Y-12.146 Z-1.000 F480.000
G3 X109.952 Y-11.583 Z-1.000 I-1.879 J-2.853 K0.000 F480.000
G1 X107.954 Y-11.583 Z-1.000 F480.000
G1 X71.119 Y-48.417 Z-1.000 F480.000
G1 X66.643 Y-48.417 Z-1.000 F480.000
G1 X103.478 Y-11.583 Z-1.000 F480.000
G1 X99.002 Y-11.583 Z-1.000 F480.000
G1 X62.167 Y-48.417 Z-1.000 F480.000
G1 X57.691 Y-48.417 Z-1.000 F480.000
G1 X94.526 Y-11.583 Z-1.000 F480.000
G1 X90.050 Y-11.583 Z-1.000 F480.000
G1 X53.215 Y-48.417 Z-1.000 F480.000
G1 X48.739 Y-48.417 Z-1.000 F480.000
G1 X85.574 Y-11.583 Z-1.000 F480.000
G1 X81.098 Y-11.583 Z-1.000 F480.000
G1 X44.263 Y-48.417 Z-1.000 F480.000
G1 X39.787 Y-48.417 Z-1.000 F480.000
G1 X76.622 Y-11.583 Z-1.000 F480.000
G1 X72.146 Y-11.583 Z-1.000 F480.000
G1 X35.311 Y-48.417 Z-1.000 F480.000
G1 X30.835 Y-48.417 Z-1.000 F480.000
G1 X67.670 Y-11.583 Z-1.000 F480.000
G1 X63.194 Y-11.583 Z-1.000 F480.000
G1 X26.359 Y-48.417 Z-1.000 F480.000
G1 X21.883 Y-48.417 Z-1.000 F480.000
G1 X58.718 Y-11.583 Z-1.000 F480.000
G1 X54.242 Y-11.583 Z-1.000 F480.000
G1 X18.035 Y-47.790 Z-1.000 F480.000
G2 X16.583 Y-44.766 Z-1.000 I2.001 J2.821 K0.000 F480.000
G1 X49.766 Y-11.583 Z-1.000 F480.000
G1 X45.290 Y-11.583 Z-1.000 F480.000
G1 X16.583 Y-40.290 Z-1.000 F480.000
G1 X16.583 Y-35.814 Z-1.000 F480.000
G1 X40.814 Y-11.583 Z-1.000 F480.000
G1 X36.338 Y-11.583 Z-1.000 F480.000
G1 X16.583 Y-31.338 Z-1.000 F480.000
G1 X16.583 Y-26.862 Z-1.000 F480.000
G1 X31.862 Y-11.583 Z-1.000 F480.000
G1 X27.386 Y-11.583 Z-1.000 F480.000
G1 X16.583 Y-22.386 Z-1.000 F480.000
G1 X16.583 Y-17.910 Z-1.000 F480.000
G1 X22.910 Y-11.583 Z-1.000 F480.000
G1 X20.048 Y-11.583 Z-1.000 F480.000
G3 X16.583 Y-15.048 Z-1.000 I-0.040 J-3.425 K0.000 F480.000
G1 X16.583 Y-17.910 Z-1.000 F480.000
G1 X16.583 Y-17.910 Z-2.000 F300.000
G1 X16.583 Y-15.048 Z-2.000 F480.000
G2 X20.048 Y-11.583 Z-2.000 I3.425 J0.040 K0.000 F480.000
G1 X22.910 Y-11.583 Z-2.000 F480.000
G1 X16.583 Y-17.910 Z-2.000 F480.000
G1 X16.583 Y-22.386 Z-2.000 F480.000
G1 X27.386 Y-11.583 Z-2.000 F480.000
G1 X31.862 Y-11.583 Z-2.000 F480.000
G1 X16.583 Y-26.862 Z-2.000 F480.000
G1 X16.583 Y-31.338 Z-2.000 F480.000
G1 X36.338 Y-11.583 Z-2.000 F480.000
G1 X40.814 Y-11.583 Z-2.000 F480.000
G1 X16.583 Y-35.814 Z-2.000 F480.000
G1 X16.583 Y-40.290 Z-2.000 F480.000
G1 X45.290 Y-11.583 Z-2.000 F480.000
G1 X49.766 Y-11.583 Z-2.000 F480.000
G1 X16.583 Y-44.766 Z-2.000 F480.000
G3 X18.035 Y-47.790 Z-2.000 I3.453 J-0.203 K0.000 F480.000
G1 X54.242 Y-11.583 Z-2.000 F480.000
G1 X58.718 Y-11.583 Z-2.000 F480.000
G1 X21.883 Y-48.417 Z-2.000 F480.000
G1 X26.359 Y-48.417 Z-2.000 F480.000
G1 X63.194 Y-11.583 Z-2.000 F480.000
G1 X67.670 Y-11.583 Z-2.000 F480.000
G1 X30.835 Y-48.417 Z-2.000 F480.000
G1 X35.311 Y-48.417 Z-2.000 F480.000
G1 X72.146 Y-11.583 Z-2.000 F480.000
G1 X76.622 Y-11.583 Z-2.000 F480.000
G1 X39.787 Y-48.417 Z-2.000 F480.000
G1 X44.263 Y-48.417 Z-2.000 F480.000
G1 X81.098 Y-11.583 Z-2.000 F480.000
G1 X85.574 Y-11.583 Z-2.000 F480.000
G1 X48.739 Y-48.417 Z-2.000 F480.000
G1 X53.215 Y-48.417 Z-2.000 F480.000
G1 X90.050 Y-11.583 Z-2.000 F480.000
G1 X94.526 Y-11.583 Z-2.000 F480.000
G1 X57.691 Y-48.417 Z-2.000 F480.000
G1 X62.167 Y-48.417 Z-2.000 F480.000
G1 X99.002 Y-11.583 Z-2.000 F480.000
G1 X103.478 Y-11.583 Z-2.000 F480.000
G1 X66.643 Y-48.417 Z-2.000 F480.000
G1 X71.119 Y-48.417 Z-2.000 F480.000
G1 X107.954 Y-11.583 Z-2.000 F480.000
G1 X109.952 Y-11.583 Z-2.000 F480.000
G2 X111.867 Y-12.146 Z-2.000 I0.035 J-3.416 K0.000 F480.000
G1 X75.595 Y-48.417 Z-2.000 F480.000
G1 X80.071 Y-48.417 Z-2.000 F480.000
G1 X113.417 Y-15.071 Z-2.000 F480.000
G1 X113.417 Y-19.547 Z-2.000 F480.000
G1 X84.547 Y-48.417 Z-2.000 F480.000
G1 X89.023 Y-48.417 Z-2.000 F480.000
G1 X113.417 Y-24.023 Z-2.000 F480.000
G1 X113.417 Y-28.499 Z-2.000 F480.000
G1 X93.499 Y-48.417 Z-2.000 F480.000
G1 X97.975 Y-48.417 Z-2.000 F480.000
G1 X113.417 Y-32.975 Z-2.000 F480.000
G1 X113.417 Y-37.451 Z-2.000 F480.000
G1 X102.451 Y-48.417 Z-2.000 F480.000
G1 X106.927 Y-48.417 Z-2.000 F480.000
G1 X113.417 Y-41.927 Z-2.000 F480.000
G1 X113.417 Y-44.952 Z-2.000 F480.000
G2 X112.264 Y-47.556 Z-2.000 I-3.435 J-0.036 K0.000 F480.000
G1 X112.264 Y-47.556 Z-2.000 F300.000
G2 X109.952 Y-48.418 Z-2.000 I-2.272 J2.563 K0.000 F480.000
G1 X20.048 Y-48.418 Z-2.000 F480.000
G2 X16.583 Y-44.952 Z-2.000 I-0.040 J3.425 K0.000 F480.000
G1 X16.583 Y-15.048 Z-2.000 F480.000
G2 X20.048 Y-11.583 Z-2.000 I3.425 J0.040 K0.000 F480.000
G1 X109.952 Y-11.583 Z-2.000 F480.000
G2 X113.417 Y-15.048 Z-2.000 I0.040 J-3.425 K0.000 F480.000
G1 X113.417 Y-44.952 Z-2.000 F480.000
G2 X112.264 Y-47.556 Z-2.000 I-3.425 J-0.040 K0.000 F480.000
G0 Z6.000
G0 Z6.000
(Finish operation: Pocket_Shape003)
(Begin operation: RampEntryDressup036)
(Path: RampEntryDressup036)
G0 X0.000 Y0.000 Z6.000
G0 X110.113 Y-44.888 Z6.000
G0 X110.113 Y-44.888 Z4.000
G1 X110.158 Y-44.980 Z3.507 F480.000
G1 X110.145 Y-45.065 Z3.011 F480.000
G1 X110.076 Y-45.140 Z2.518 F480.000
G1 X110.047 Y-45.153 Z2.362 F480.000
G1 X109.911 Y-45.113 Z1.746 F480.000
G1 X109.849 Y-45.049 Z1.120 F480.000
G1 X109.862 Y-44.960 Z0.494 F480.000
G1 X109.951 Y-44.849 Z-0.122 F480.000
G1 X110.038 Y-44.845 Z-0.561 F480.000
G1 X110.113 Y-44.888 Z-1.000 F480.000
G1 X110.158 Y-44.979 Z-1.195 F480.000
G1 X110.145 Y-45.065 Z-1.397 F480.000
G1 X110.076 Y-45.140 Z-1.593 F480.000
G1 X110.047 Y-45.153 Z-1.655 F480.000
G1 X109.934 Y-45.126 Z-1.843 F480.000
G1 X109.865 Y-45.079 Z-2.047 F480.000
G1 X109.845 Y-45.014 Z-2.257 F480.000
G1 X109.874 Y-44.936 Z-2.461 F480.000
G1 X109.951 Y-44.849 Z-2.649 F480.000
G1 X110.038 Y-44.845 Z-2.824 F480.000
G1 X110.113 Y-44.888 Z-3.000 F480.000
G1 X110.158 Y-44.979 Z-3.195 F480.000
G1 X110.145 Y-45.065 Z-3.397 F480.000
G1 X110.076 Y-45.140 Z-3.593 F480.000
G1 X110.047 Y-45.153 Z-3.655 F480.000
G1 X109.934 Y-45.126 Z-3.843 F480.000
G1 X109.865 Y-45.079 Z-4.047 F480.000
G1 X109.845 Y-45.014 Z-4.257 F480.000
G1 X109.874 Y-44.936 Z-4.461 F480.000
G1 X109.951 Y-44.849 Z-4.649 F480.000
G1 X110.038 Y-44.845 Z-4.824 F480.000
G1 X110.113 Y-44.888 Z-5.000 F480.000
G1 X110.158 Y-44.979 Z-5.195 F480.000
G1 X110.145 Y-45.065 Z-5.397 F480.000
G1 X110.076 Y-45.140 Z-5.593 F480.000
G1 X110.047 Y-45.153 Z-5.655 F480.000
G1 X109.934 Y-45.126 Z-5.843 F480.000
G1 X109.865 Y-45.079 Z-6.047 F480.000
G1 X109.845 Y-45.014 Z-6.257 F480.000
G1 X109.874 Y-44.936 Z-6.461 F480.000
G1 X109.951 Y-44.849 Z-6.649 F480.000
G1 X110.038 Y-44.845 Z-6.824 F480.000
G1 X110.113 Y-44.888 Z-7.000 F480.000
G1 X110.158 Y-44.979 Z-7.195 F480.000
G1 X110.145 Y-45.065 Z-7.397 F480.000
G1 X110.076 Y-45.140 Z-7.593 F480.000
G1 X110.047 Y-45.153 Z-7.655 F480.000
G1 X109.934 Y-45.126 Z-7.843 F480.000
G1 X109.865 Y-45.079 Z-8.047 F480.000
G1 X109.845 Y-45.014 Z-8.257 F480.000
G1 X109.874 Y-44.936 Z-8.461 F480.000
G1 X109.951 Y-44.849 Z-8.649 F480.000
G1 X110.038 Y-44.845 Z-8.824 F480.000
G1 X110.113 Y-44.888 Z-9.000 F480.000
G1 X110.158 Y-44.978 Z-9.096 F480.000
G1 X110.145 Y-45.067 Z-9.201 F480.000
G1 X110.076 Y-45.140 Z-9.296 F480.000
G1 X110.047 Y-45.153 Z-9.328 F480.000
G1 X109.938 Y-45.132 Z-9.410 F480.000
G1 X109.867 Y-45.082 Z-9.518 F480.000
G1 X109.844 Y-45.011 Z-9.634 F480.000
G1 X109.874 Y-44.929 Z-9.742 F480.000
G1 X109.951 Y-44.849 Z-9.824 F480.000
G1 X110.038 Y-44.845 Z-9.912 F480.000
G1 X110.113 Y-44.888 Z-10.000 F480.000
G2 X110.076 Y-45.140 Z-10.000 I-0.113 J-0.113 K0.000 F480.000
G1 X110.047 Y-45.153 Z-10.000 F480.000
G2 X109.951 Y-44.849 Z-10.000 I-0.047 J0.152 K0.000 F480.000
G2 X110.113 Y-44.888 Z-10.000 I0.050 J-0.151 K0.000 F480.000
G0 X110.113 Y-44.888 Z6.000
(Finish operation: RampEntryDressup036)
(Begin operation: RampEntryDressup037)
(Path: RampEntryDressup037)
G0 X0.000 Y0.000 Z6.000
G0 X110.113 Y-14.888 Z6.000
G0 X110.113 Y-14.888 Z4.000
G1 X110.158 Y-14.980 Z3.507 F480.000
G1 X110.145 Y-15.065 Z3.011 F480.000
G1 X110.076 Y-15.140 Z2.518 F480.000
G1 X110.047 Y-15.153 Z2.362 F480.000
G1 X109.911 Y-15.113 Z1.746 F480.000
G1 X109.849 Y-15.049 Z1.120 F480.000
G1 X109.862 Y-14.960 Z0.494 F480.000
G1 X109.951 Y-14.849 Z-0.122 F480.000
G1 X110.038 Y-14.845 Z-0.561 F480.000
G1 X110.113 Y-14.888 Z-1.000 F480.000
G1 X110.158 Y-14.979 Z-1.195 F480.000
G1 X110.145 Y-15.065 Z-1.397 F480.000
G1 X110.076 Y-15.140 Z-1.593 F480.000
G1 X110.047 Y-15.153 Z-1.655 F480.000
G1 X109.934 Y-15.126 Z-1.843 F480.000
G1 X109.865 Y-15.079 Z-2.047 F480.000
G1 X109.845 Y-15.014 Z-2.257 F480.000
G1 X109.874 Y-14.936 Z-2.461 F480.000
G1 X109.951 Y-14.849 Z-2.649 F480.000
G1 X110.038 Y-14.845 Z-2.824 F480.000
G1 X110.113 Y-14.888 Z-3.000 F480.000
G1 X110.158 Y-14.979 Z-3.195 F480.000
G1 X110.145 Y-15.065 Z-3.397 F480.000
G1 X110.076 Y-15.140 Z-3.593 F480.000
G1 X110.047 Y-15.153 Z-3.655 F480.000
G1 X109.934 Y-15.126 Z-3.843 F480.000
G1 X109.865 Y-15.079 Z-4.047 F480.000
G1 X109.845 Y-15.014 Z-4.257 F480.000
G1 X109.874 Y-14.936 Z-4.461 F480.000
G1 X109.951 Y-14.849 Z-4.649 F480.000
G1 X110.038 Y-14.845 Z-4.824 F480.000
G1 X110.113 Y-14.888 Z-5.000 F480.000
G1 X110.158 Y-14.979 Z-5.195 F480.000
G1 X110.145 Y-15.065 Z-5.397 F480.000
G1 X110.076 Y-15.140 Z-5.593 F480.000
G1 X110.047 Y-15.153 Z-5.655 F480.000
G1 X109.934 Y-15.126 Z-5.843 F480.000
G1 X109.865 Y-15.079 Z-6.047 F480.000
G1 X109.845 Y-15.014 Z-6.257 F480.000
G1 X109.874 Y-14.936 Z-6.461 F480.000
G1 X109.951 Y-14.849 Z-6.649 F480.000
G1 X110.038 Y-14.845 Z-6.824 F480.000
G1 X110.113 Y-14.888 Z-7.000 F480.000
G1 X110.158 Y-14.979 Z-7.195 F480.000
G1 X110.145 Y-15.065 Z-7.397 F480.000
G1 X110.076 Y-15.140 Z-7.593 F480.000
G1 X110.047 Y-15.153 Z-7.655 F480.000
G1 X109.934 Y-15.126 Z-7.843 F480.000
G1 X109.865 Y-15.079 Z-8.047 F480.000
G1 X109.845 Y-15.014 Z-8.257 F480.000
G1 X109.874 Y-14.936 Z-8.461 F480.000
G1 X109.951 Y-14.849 Z-8.649 F480.000
G1 X110.038 Y-14.845 Z-8.824 F480.000
G1 X110.113 Y-14.888 Z-9.000 F480.000
G1 X110.158 Y-14.978 Z-9.096 F480.000
G1 X110.145 Y-15.067 Z-9.201 F480.000
G1 X110.076 Y-15.140 Z-9.296 F480.000
G1 X110.047 Y-15.153 Z-9.328 F480.000
G1 X109.938 Y-15.132 Z-9.410 F480.000
G1 X109.867 Y-15.082 Z-9.518 F480.000
G1 X109.844 Y-15.011 Z-9.634 F480.000
G1 X109.874 Y-14.929 Z-9.742 F480.000
G1 X109.951 Y-14.849 Z-9.824 F480.000
G1 X110.038 Y-14.845 Z-9.912 F480.000
G1 X110.113 Y-14.888 Z-10.000 F480.000
G2 X110.076 Y-15.140 Z-10.000 I-0.113 J-0.113 K0.000 F480.000
G1 X110.047 Y-15.153 Z-10.000 F480.000
G2 X109.951 Y-14.849 Z-10.000 I-0.047 J0.152 K0.000 F480.000
G2 X110.113 Y-14.888 Z-10.000 I0.050 J-0.151 K0.000 F480.000
G0 X110.113 Y-14.888 Z6.000
(Finish operation: RampEntryDressup037)
(Begin operation: RampEntryDressup038)
(Path: RampEntryDressup038)
G0 X0.000 Y0.000 Z6.000
G0 X55.467 Y-39.533 Z6.000
G0 X55.467 Y-39.533 Z4.000
G1 X55.554 Y-39.639 Z3.835 F480.000
G1 X55.616 Y-39.761 Z3.669 F480.000
G1 X55.596 Y-40.038 Z3.444 F480.000
G1 X55.537 Y-40.272 Z3.180 F480.000
G1 X55.441 Y-40.454 Z2.887 F480.000
G1 X55.313 Y-40.578 Z2.577 F480.000
G1 X55.158 Y-40.638 Z2.261 F480.000
G1 X54.980 Y-40.633 Z1.951 F480.000
G1 X54.787 Y-40.563 Z1.658 F480.000
G1 X54.586 Y-40.429 Z1.394 F480.000
G1 X54.384 Y-40.239 Z1.169 F480.000
G1 X54.378 Y-39.977 Z0.937 F480.000
G1 X54.420 Y-39.752 Z0.672 F480.000
G1 X54.509 Y-39.573 Z0.384 F480.000
G1 X54.639 Y-39.446 Z0.085 F480.000
G1 X54.808 Y-39.378 Z-0.215 F480.000
G1 X55.007 Y-39.370 Z-0.503 F480.000
G1 X55.230 Y-39.422 Z-0.768 F480.000
G1 X55.467 Y-39.533 Z-1.000 F480.000
G1 X55.554 Y-39.639 Z-1.066 F480.000
G1 X55.616 Y-39.761 Z-1.132 F480.000
G1 X55.632 Y-40.008 Z-1.188 F480.000
G1 X55.587 Y-40.238 Z-1.284 F480.000
G1 X55.482 Y-40.431 Z-1.410 F480.000
G1 X55.329 Y-40.571 Z-1.556 F480.000
G1 X55.141 Y-40.644 Z-1.709 F480.000
G1 X54.934 Y-40.644 Z-1.855 F480.000
G1 X54.727 Y-40.571 Z-1.981 F480.000
G1 X54.538 Y-40.432 Z-2.076 F480.000
G1 X54.384 Y-40.239 Z-2.132 F480.000
G1 X54.355 Y-40.003 Z-2.203 F480.000
G1 X54.391 Y-39.779 Z-2.305 F480.000
G1 X54.489 Y-39.588 Z-2.429 F480.000
G1 X54.639 Y-39.446 Z-2.566 F480.000
G1 X54.830 Y-39.366 Z-2.703 F480.000
G1 X55.044 Y-39.354 Z-2.828 F480.000
G1 X55.263 Y-39.411 Z-2.930 F480.000
G1 X55.467 Y-39.533 Z-3.000 F480.000
G1 X55.554 Y-39.639 Z-3.066 F480.000
G1 X55.616 Y-39.761 Z-3.132 F480.000
G1 X55.632 Y-40.008 Z-3.188 F480.000
G1 X55.587 Y-40.238 Z-3.284 F480.000
G1 X55.482 Y-40.431 Z-3.410 F480.000
G1 X55.329 Y-40.571 Z-3.556 F480.000
G1 X55.141 Y-40.644 Z-3.709 F480.000
G1 X54.934 Y-40.644 Z-3.855 F480.000
G1 X54.727 Y-40.571 Z-3.981 F480.000
G1 X54.538 Y-40.432 Z-4.076 F480.000
G1 X54.384 Y-40.239 Z-4.132 F480.000
G1 X54.355 Y-40.003 Z-4.203 F480.000
G1 X54.391 Y-39.779 Z-4.305 F480.000
G1 X54.489 Y-39.588 Z-4.429 F480.000
G1 X54.639 Y-39.446 Z-4.566 F480.000
G1 X54.830 Y-39.366 Z-4.703 F480.000
G1 X55.044 Y-39.354 Z-4.828 F480.000
G1 X55.263 Y-39.411 Z-4.930 F480.000
G1 X55.467 Y-39.533 Z-5.000 F480.000
G1 X55.554 Y-39.639 Z-5.066 F480.000
G1 X55.616 Y-39.761 Z-5.132 F480.000
G1 X55.632 Y-40.008 Z-5.188 F480.000
G1 X55.587 Y-40.238 Z-5.284 F480.000
G1 X55.482 Y-40.431 Z-5.410 F480.000
G1 X55.329 Y-40.571 Z-5.556 F480.000
G1 X55.141 Y-40.644 Z-5.709 F480.000
G1 X54.934 Y-40.644 Z-5.855 F480.000
G1 X54.727 Y-40.571 Z-5.981 F480.000
G1 X54.538 Y-40.432 Z-6.076 F480.000
G1 X54.384 Y-40.239 Z-6.132 F480.000
G1 X54.355 Y-40.003 Z-6.203 F480.000
G1 X54.391 Y-39.779 Z-6.305 F480.000
G1 X54.489 Y-39.588 Z-6.429 F480.000
G1 X54.639 Y-39.446 Z-6.566 F480.000
G1 X54.830 Y-39.366 Z-6.703 F480.000
G1 X55.044 Y-39.354 Z-6.828 F480.000
G1 X55.263 Y-39.411 Z-6.930 F480.000
G1 X55.467 Y-39.533 Z-7.000 F480.000
G1 X55.554 Y-39.639 Z-7.066 F480.000
G1 X55.616 Y-39.761 Z-7.132 F480.000
G1 X55.632 Y-40.008 Z-7.188 F480.000
G1 X55.587 Y-40.238 Z-7.284 F480.000
G1 X55.482 Y-40.431 Z-7.410 F480.000
G1 X55.329 Y-40.571 Z-7.556 F480.000
G1 X55.141 Y-40.644 Z-7.709 F480.000
G1 X54.934 Y-40.644 Z-7.855 F480.000
G1 X54.727 Y-40.571 Z-7.981 F480.000
G1 X54.538 Y-40.432 Z-8.076 F480.000
G1 X54.384 Y-40.239 Z-8.132 F480.000
G1 X54.355 Y-40.003 Z-8.203 F480.000
G1 X54.391 Y-39.779 Z-8.305 F480.000
G1 X54.489 Y-39.588 Z-8.429 F480.000
G1 X54.639 Y-39.446 Z-8.566 F480.000
G1 X54.830 Y-39.366 Z-8.703 F480.000
G1 X55.044 Y-39.354 Z-8.828 F480.000
G1 X55.263 Y-39.411 Z-8.930 F480.000
G1 X55.467 Y-39.533 Z-9.000 F480.000
G1 X55.554 Y-39.639 Z-9.033 F480.000
G1 X55.616 Y-39.761 Z-9.066 F480.000
G1 X55.651 Y-39.993 Z-9.085 F480.000
G1 X55.612 Y-40.221 Z-9.130 F480.000
G1 X55.504 Y-40.420 Z-9.196 F480.000
G1 X55.338 Y-40.567 Z-9.275 F480.000
G1 X55.132 Y-40.647 Z-9.358 F480.000
G1 X54.910 Y-40.650 Z-9.437 F480.000
G1 X54.697 Y-40.576 Z-9.502 F480.000
G1 X54.514 Y-40.434 Z-9.547 F480.000
G1 X54.384 Y-40.239 Z-9.566 F480.000
G1 X54.344 Y-40.014 Z-9.596 F480.000
G1 X54.377 Y-39.792 Z-9.646 F480.000
G1 X54.479 Y-39.595 Z-9.711 F480.000
G1 X54.639 Y-39.446 Z-9.783 F480.000
G1 X54.840 Y-39.360 Z-9.855 F480.000
G1 X55.061 Y-39.346 Z-9.920 F480.000
G1 X55.277 Y-39.406 Z-9.970 F480.000
G1 X55.467 Y-39.533 Z-10.000 F480.000
G2 X55.616 Y-39.761 Z-10.000 I-0.467 J-0.467 K0.000 F480.000
G2 X54.384 Y-40.239 Z-10.000 I-0.616 J-0.239 K0.000 F480.000
G2 X55.467 Y-39.533 Z-10.000 I0.616 J0.239 K0.000 F480.000
G0 X55.467 Y-39.533 Z6.000
(Finish operation: RampEntryDressup038)
(Begin operation: RampEntryDressup039)
(Path: RampEntryDressup039)
G0 X0.000 Y0.000 Z6.000
G0 X40.467 Y-39.533 Z6.000
G0 X40.467 Y-39.533 Z4.000
G1 X40.554 Y-39.639 Z3.835 F480.000
G1 X40.616 Y-39.761 Z3.669 F480.000
G1 X40.596 Y-40.038 Z3.444 F480.000
G1 X40.537 Y-40.272 Z3.180 F480.000
G1 X40.441 Y-40.454 Z2.887 F480.000
G1 X40.313 Y-40.578 Z2.577 F480.000
G1 X40.158 Y-40.638 Z2.261 F480.000
G1 X39.980 Y-40.633 Z1.951 F480.000
G1 X39.787 Y-40.563 Z1.658 F480.000
G1 X39.586 Y-40.429 Z1.394 F480.000
G1 X39.384 Y-40.239 Z1.169 F480.000
G1 X39.378 Y-39.977 Z0.937 F480.000
G1 X39.420 Y-39.752 Z0.672 F480.000
G1 X39.509 Y-39.573 Z0.384 F480.000
G1 X39.639 Y-39.446 Z0.085 F480.000
G1 X39.808 Y-39.378 Z-0.215 F480.000
G1 X40.007 Y-39.370 Z-0.503 F480.000
G1 X40.230 Y-39.422 Z-0.768 F480.000
G1 X40.467 Y-39.533 Z-1.000 F480.000
G1 X40.554 Y-39.639 Z-1.066 F480.000
G1 X40.616 Y-39.761 Z-1.132 F480.000
G1 X40.632 Y-40.008 Z-1.188 F480.000
G1 X40.587 Y-40.238 Z-1.284 F480.000
G1 X40.482 Y-40.431 Z-1.410 F480.000
G1 X40.329 Y-40.571 Z-1.556 F480.000
G1 X40.141 Y-40.644 Z-1.709 F480.000
G1 X39.934 Y-40.644 Z-1.855 F480.000
G1 X39.727 Y-40.571 Z-1.981 F480.000
G1 X39.538 Y-40.432 Z-2.076 F480.000
G1 X39.384 Y-40.239 Z-2.132 F480.000
G1 X39.355 Y-40.003 Z-2.203 F480.000
G1 X39.391 Y-39.779 Z-2.305 F480.000
G1 X39.489 Y-39.588 Z-2.429 F480.000
G1 X39.639 Y-39.446 Z-2.566 F480.000
G1 X39.830 Y-39.366 Z-2.703 F480.000
G1 X40.044 Y-39.354 Z-2.828 F480.000
G1 X40.263 Y-39.411 Z-2.930 F480.000
G1 X40.467 Y-39.533 Z-3.000 F480.000
G1 X40.554 Y-39.639 Z-3.066 F480.000
G1 X40.616 Y-39.761 Z-3.132 F480.000
G1 X40.632 Y-40.008 Z-3.188 F480.000
G1 X40.587 Y-40.238 Z-3.284 F480.000
G1 X40.482 Y-40.431 Z-3.410 F480.000
G1 X40.329 Y-40.571 Z-3.556 F480.000
G1 X40.141 Y-40.644 Z-3.709 F480.000
G1 X39.934 Y-40.644 Z-3.855 F480.000
G1 X39.727 Y-40.571 Z-3.981 F480.000
G1 X39.538 Y-40.432 Z-4.076 F480.000
G1 X39.384 Y-40.239 Z-4.132 F480.000
G1 X39.355 Y-40.003 Z-4.203 F480.000
G1 X39.391 Y-39.779 Z-4.305 F480.000
G1 X39.489 Y-39.588 Z-4.429 F480.000
G1 X39.639 Y-39.446 Z-4.566 F480.000
G1 X39.830 Y-39.366 Z-4.703 F480.000
G1 X40.044 Y-39.354 Z-4.828 F480.000
G1 X40.263 Y-39.411 Z-4.930 F480.000
G1 X40.467 Y-39.533 Z-5.000 F480.000
G1 X40.554 Y-39.639 Z-5.066 F480.000
G1 X40.616 Y-39.761 Z-5.132 F480.000
G1 X40.632 Y-40.008 Z-5.188 F480.000
G1 X40.587 Y-40.238 Z-5.284 F480.000
G1 X40.482 Y-40.431 Z-5.410 F480.000
G1 X40.329 Y-40.571 Z-5.556 F480.000
G1 X40.141 Y-40.644 Z-5.709 F480.000
G1 X39.934 Y-40.644 Z-5.855 F480.000
G1 X39.727 Y-40.571 Z-5.981 F480.000
G1 X39.538 Y-40.432 Z-6.076 F480.000
G1 X39.384 Y-40.239 Z-6.132 F480.000
G1 X39.355 Y-40.003 Z-6.203 F480.000
G1 X39.391 Y-39.779 Z-6.305 F480.000
G1 X39.489 Y-39.588 Z-6.429 F480.000
G1 X39.639 Y-39.446 Z-6.566 F480.000
G1 X39.830 Y-39.366 Z-6.703 F480.000
G1 X40.044 Y-39.354 Z-6.828 F480.000
G1 X40.263 Y-39.411 Z-6.930 F480.000
G1 X40.467 Y-39.533 Z-7.000 F480.000
G1 X40.554 Y-39.639 Z-7.066 F480.000
G1 X40.616 Y-39.761 Z-7.132 F480.000
G1 X40.632 Y-40.008 Z-7.188 F480.000
G1 X40.587 Y-40.238 Z-7.284 F480.000
G1 X40.482 Y-40.431 Z-7.410 F480.000
G1 X40.329 Y-40.571 Z-7.556 F480.000
G1 X40.141 Y-40.644 Z-7.709 F480.000
G1 X39.934 Y-40.644 Z-7.855 F480.000
G1 X39.727 Y-40.571 Z-7.981 F480.000
G1 X39.538 Y-40.432 Z-8.076 F480.000
G1 X39.384 Y-40.239 Z-8.132 F480.000
G1 X39.355 Y-40.003 Z-8.203 F480.000
G1 X39.391 Y-39.779 Z-8.305 F480.000
G1 X39.489 Y-39.588 Z-8.429 F480.000
G1 X39.639 Y-39.446 Z-8.566 F480.000
G1 X39.830 Y-39.366 Z-8.703 F480.000
G1 X40.044 Y-39.354 Z-8.828 F480.000
G1 X40.263 Y-39.411 Z-8.930 F480.000
G1 X40.467 Y-39.533 Z-9.000 F480.000
G1 X40.554 Y-39.639 Z-9.033 F480.000
G1 X40.616 Y-39.761 Z-9.066 F480.000
G1 X40.651 Y-39.993 Z-9.085 F480.000
G1 X40.612 Y-40.221 Z-9.130 F480.000
G1 X40.504 Y-40.420 Z-9.196 F480.000
G1 X40.338 Y-40.567 Z-9.275 F480.000
G1 X40.132 Y-40.647 Z-9.358 F480.000
G1 X39.910 Y-40.650 Z-9.437 F480.000
G1 X39.697 Y-40.576 Z-9.502 F480.000
G1 X39.514 Y-40.434 Z-9.547 F480.000
G1 X39.384 Y-40.239 Z-9.566 F480.000
G1 X39.344 Y-40.014 Z-9.596 F480.000
G1 X39.377 Y-39.792 Z-9.646 F480.000
G1 X39.479 Y-39.595 Z-9.711 F480.000
G1 X39.639 Y-39.446 Z-9.783 F480.000
G1 X39.840 Y-39.360 Z-9.855 F480.000
G1 X40.061 Y-39.346 Z-9.920 F480.000
G1 X40.277 Y-39.406 Z-9.970 F480.000
G1 X40.467 Y-39.533 Z-10.000 F480.000
G2 X40.616 Y-39.761 Z-10.000 I-0.467 J-0.467 K0.000 F480.000
G2 X39.384 Y-40.239 Z-10.000 I-0.616 J-0.239 K0.000 F480.000
G2 X40.467 Y-39.533 Z-10.000 I0.616 J0.239 K0.000 F480.000
G0 X40.467 Y-39.533 Z6.000
(Finish operation: RampEntryDressup039)
(Begin operation: RampEntryDressup040)
(Path: RampEntryDressup040)
G0 X0.000 Y0.000 Z6.000
G0 X20.113 Y-44.887 Z6.000
G0 X20.113 Y-44.887 Z4.000
G1 X20.158 Y-44.992 Z3.456 F480.000
G1 X20.136 Y-45.081 Z2.908 F480.000
G1 X20.047 Y-45.153 Z2.365 F480.000
G1 X19.961 Y-45.154 Z1.949 F480.000
G1 X19.895 Y-45.119 Z1.531 F480.000
G1 X19.847 Y-45.047 Z1.115 F480.000
G1 X19.846 Y-44.961 Z0.699 F480.000
G1 X19.881 Y-44.895 Z0.281 F480.000
G1 X19.953 Y-44.847 Z-0.135 F480.000
G1 X20.038 Y-44.845 Z-0.568 F480.000
G1 X20.113 Y-44.887 Z-1.000 F480.000
G1 X20.158 Y-44.991 Z-1.215 F480.000
G1 X20.135 Y-45.082 Z-1.439 F480.000
G1 X20.047 Y-45.153 Z-1.654 F480.000
G1 X19.962 Y-45.155 Z-1.819 F480.000
G1 X19.894 Y-45.119 Z-1.989 F480.000
G1 X19.847 Y-45.047 Z-2.154 F480.000
G1 X19.845 Y-44.962 Z-2.319 F480.000
G1 X19.881 Y-44.894 Z-2.489 F480.000
G1 X19.953 Y-44.847 Z-2.654 F480.000
G1 X20.038 Y-44.845 Z-2.827 F480.000
G1 X20.113 Y-44.887 Z-3.000 F480.000
G1 X20.158 Y-44.991 Z-3.215 F480.000
G1 X20.135 Y-45.082 Z-3.439 F480.000
G1 X20.047 Y-45.153 Z-3.654 F480.000
G1 X19.962 Y-45.155 Z-3.819 F480.000
G1 X19.894 Y-45.119 Z-3.989 F480.000
G1 X19.847 Y-45.047 Z-4.154 F480.000
G1 X19.845 Y-44.962 Z-4.319 F480.000
G1 X19.881 Y-44.894 Z-4.489 F480.000
G1 X19.953 Y-44.847 Z-4.654 F480.000
G1 X20.038 Y-44.845 Z-4.827 F480.000
G1 X20.113 Y-44.887 Z-5.000 F480.000
G1 X20.158 Y-44.991 Z-5.215 F480.000
G1 X20.135 Y-45.082 Z-5.439 F480.000
G1 X20.047 Y-45.153 Z-5.654 F480.000
G1 X19.962 Y-45.155 Z-5.819 F480.000
G1 X19.894 Y-45.119 Z-5.989 F480.000
G1 X19.847 Y-45.047 Z-6.154 F480.000
G1 X19.845 Y-44.962 Z-6.319 F480.000
G1 X19.881 Y-44.894 Z-6.489 F480.000
G1 X19.953 Y-44.847 Z-6.654 F480.000
G1 X20.038 Y-44.845 Z-6.827 F480.000
G1 X20.113 Y-44.887 Z-7.000 F480.000
G1 X20.158 Y-44.991 Z-7.215 F480.000
G1 X20.135 Y-45.082 Z-7.439 F480.000
G1 X20.047 Y-45.153 Z-7.654 F480.000
G1 X19.962 Y-45.155 Z-7.819 F480.000
G1 X19.894 Y-45.119 Z-7.989 F480.000
G1 X19.847 Y-45.047 Z-8.154 F480.000
G1 X19.845 Y-44.962 Z-8.319 F480.000
G1 X19.881 Y-44.894 Z-8.489 F480.000
G1 X19.953 Y-44.847 Z-8.654 F480.000
G1 X20.038 Y-44.845 Z-8.827 F480.000
G1 X20.113 Y-44.887 Z-9.000 F480.000
G1 X20.158 Y-44.989 Z-9.105 F480.000
G1 X20.135 Y-45.084 Z-9.222 F480.000
G1 X20.047 Y-45.153 Z-9.327 F480.000
G1 X19.963 Y-45.155 Z-9.409 F480.000
G1 X19.893 Y-45.118 Z-9.496 F480.000
G1 X19.847 Y-45.047 Z-9.577 F480.000
G1 X19.845 Y-44.963 Z-9.659 F480.000
G1 X19.882 Y-44.893 Z-9.746 F480.000
G1 X19.953 Y-44.847 Z-9.827 F480.000
G1 X20.038 Y-44.845 Z-9.914 F480.000
G1 X20.113 Y-44.887 Z-10.000 F480.000
G2 X20.047 Y-45.153 Z-10.000 I-0.113 J-0.113 K0.000 F480.000
G2 X19.847 Y-45.047 Z-10.000 I-0.047 J0.153 K0.000 F480.000
G2 X19.953 Y-44.847 Z-10.000 I0.153 J0.047 K0.000 F480.000
G2 X20.113 Y-44.887 Z-10.000 I0.047 J-0.153 K0.000 F480.000
G0 X20.113 Y-44.887 Z6.000
(Finish operation: RampEntryDressup040)
(Begin operation: RampEntryDressup041)
(Path: RampEntryDressup041)
G0 X0.000 Y0.000 Z6.000
G0 X20.112 Y-14.888 Z6.000
G0 X20.112 Y-14.888 Z4.000
G1 X20.145 Y-14.935 Z3.708 F480.000
G1 X20.157 Y-15.020 Z3.292 F480.000
G1 X20.130 Y-15.090 Z2.874 F480.000
G1 X20.065 Y-15.145 Z2.458 F480.000
G1 X19.980 Y-15.157 Z2.042 F480.000
G1 X19.910 Y-15.130 Z1.624 F480.000
G1 X19.855 Y-15.065 Z1.208 F480.000
G1 X19.864 Y-14.940 Z0.660 F480.000
G1 X19.910 Y-14.869 Z0.104 F480.000
G1 X19.993 Y-14.851 Z-0.452 F480.000
G1 X20.112 Y-14.888 Z-1.000 F480.000
G1 X20.145 Y-14.935 Z-1.117 F480.000
G1 X20.157 Y-15.020 Z-1.282 F480.000
G1 X20.130 Y-15.091 Z-1.451 F480.000
G1 X20.065 Y-15.145 Z-1.617 F480.000
G1 X19.980 Y-15.157 Z-1.782 F480.000
G1 X19.909 Y-15.130 Z-1.951 F480.000
G1 X19.855 Y-15.065 Z-2.117 F480.000
G1 X19.862 Y-14.942 Z-2.329 F480.000
G1 X19.910 Y-14.869 Z-2.558 F480.000
G1 X19.996 Y-14.851 Z-2.787 F480.000
G1 X20.112 Y-14.888 Z-3.000 F480.000
G1 X20.145 Y-14.935 Z-3.117 F480.000
G1 X20.157 Y-15.020 Z-3.282 F480.000
G1 X20.130 Y-15.091 Z-3.451 F480.000
G1 X20.065 Y-15.145 Z-3.617 F480.000
G1 X19.980 Y-15.157 Z-3.782 F480.000
G1 X19.909 Y-15.130 Z-3.951 F480.000
G1 X19.855 Y-15.065 Z-4.117 F480.000
G1 X19.862 Y-14.942 Z-4.329 F480.000
G1 X19.910 Y-14.869 Z-4.558 F480.000
G1 X19.996 Y-14.851 Z-4.787 F480.000
G1 X20.112 Y-14.888 Z-5.000 F480.000
G1 X20.145 Y-14.935 Z-5.117 F480.000
G1 X20.157 Y-15.020 Z-5.282 F480.000
G1 X20.130 Y-15.091 Z-5.451 F480.000
G1 X20.065 Y-15.145 Z-5.617 F480.000
G1 X19.980 Y-15.157 Z-5.782 F480.000
G1 X19.909 Y-15.130 Z-5.951 F480.000
G1 X19.855 Y-15.065 Z-6.117 F480.000
G1 X19.862 Y-14.942 Z-6.329 F480.000
G1 X19.910 Y-14.869 Z-6.558 F480.000
G1 X19.996 Y-14.851 Z-6.787 F480.000
G1 X20.112 Y-14.888 Z-7.000 F480.000
G1 X20.145 Y-14.935 Z-7.117 F480.000
G1 X20.157 Y-15.020 Z-7.282 F480.000
G1 X20.130 Y-15.091 Z-7.451 F480.000
G1 X20.065 Y-15.145 Z-7.617 F480.000
G1 X19.980 Y-15.157 Z-7.782 F480.000
G1 X19.909 Y-15.130 Z-7.951 F480.000
G1 X19.855 Y-15.065 Z-8.117 F480.000
G1 X19.862 Y-14.942 Z-8.329 F480.000
G1 X19.910 Y-14.869 Z-8.558 F480.000
G1 X19.996 Y-14.851 Z-8.787 F480.000
G1 X20.112 Y-14.888 Z-9.000 F480.000
G1 X20.145 Y-14.935 Z-9.058 F480.000
G1 X20.157 Y-15.019 Z-9.140 F480.000
G1 X20.129 Y-15.092 Z-9.227 F480.000
G1 X20.065 Y-15.145 Z-9.308 F480.000
G1 X19.981 Y-15.157 Z-9.390 F480.000
G1 X19.908 Y-15.129 Z-9.477 F480.000
G1 X19.855 Y-15.065 Z-9.558 F480.000
G1 X19.858 Y-14.946 Z-9.657 F480.000
G1 X19.910 Y-14.869 Z-9.779 F480.000
G1 X20.001 Y-14.848 Z-9.902 F480.000
G1 X20.112 Y-14.888 Z-10.000 F480.000
G2 X20.145 Y-14.935 Z-10.000 I-0.112 J-0.112 K0.000 F480.000
G2 X20.065 Y-15.145 Z-10.000 I-0.145 J-0.065 K0.000 F480.000
G2 X19.855 Y-15.065 Z-10.000 I-0.065 J0.145 K0.000 F480.000
G2 X20.112 Y-14.888 Z-10.000 I0.145 J0.065 K0.000 F480.000
G0 X20.112 Y-14.888 Z6.000
(Finish operation: RampEntryDressup041)
(Begin operation: DressupTag007)
(Path: DressupTag007)
G0 Z6.000
G0 X96.418 Y-13.583 Z6.000
G0 X96.418 Y-13.583 Z4.000
G1 X96.418 Y-46.418 Z2.750 F475.640
G1 X63.582 Y-46.418 Z1.500 F475.640
G1 X63.582 Y-13.583 Z0.250 F475.640
G1 X96.418 Y-13.583 Z-1.000 F475.640
G1 X96.418 Y-46.418 Z-1.500 F478.255
G1 X63.582 Y-46.418 Z-2.000 F478.255
G1 X63.582 Y-13.583 Z-2.500 F478.255
G1 X96.418 Y-13.583 Z-3.000 F478.255
G1 X96.418 Y-46.418 Z-3.500 F478.255
G1 X63.582 Y-46.418 Z-4.000 F478.255
G1 X63.582 Y-13.583 Z-4.500 F478.255
G1 X96.418 Y-13.583 Z-5.000 F478.255
G1 X96.418 Y-46.418 Z-5.500 F478.255
G1 X63.582 Y-46.418 Z-6.000 F478.255
G1 X63.582 Y-13.583 Z-6.500 F478.255
G1 X96.418 Y-13.583 Z-7.000 F478.255
G1 X96.418 Y-46.418 Z-7.500 F478.255
G1 X63.582 Y-46.418 Z-8.000 F478.255
G1 X63.582 Y-13.583 Z-8.500 F478.255
G1 X77.230 Y-13.583 Z-8.708 F478.255
G1 X77.938 Y-13.583 Z-8.000 F390.000
G1 X82.062 Y-13.583 Z-8.000 F480.000
G1 X82.856 Y-13.583 Z-8.793 F390.000
G1 X96.418 Y-13.583 Z-9.000 F478.255
G1 X96.418 Y-46.418 Z-9.250 F479.128
G1 X83.412 Y-46.418 Z-9.349 F479.128
G1 X82.062 Y-46.418 Z-8.000 F390.000
G1 X77.938 Y-46.418 Z-8.000 F480.000
G1 X76.536 Y-46.418 Z-9.401 F390.000
G1 X63.582 Y-46.418 Z-9.500 F479.128
G1 X63.582 Y-13.583 Z-9.750 F479.128
G1 X76.092 Y-13.583 Z-9.845 F479.128
G1 X77.938 Y-13.583 Z-8.000 F390.000
G1 X82.062 Y-13.583 Z-8.000 F480.000
G1 X83.968 Y-13.583 Z-9.905 F390.000
G1 X96.418 Y-13.583 Z-10.000 F479.128
G1 X96.418 Y-46.418 Z-10.000 F480.000
G1 X84.062 Y-46.418 Z-10.000 F480.000
G1 X82.062 Y-46.418 Z-8.000 F390.000
G1 X77.938 Y-46.418 Z-8.000 F480.000
G1 X75.938 Y-46.418 Z-10.000 F390.000
G1 X63.582 Y-46.418 Z-10.000 F480.000
G1 X63.582 Y-13.583 Z-10.000 F480.000
G1 X75.938 Y-13.583 Z-10.000 F480.000
G1 X77.938 Y-13.583 Z-8.000 F390.000
G1 X82.062 Y-13.583 Z-8.000 F480.000
G1 X84.062 Y-13.583 Z-10.000 F390.000
G1 X96.418 Y-13.583 Z-10.000 F480.000
G0 X96.418 Y-13.583 Z6.000
(Finish operation: DressupTag007)
(Begin operation: DressupTag006)
(Path: DressupTag006)
G0 Z6.000
G0 X131.119 Y1.119 Z6.000
G0 X131.119 Y1.119 Z4.000
G1 X130.879 Y1.316 Z3.996 F478.557
G1 X130.606 Y1.462 Z3.992 F478.500
G1 X130.309 Y1.552 Z3.988 F478.500
G1 X130.000 Y1.582 Z3.984 F478.557
G1 X0.000 Y1.582 Z2.317 F478.531
G1 X-0.352 Y1.543 Z2.313 F478.724
G1 X-0.687 Y1.426 Z2.309 F478.530
G1 X-0.987 Y1.237 Z2.304 F478.409
G1 X-1.237 Y0.987 Z2.299 F478.368
G1 X-1.426 Y0.687 Z2.294 F478.409
G1 X-1.543 Y0.352 Z2.289 F478.530
G1 X-1.582 Y-0.000 Z2.285 F478.724
G1 X-1.582 Y-60.000 Z1.516 F478.531
G1 X-1.543 Y-60.352 Z1.512 F478.724
G1 X-1.426 Y-60.687 Z1.507 F478.530
G1 X-1.237 Y-60.987 Z1.503 F478.409
G1 X-0.987 Y-61.237 Z1.497 F478.368
G1 X-0.687 Y-61.426 Z1.493 F478.409
G1 X-0.352 Y-61.543 Z1.488 F478.530
G1 X0.000 Y-61.583 Z1.484 F478.724
G1 X130.000 Y-61.582 Z-0.183 F478.531
G1 X130.352 Y-61.543 Z-0.187 F478.724
G1 X130.687 Y-61.426 Z-0.191 F478.530
G1 X130.987 Y-61.237 Z-0.196 F478.409
G1 X131.237 Y-60.987 Z-0.201 F478.368
G1 X131.426 Y-60.687 Z-0.206 F478.409
G1 X131.543 Y-60.352 Z-0.211 F478.530
G1 X131.582 Y-60.000 Z-0.215 F478.724
G1 X131.582 Y-0.000 Z-0.984 F478.531
G1 X131.552 Y0.309 Z-0.988 F478.557
G1 X131.462 Y0.606 Z-0.992 F478.500
G1 X131.316 Y0.879 Z-0.996 F478.500
G1 X131.119 Y1.119 Z-1.000 F478.557
G1 X130.879 Y1.316 Z-1.002 F479.423
G1 X130.606 Y1.462 Z-1.003 F479.400
G1 X130.309 Y1.552 Z-1.005 F479.400
G1 X130.000 Y1.582 Z-1.006 F479.423
G1 X0.000 Y1.582 Z-1.673 F479.412
G1 X-0.352 Y1.543 Z-1.675 F479.490
G1 X-0.687 Y1.426 Z-1.677 F479.412
G1 X-0.987 Y1.237 Z-1.679 F479.364
G1 X-1.237 Y0.987 Z-1.681 F479.347
G1 X-1.426 Y0.687 Z-1.682 F479.364
G1 X-1.543 Y0.352 Z-1.684 F479.412
G1 X-1.582 Y-0.000 Z-1.686 F479.490
G1 X-1.582 Y-60.000 Z-1.994 F479.412
G1 X-1.543 Y-60.352 Z-1.995 F479.490
G1 X-1.426 Y-60.687 Z-1.997 F479.412
G1 X-1.237 Y-60.987 Z-1.999 F479.364
G1 X-0.987 Y-61.237 Z-2.001 F479.347
G1 X-0.687 Y-61.426 Z-2.003 F479.364
G1 X-0.352 Y-61.543 Z-2.005 F479.412
G1 X0.000 Y-61.583 Z-2.006 F479.490
G1 X130.000 Y-61.582 Z-2.673 F479.412
G1 X130.352 Y-61.543 Z-2.675 F479.490
G1 X130.687 Y-61.426 Z-2.677 F479.412
G1 X130.987 Y-61.237 Z-2.679 F479.364
G1 X131.237 Y-60.987 Z-2.681 F479.347
G1 X131.426 Y-60.687 Z-2.682 F479.364
G1 X131.543 Y-60.352 Z-2.684 F479.412
G1 X131.582 Y-60.000 Z-2.686 F479.490
G1 X131.582 Y-0.000 Z-2.994 F479.412
G1 X131.552 Y0.309 Z-2.995 F479.423
G1 X131.462 Y0.606 Z-2.997 F479.400
G1 X131.316 Y0.879 Z-2.998 F479.400
G1 X131.119 Y1.119 Z-3.000 F479.423
G1 X130.879 Y1.316 Z-3.002 F479.423
G1 X130.606 Y1.462 Z-3.003 F479.400
G1 X130.309 Y1.552 Z-3.005 F479.400
G1 X130.000 Y1.582 Z-3.006 F479.423
G1 X0.000 Y1.582 Z-3.673 F479.412
G1 X-0.352 Y1.543 Z-3.675 F479.490
G1 X-0.687 Y1.426 Z-3.677 F479.412
G1 X-0.987 Y1.237 Z-3.679 F479.364
G1 X-1.237 Y0.987 Z-3.681 F479.347
G1 X-1.426 Y0.687 Z-3.682 F479.364
G1 X-1.543 Y0.352 Z-3.684 F479.412
G1 X-1.582 Y-0.000 Z-3.686 F479.490
G1 X-1.582 Y-60.000 Z-3.994 F479.412
G1 X-1.543 Y-60.352 Z-3.995 F479.490
G1 X-1.426 Y-60.687 Z-3.997 F479.412
G1 X-1.237 Y-60.987 Z-3.999 F479.364
G1 X-0.987 Y-61.237 Z-4.001 F479.347
G1 X-0.687 Y-61.426 Z-4.003 F479.364
G1 X-0.352 Y-61.543 Z-4.005 F479.412
G1 X0.000 Y-61.583 Z-4.006 F479.490
G1 X130.000 Y-61.582 Z-4.673 F479.412
G1 X130.352 Y-61.543 Z-4.675 F479.490
G1 X130.687 Y-61.426 Z-4.677 F479.412
G1 X130.987 Y-61.237 Z-4.679 F479.364
G1 X131.237 Y-60.987 Z-4.681 F479.347
G1 X131.426 Y-60.687 Z-4.682 F479.364
G1 X131.543 Y-60.352 Z-4.684 F479.412
G1 X131.582 Y-60.000 Z-4.686 F479.490
G1 X131.582 Y-0.000 Z-4.994 F479.412
G1 X131.552 Y0.309 Z-4.995 F479.423
G1 X131.462 Y0.606 Z-4.997 F479.400
G1 X131.316 Y0.879 Z-4.998 F479.400
G1 X131.119 Y1.119 Z-5.000 F479.423
G1 X130.879 Y1.316 Z-5.002 F479.423
G1 X130.606 Y1.462 Z-5.003 F479.400
G1 X130.309 Y1.552 Z-5.005 F479.400
G1 X130.000 Y1.582 Z-5.006 F479.423
G1 X0.000 Y1.582 Z-5.673 F479.412
G1 X-0.352 Y1.543 Z-5.675 F479.490
G1 X-0.687 Y1.426 Z-5.677 F479.412
G1 X-0.987 Y1.237 Z-5.679 F479.364
G1 X-1.237 Y0.987 Z-5.681 F479.347
G1 X-1.426 Y0.687 Z-5.682 F479.364
G1 X-1.543 Y0.352 Z-5.684 F479.412
G1 X-1.582 Y-0.000 Z-5.686 F479.490
G1 X-1.582 Y-60.000 Z-5.994 F479.412
G1 X-1.543 Y-60.352 Z-5.995 F479.490
G1 X-1.426 Y-60.687 Z-5.997 F479.412
G1 X-1.237 Y-60.987 Z-5.999 F479.364
G1 X-0.987 Y-61.237 Z-6.001 F479.347
G1 X-0.687 Y-61.426 Z-6.003 F479.364
G1 X-0.352 Y-61.543 Z-6.005 F479.412
G1 X0.000 Y-61.583 Z-6.006 F479.490
G1 X130.000 Y-61.582 Z-6.673 F479.412
G1 X130.352 Y-61.543 Z-6.675 F479.490
G1 X130.687 Y-61.426 Z-6.677 F479.412
G1 X130.987 Y-61.237 Z-6.679 F479.364
G1 X131.237 Y-60.987 Z-6.681 F479.347
G1 X131.426 Y-60.687 Z-6.682 F479.364
G1 X131.543 Y-60.352 Z-6.684 F479.412
G1 X131.582 Y-60.000 Z-6.686 F479.490
G1 X131.582 Y-0.000 Z-6.994 F479.412
G1 X131.552 Y0.309 Z-6.995 F479.423
G1 X131.462 Y0.606 Z-6.997 F479.400
G1 X131.316 Y0.879 Z-6.998 F479.400
G1 X131.119 Y1.119 Z-7.000 F479.423
G1 X130.879 Y1.316 Z-7.002 F479.423
G1 X130.606 Y1.462 Z-7.003 F479.400
G1 X130.309 Y1.552 Z-7.005 F479.400
G1 X130.000 Y1.582 Z-7.006 F479.423
G1 X0.000 Y1.582 Z-7.673 F479.412
G1 X-0.352 Y1.543 Z-7.675 F479.490
G1 X-0.687 Y1.426 Z-7.677 F479.412
G1 X-0.987 Y1.237 Z-7.679 F479.364
G1 X-1.237 Y0.987 Z-7.681 F479.347
G1 X-1.426 Y0.687 Z-7.682 F479.364
G1 X-1.543 Y0.352 Z-7.684 F479.412
G1 X-1.582 Y-0.000 Z-7.686 F479.490
G1 X-1.582 Y-60.000 Z-7.994 F479.412
G1 X-1.543 Y-60.352 Z-7.995 F479.490
G1 X-1.426 Y-60.687 Z-7.997 F479.412
G1 X-1.237 Y-60.987 Z-7.999 F479.364
G1 X-0.987 Y-61.237 Z-8.001 F479.347
G1 X-0.687 Y-61.426 Z-8.003 F479.364
G1 X-0.352 Y-61.543 Z-8.005 F479.412
G1 X0.000 Y-61.583 Z-8.006 F479.490
G1 X30.276 Y-61.583 Z-8.162 F479.412
G1 X30.438 Y-61.583 Z-8.000 F390.000
G1 X34.563 Y-61.583 Z-8.000 F480.000
G1 X34.747 Y-61.583 Z-8.185 F390.000
G1 X94.944 Y-61.583 Z-8.493 F479.412
G1 X95.437 Y-61.583 Z-8.000 F390.000
G1 X99.562 Y-61.583 Z-8.000 F480.000
G1 X100.082 Y-61.583 Z-8.520 F390.000
G1 X130.000 Y-61.582 Z-8.673 F479.412
G1 X130.352 Y-61.543 Z-8.675 F479.490
G1 X130.687 Y-61.426 Z-8.677 F479.412
G1 X130.987 Y-61.237 Z-8.679 F479.364
G1 X131.237 Y-60.987 Z-8.681 F479.347
G1 X131.426 Y-60.687 Z-8.682 F479.364
G1 X131.543 Y-60.352 Z-8.684 F479.412
G1 X131.582 Y-60.000 Z-8.686 F479.490
G1 X131.582 Y-0.000 Z-8.994 F479.412
G1 X131.552 Y0.309 Z-8.995 F479.423
G1 X131.462 Y0.606 Z-8.997 F479.400
G1 X131.316 Y0.879 Z-8.998 F479.400
G1 X131.119 Y1.119 Z-9.000 F479.423
G1 X130.879 Y1.316 Z-9.001 F479.711
G1 X130.606 Y1.462 Z-9.002 F479.700
G1 X130.309 Y1.552 Z-9.002 F479.700
G1 X130.000 Y1.582 Z-9.003 F479.711
G1 X100.641 Y1.582 Z-9.078 F479.706
G1 X99.562 Y1.582 Z-8.000 F390.000
G1 X95.437 Y1.582 Z-8.000 F480.000
G1 X94.343 Y1.582 Z-9.095 F390.000
G1 X35.807 Y1.582 Z-9.245 F479.706
G1 X34.563 Y1.582 Z-8.000 F390.000
G1 X30.438 Y1.582 Z-8.000 F480.000
G1 X29.176 Y1.582 Z-9.262 F390.000
G1 X0.000 Y1.582 Z-9.337 F479.706
G1 X-0.352 Y1.543 Z-9.337 F479.745
G1 X-0.687 Y1.426 Z-9.338 F479.706
G1 X-0.987 Y1.237 Z-9.339 F479.682
G1 X-1.237 Y0.987 Z-9.340 F479.674
G1 X-1.426 Y0.687 Z-9.341 F479.682
G1 X-1.543 Y0.352 Z-9.342 F479.706
G1 X-1.582 Y-0.000 Z-9.343 F479.745
G1 X-1.582 Y-60.000 Z-9.497 F479.706
G1 X-1.543 Y-60.352 Z-9.498 F479.745
G1 X-1.426 Y-60.687 Z-9.499 F479.706
G1 X-1.237 Y-60.987 Z-9.499 F479.682
G1 X-0.987 Y-61.237 Z-9.501 F479.674
G1 X-0.687 Y-61.426 Z-9.501 F479.682
G1 X-0.352 Y-61.543 Z-9.502 F479.706
G1 X0.000 Y-61.583 Z-9.503 F479.745
G1 X28.860 Y-61.583 Z-9.577 F479.706
G1 X30.438 Y-61.583 Z-8.000 F390.000
G1 X34.563 Y-61.583 Z-8.000 F480.000
G1 X36.158 Y-61.583 Z-9.596 F390.000
G1 X93.694 Y-61.583 Z-9.743 F479.706
G1 X95.437 Y-61.583 Z-8.000 F390.000
G1 X99.562 Y-61.583 Z-8.000 F480.000
G1 X101.326 Y-61.583 Z-9.763 F390.000
G1 X130.000 Y-61.582 Z-9.837 F479.706
G1 X130.352 Y-61.543 Z-9.837 F479.745
G1 X130.687 Y-61.426 Z-9.838 F479.706
G1 X130.987 Y-61.237 Z-9.839 F479.682
G1 X131.237 Y-60.987 Z-9.840 F479.674
G1 X131.426 Y-60.687 Z-9.841 F479.682
G1 X131.543 Y-60.352 Z-9.842 F479.706
G1 X131.582 Y-60.000 Z-9.843 F479.745
G1 X131.582 Y-0.000 Z-9.997 F479.706
G1 X131.552 Y0.309 Z-9.998 F479.711
G1 X131.462 Y0.606 Z-9.998 F479.700
G1 X131.316 Y0.879 Z-9.999 F479.700
G1 X131.119 Y1.119 Z-10.000 F479.711
G3 X130.000 Y1.582 Z-10.000 I-1.119 J-1.119 K0.000 F480.000
G1 X101.562 Y1.582 Z-10.000 F480.000
G1 X99.562 Y1.582 Z-8.000 F390.000
G1 X95.437 Y1.582 Z-8.000 F480.000
G1 X93.437 Y1.582 Z-10.000 F390.000
G1 X36.563 Y1.582 Z-10.000 F480.000
G1 X34.563 Y1.582 Z-8.000 F390.000
G1 X30.438 Y1.582 Z-8.000 F480.000
G1 X28.438 Y1.582 Z-10.000 F390.000
G1 X0.000 Y1.582 Z-10.000 F480.000
G3 X-1.582 Y-0.000 Z-10.000 I0.000 J-1.583 K0.000 F480.000
G1 X-1.582 Y-60.000 Z-10.000 F480.000
G3 X0.000 Y-61.583 Z-10.000 I1.583 J0.000 K0.000 F480.000
G1 X28.438 Y-61.583 Z-10.000 F480.000
G1 X30.438 Y-61.583 Z-8.000 F390.000
G1 X34.563 Y-61.583 Z-8.000 F480.000
G1 X36.563 Y-61.583 Z-10.000 F390.000
G1 X93.437 Y-61.583 Z-10.000 F480.000
G1 X95.437 Y-61.583 Z-8.000 F390.000
G1 X99.562 Y-61.583 Z-8.000 F480.000
G1 X101.562 Y-61.583 Z-10.000 F390.000
G1 X130.000 Y-61.582 Z-10.000 F480.000
G3 X131.582 Y-60.000 Z-10.000 I-0.000 J1.583 K0.000 F480.000
G1 X131.582 Y-0.000 Z-10.000 F480.000
G3 X131.119 Y1.119 Z-10.000 I-1.583 J-0.000 K0.000 F480.000
G0 X131.119 Y1.119 Z6.000
(Finish operation: DressupTag006)
(Begin postamble)
M5
G17 G90
M2
