(Exported by FreeCAD)
(Post Processor: grbl_post)
(Output Time:2022-05-28 11:14:30.425873)
(Begin preamble)
G17 G90
G21
(Begin operation: Fixture)
(Path: Fixture)
G54
(Finish operation: Fixture)
(Begin operation: TC: endmill_FC1D319)
(Path: TC: endmill_FC1D319)
(TC: endmill_FC1D319)
(Begin toolchange)
( M6 T1.0 )
M3 S10000.0
(Finish operation: TC: endmill_FC1D319)
(Begin operation: RampEntryDressup018)
(Path: RampEntryDressup018)
G0 X0.000 Y0.000 Z6.000
G0 X133.093 Y-9.905 Z6.000
G0 X133.093 Y-9.905 Z4.000
G1 X134.671 Y-11.483 Z3.541 F480.000
G1 X134.945 Y-11.801 Z3.480 F480.000
G1 X135.161 Y-12.160 Z3.405 F480.000
G1 X135.313 Y-12.547 Z3.320 F480.000
G1 X135.397 Y-12.953 Z3.227 F480.000
G1 X135.410 Y-13.366 Z3.128 F480.000
G1 X135.352 Y-13.774 Z3.027 F480.000
G1 X135.224 Y-14.167 Z2.925 F480.000
G1 X135.030 Y-14.532 Z2.826 F480.000
G1 X134.776 Y-14.859 Z2.733 F480.000
G1 X134.469 Y-15.140 Z2.648 F480.000
G1 X134.117 Y-15.366 Z2.574 F480.000
G1 X133.730 Y-15.531 Z2.512 F480.000
G1 X133.355 Y-15.617 Z2.438 F480.000
G1 X132.971 Y-15.643 Z2.359 F480.000
G1 X132.589 Y-15.609 Z2.277 F480.000
G1 X132.218 Y-15.514 Z2.194 F480.000
G1 X131.866 Y-15.362 Z2.112 F480.000
G1 X131.541 Y-15.157 Z2.033 F480.000
G1 X131.252 Y-14.902 Z1.959 F480.000
G1 X128.098 Y-11.748 Z1.041 F480.000
G1 X127.846 Y-11.459 Z0.962 F480.000
G1 X127.628 Y-11.080 Z0.937 F480.000
G1 X127.475 Y-10.672 Z0.891 F480.000
G1 X127.393 Y-10.248 Z0.825 F480.000
G1 X127.384 Y-9.818 Z0.740 F480.000
G1 X127.449 Y-9.397 Z0.640 F480.000
G1 X127.585 Y-8.997 Z0.526 F480.000
G1 X127.788 Y-8.629 Z0.404 F480.000
G1 X128.052 Y-8.304 Z0.275 F480.000
G1 X128.370 Y-8.033 Z0.145 F480.000
G1 X128.732 Y-7.823 Z0.017 F480.000
G1 X129.128 Y-7.681 Z-0.106 F480.000
G1 X129.545 Y-7.610 Z-0.219 F480.000
G1 X129.971 Y-7.613 Z-0.319 F480.000
G1 X130.393 Y-7.690 Z-0.404 F480.000
G1 X130.800 Y-7.838 Z-0.471 F480.000
G1 X131.178 Y-8.053 Z-0.517 F480.000
G1 X131.517 Y-8.329 Z-0.541 F480.000
G1 X133.093 Y-9.905 Z-1.000 F480.000
G1 X134.671 Y-11.483 Z-1.184 F480.000
G1 X134.945 Y-11.797 Z-1.208 F480.000
G1 X135.162 Y-12.153 Z-1.237 F480.000
G1 X135.314 Y-12.540 Z-1.271 F480.000
G1 X135.398 Y-12.948 Z-1.309 F480.000
G1 X135.410 Y-13.363 Z-1.348 F480.000
G1 X135.352 Y-13.774 Z-1.389 F480.000
G1 X135.223 Y-14.170 Z-1.430 F480.000
G1 X135.028 Y-14.537 Z-1.470 F480.000
G1 X134.774 Y-14.866 Z-1.508 F480.000
G1 X134.466 Y-15.146 Z-1.541 F480.000
G1 X134.115 Y-15.370 Z-1.571 F480.000
G1 X133.730 Y-15.531 Z-1.595 F480.000
G1 X133.356 Y-15.617 Z-1.625 F480.000
G1 X132.972 Y-15.644 Z-1.656 F480.000
G1 X132.590 Y-15.609 Z-1.689 F480.000
G1 X132.217 Y-15.514 Z-1.722 F480.000
G1 X131.865 Y-15.362 Z-1.755 F480.000
G1 X131.540 Y-15.156 Z-1.787 F480.000
G1 X131.252 Y-14.902 Z-1.817 F480.000
G1 X128.098 Y-11.748 Z-2.184 F480.000
G1 X127.846 Y-11.459 Z-2.215 F480.000
G1 X127.620 Y-11.092 Z-2.223 F480.000
G1 X127.462 Y-10.692 Z-2.241 F480.000
G1 X127.376 Y-10.270 Z-2.267 F480.000
G1 X127.365 Y-9.841 Z-2.300 F480.000
G1 X127.431 Y-9.417 Z-2.341 F480.000
G1 X127.570 Y-9.012 Z-2.387 F480.000
G1 X127.778 Y-8.638 Z-2.437 F480.000
G1 X128.049 Y-8.308 Z-2.489 F480.000
G1 X128.374 Y-8.030 Z-2.543 F480.000
G1 X128.743 Y-7.815 Z-2.595 F480.000
G1 X129.145 Y-7.669 Z-2.645 F480.000
G1 X129.567 Y-7.596 Z-2.691 F480.000
G1 X129.996 Y-7.598 Z-2.731 F480.000
G1 X130.419 Y-7.676 Z-2.765 F480.000
G1 X130.821 Y-7.828 Z-2.791 F480.000
G1 X131.191 Y-8.048 Z-2.808 F480.000
G1 X131.517 Y-8.329 Z-2.817 F480.000
G1 X133.093 Y-9.905 Z-3.000 F480.000
G1 X134.671 Y-11.483 Z-3.184 F480.000
G1 X134.945 Y-11.797 Z-3.208 F480.000
G1 X135.162 Y-12.153 Z-3.237 F480.000
G1 X135.314 Y-12.540 Z-3.271 F480.000
G1 X135.398 Y-12.948 Z-3.309 F480.000
G1 X135.410 Y-13.363 Z-3.348 F480.000
G1 X135.352 Y-13.774 Z-3.389 F480.000
G1 X135.223 Y-14.170 Z-3.430 F480.000
G1 X135.028 Y-14.537 Z-3.470 F480.000
G1 X134.774 Y-14.866 Z-3.508 F480.000
G1 X134.466 Y-15.146 Z-3.541 F480.000
G1 X134.115 Y-15.370 Z-3.571 F480.000
G1 X133.730 Y-15.531 Z-3.595 F480.000
G1 X133.356 Y-15.617 Z-3.625 F480.000
G1 X132.972 Y-15.644 Z-3.656 F480.000
G1 X132.590 Y-15.609 Z-3.689 F480.000
G1 X132.217 Y-15.514 Z-3.722 F480.000
G1 X131.865 Y-15.362 Z-3.755 F480.000
G1 X131.540 Y-15.156 Z-3.787 F480.000
G1 X131.252 Y-14.902 Z-3.817 F480.000
G1 X128.098 Y-11.748 Z-4.184 F480.000
G1 X127.846 Y-11.459 Z-4.215 F480.000
G1 X127.620 Y-11.092 Z-4.223 F480.000
G1 X127.462 Y-10.692 Z-4.241 F480.000
G1 X127.376 Y-10.270 Z-4.267 F480.000
G1 X127.365 Y-9.841 Z-4.300 F480.000
G1 X127.431 Y-9.417 Z-4.341 F480.000
G1 X127.570 Y-9.012 Z-4.387 F480.000
G1 X127.778 Y-8.638 Z-4.437 F480.000
G1 X128.049 Y-8.308 Z-4.489 F480.000
G1 X128.374 Y-8.030 Z-4.543 F480.000
G1 X128.743 Y-7.815 Z-4.595 F480.000
G1 X129.145 Y-7.669 Z-4.645 F480.000
G1 X129.567 Y-7.596 Z-4.691 F480.000
G1 X129.996 Y-7.598 Z-4.731 F480.000
G1 X130.419 Y-7.676 Z-4.765 F480.000
G1 X130.821 Y-7.828 Z-4.791 F480.000
G1 X131.191 Y-8.048 Z-4.808 F480.000
G1 X131.517 Y-8.329 Z-4.817 F480.000
G1 X133.093 Y-9.905 Z-5.000 F480.000
G1 X134.671 Y-11.483 Z-5.184 F480.000
G1 X134.945 Y-11.797 Z-5.208 F480.000
G1 X135.162 Y-12.153 Z-5.237 F480.000
G1 X135.314 Y-12.540 Z-5.271 F480.000
G1 X135.398 Y-12.948 Z-5.309 F480.000
G1 X135.410 Y-13.363 Z-5.348 F480.000
G1 X135.352 Y-13.774 Z-5.389 F480.000
G1 X135.223 Y-14.170 Z-5.430 F480.000
G1 X135.028 Y-14.537 Z-5.470 F480.000
G1 X134.774 Y-14.866 Z-5.508 F480.000
G1 X134.466 Y-15.146 Z-5.541 F480.000
G1 X134.115 Y-15.370 Z-5.571 F480.000
G1 X133.730 Y-15.531 Z-5.595 F480.000
G1 X133.356 Y-15.617 Z-5.625 F480.000
G1 X132.972 Y-15.644 Z-5.656 F480.000
G1 X132.590 Y-15.609 Z-5.689 F480.000
G1 X132.217 Y-15.514 Z-5.722 F480.000
G1 X131.865 Y-15.362 Z-5.755 F480.000
G1 X131.540 Y-15.156 Z-5.787 F480.000
G1 X131.252 Y-14.902 Z-5.817 F480.000
G1 X128.098 Y-11.748 Z-6.184 F480.000
G1 X127.846 Y-11.459 Z-6.215 F480.000
G1 X127.620 Y-11.092 Z-6.223 F480.000
G1 X127.462 Y-10.692 Z-6.241 F480.000
G1 X127.376 Y-10.270 Z-6.267 F480.000
G1 X127.365 Y-9.841 Z-6.300 F480.000
G1 X127.431 Y-9.417 Z-6.341 F480.000
G1 X127.570 Y-9.012 Z-6.387 F480.000
G1 X127.778 Y-8.638 Z-6.437 F480.000
G1 X128.049 Y-8.308 Z-6.489 F480.000
G1 X128.374 Y-8.030 Z-6.543 F480.000
G1 X128.743 Y-7.815 Z-6.595 F480.000
G1 X129.145 Y-7.669 Z-6.645 F480.000
G1 X129.567 Y-7.596 Z-6.691 F480.000
G1 X129.996 Y-7.598 Z-6.731 F480.000
G1 X130.419 Y-7.676 Z-6.765 F480.000
G1 X130.821 Y-7.828 Z-6.791 F480.000
G1 X131.191 Y-8.048 Z-6.808 F480.000
G1 X131.517 Y-8.329 Z-6.817 F480.000
G1 X133.093 Y-9.905 Z-7.000 F480.000
G1 X134.671 Y-11.483 Z-7.184 F480.000
G1 X134.945 Y-11.797 Z-7.208 F480.000
G1 X135.162 Y-12.153 Z-7.237 F480.000
G1 X135.314 Y-12.540 Z-7.271 F480.000
G1 X135.398 Y-12.948 Z-7.309 F480.000
G1 X135.410 Y-13.363 Z-7.348 F480.000
G1 X135.352 Y-13.774 Z-7.389 F480.000
G1 X135.223 Y-14.170 Z-7.430 F480.000
G1 X135.028 Y-14.537 Z-7.470 F480.000
G1 X134.774 Y-14.866 Z-7.508 F480.000
G1 X134.466 Y-15.146 Z-7.541 F480.000
G1 X134.115 Y-15.370 Z-7.571 F480.000
G1 X133.730 Y-15.531 Z-7.595 F480.000
G1 X133.356 Y-15.617 Z-7.625 F480.000
G1 X132.972 Y-15.644 Z-7.656 F480.000
G1 X132.590 Y-15.609 Z-7.689 F480.000
G1 X132.217 Y-15.514 Z-7.722 F480.000
G1 X131.865 Y-15.362 Z-7.755 F480.000
G1 X131.540 Y-15.156 Z-7.787 F480.000
G1 X131.252 Y-14.902 Z-7.817 F480.000
G1 X128.098 Y-11.748 Z-8.184 F480.000
G1 X127.846 Y-11.459 Z-8.215 F480.000
G1 X127.620 Y-11.092 Z-8.223 F480.000
G1 X127.462 Y-10.692 Z-8.241 F480.000
G1 X127.376 Y-10.270 Z-8.267 F480.000
G1 X127.365 Y-9.841 Z-8.300 F480.000
G1 X127.431 Y-9.417 Z-8.341 F480.000
G1 X127.570 Y-9.012 Z-8.387 F480.000
G1 X127.778 Y-8.638 Z-8.437 F480.000
G1 X128.049 Y-8.308 Z-8.489 F480.000
G1 X128.374 Y-8.030 Z-8.543 F480.000
G1 X128.743 Y-7.815 Z-8.595 F480.000
G1 X129.145 Y-7.669 Z-8.645 F480.000
G1 X129.567 Y-7.596 Z-8.691 F480.000
G1 X129.996 Y-7.598 Z-8.731 F480.000
G1 X130.419 Y-7.676 Z-8.765 F480.000
G1 X130.821 Y-7.828 Z-8.791 F480.000
G1 X131.191 Y-8.048 Z-8.808 F480.000
G1 X131.517 Y-8.329 Z-8.817 F480.000
G1 X133.093 Y-9.905 Z-9.000 F480.000
G1 X134.671 Y-11.483 Z-9.092 F480.000
G1 X134.945 Y-11.796 Z-9.104 F480.000
G1 X135.162 Y-12.152 Z-9.119 F480.000
G1 X135.314 Y-12.539 Z-9.136 F480.000
G1 X135.398 Y-12.947 Z-9.154 F480.000
G1 X135.411 Y-13.363 Z-9.174 F480.000
G1 X135.352 Y-13.774 Z-9.195 F480.000
G1 X135.223 Y-14.170 Z-9.215 F480.000
G1 X135.028 Y-14.538 Z-9.235 F480.000
G1 X134.773 Y-14.867 Z-9.254 F480.000
G1 X134.466 Y-15.147 Z-9.271 F480.000
G1 X134.115 Y-15.371 Z-9.285 F480.000
G1 X133.730 Y-15.531 Z-9.298 F480.000
G1 X133.356 Y-15.617 Z-9.312 F480.000
G1 X132.972 Y-15.644 Z-9.328 F480.000
G1 X132.590 Y-15.609 Z-9.345 F480.000
G1 X132.217 Y-15.514 Z-9.361 F480.000
G1 X131.865 Y-15.362 Z-9.378 F480.000
G1 X131.540 Y-15.156 Z-9.393 F480.000
G1 X131.252 Y-14.902 Z-9.408 F480.000
G1 X128.098 Y-11.748 Z-9.592 F480.000
G1 X127.846 Y-11.459 Z-9.608 F480.000
G1 X127.619 Y-11.094 Z-9.612 F480.000
G1 X127.460 Y-10.695 Z-9.620 F480.000
G1 X127.373 Y-10.274 Z-9.633 F480.000
G1 X127.362 Y-9.845 Z-9.650 F480.000
G1 X127.428 Y-9.420 Z-9.670 F480.000
G1 X127.567 Y-9.015 Z-9.693 F480.000
G1 X127.776 Y-8.640 Z-9.718 F480.000
G1 X128.048 Y-8.308 Z-9.745 F480.000
G1 X128.375 Y-8.030 Z-9.771 F480.000
G1 X128.745 Y-7.814 Z-9.798 F480.000
G1 X129.148 Y-7.667 Z-9.823 F480.000
G1 X129.571 Y-7.593 Z-9.846 F480.000
G1 X130.000 Y-7.596 Z-9.866 F480.000
G1 X130.422 Y-7.674 Z-9.883 F480.000
G1 X130.824 Y-7.826 Z-9.896 F480.000
G1 X131.193 Y-8.047 Z-9.904 F480.000
G1 X131.517 Y-8.329 Z-9.908 F480.000
G1 X133.093 Y-9.905 Z-10.000 F480.000
G1 X134.671 Y-11.483 Z-10.000 F480.000
G2 X133.730 Y-15.531 Z-10.000 I-1.675 J-1.744 K0.000 F480.000
G2 X131.252 Y-14.902 Z-10.000 I-0.731 J2.315 K0.000 F480.000
G1 X128.098 Y-11.748 Z-10.000 F480.000
G1 X127.846 Y-11.459 Z-10.000 F480.000
G2 X131.517 Y-8.329 Z-10.000 I1.926 J1.458 K0.000 F480.000
G1 X133.093 Y-9.905 Z-10.000 F480.000
G0 X133.093 Y-9.905 Z6.000
(Finish operation: RampEntryDressup018)
(Begin operation: RampEntryDressup019)
(Path: RampEntryDressup019)
G0 X0.000 Y0.000 Z6.000
G0 X123.901 Y-19.097 Z6.000
G0 X123.901 Y-19.097 Z4.000
G1 X134.671 Y-29.867 Z3.002 F480.000
G1 X134.949 Y-30.186 Z2.983 F480.000
G1 X135.167 Y-30.547 Z2.959 F480.000
G1 X135.319 Y-30.941 Z2.932 F480.000
G1 X135.400 Y-31.355 Z2.901 F480.000
G1 X135.409 Y-31.777 Z2.869 F480.000
G1 X135.343 Y-32.194 Z2.836 F480.000
G1 X135.206 Y-32.593 Z2.802 F480.000
G1 X135.002 Y-32.962 Z2.770 F480.000
G1 X134.736 Y-33.290 Z2.740 F480.000
G1 X134.417 Y-33.567 Z2.712 F480.000
G1 X134.055 Y-33.785 Z2.689 F480.000
G1 X133.661 Y-33.937 Z2.670 F480.000
G1 X133.232 Y-34.017 Z2.643 F480.000
G1 X132.797 Y-34.020 Z2.614 F480.000
G1 X132.368 Y-33.945 Z2.584 F480.000
G1 X131.959 Y-33.794 Z2.554 F480.000
G1 X131.584 Y-33.573 Z2.525 F480.000
G1 X131.254 Y-33.288 Z2.498 F480.000
G1 X109.712 Y-11.746 Z0.502 F480.000
G1 X109.470 Y-11.470 Z0.478 F480.000
G1 X109.240 Y-11.105 Z0.471 F480.000
G1 X109.079 Y-10.705 Z0.458 F480.000
G1 X108.991 Y-10.284 Z0.437 F480.000
G1 X108.978 Y-9.854 Z0.410 F480.000
G1 X109.042 Y-9.429 Z0.378 F480.000
G1 X109.179 Y-9.022 Z0.341 F480.000
G1 X109.387 Y-8.646 Z0.301 F480.000
G1 X109.657 Y-8.314 Z0.259 F480.000
G1 X109.983 Y-8.034 Z0.217 F480.000
G1 X110.353 Y-7.817 Z0.175 F480.000
G1 X110.756 Y-7.669 Z0.135 F480.000
G1 X111.179 Y-7.595 Z0.098 F480.000
G1 X111.608 Y-7.596 Z0.066 F480.000
G1 X112.031 Y-7.674 Z0.039 F480.000
G1 X112.434 Y-7.825 Z0.018 F480.000
G1 X112.805 Y-8.045 Z0.004 F480.000
G1 X113.131 Y-8.327 Z-0.002 F480.000
G1 X123.901 Y-19.097 Z-1.000 F480.000
G1 X134.671 Y-29.867 Z-1.399 F480.000
G1 X134.949 Y-30.185 Z-1.407 F480.000
G1 X135.167 Y-30.547 Z-1.416 F480.000
G1 X135.319 Y-30.940 Z-1.427 F480.000
G1 X135.401 Y-31.355 Z-1.439 F480.000
G1 X135.409 Y-31.777 Z-1.452 F480.000
G1 X135.343 Y-32.194 Z-1.466 F480.000
G1 X135.206 Y-32.594 Z-1.479 F480.000
G1 X135.001 Y-32.963 Z-1.492 F480.000
G1 X134.736 Y-33.291 Z-1.504 F480.000
G1 X134.417 Y-33.568 Z-1.515 F480.000
G1 X134.055 Y-33.786 Z-1.525 F480.000
G1 X133.661 Y-33.937 Z-1.532 F480.000
G1 X133.232 Y-34.017 Z-1.543 F480.000
G1 X132.797 Y-34.020 Z-1.555 F480.000
G1 X132.368 Y-33.945 Z-1.566 F480.000
G1 X131.959 Y-33.794 Z-1.578 F480.000
G1 X131.584 Y-33.573 Z-1.590 F480.000
G1 X131.254 Y-33.288 Z-1.601 F480.000
G1 X109.712 Y-11.746 Z-2.399 F480.000
G1 X109.470 Y-11.470 Z-2.409 F480.000
G1 X109.240 Y-11.106 Z-2.411 F480.000
G1 X109.078 Y-10.707 Z-2.417 F480.000
G1 X108.989 Y-10.286 Z-2.425 F480.000
G1 X108.976 Y-9.856 Z-2.436 F480.000
G1 X109.040 Y-9.431 Z-2.449 F480.000
G1 X109.178 Y-9.024 Z-2.463 F480.000
G1 X109.386 Y-8.647 Z-2.479 F480.000
G1 X109.657 Y-8.314 Z-2.496 F480.000
G1 X109.983 Y-8.034 Z-2.513 F480.000
G1 X110.354 Y-7.816 Z-2.530 F480.000
G1 X110.758 Y-7.668 Z-2.546 F480.000
G1 X111.181 Y-7.593 Z-2.561 F480.000
G1 X111.611 Y-7.595 Z-2.574 F480.000
G1 X112.034 Y-7.673 Z-2.585 F480.000
G1 X112.437 Y-7.824 Z-2.593 F480.000
G1 X112.806 Y-8.045 Z-2.598 F480.000
G1 X113.131 Y-8.327 Z-2.601 F480.000
G1 X123.901 Y-19.097 Z-3.000 F480.000
G1 X134.671 Y-29.867 Z-3.399 F480.000
G1 X134.949 Y-30.185 Z-3.407 F480.000
G1 X135.167 Y-30.547 Z-3.416 F480.000
G1 X135.319 Y-30.940 Z-3.427 F480.000
G1 X135.401 Y-31.355 Z-3.439 F480.000
G1 X135.409 Y-31.777 Z-3.452 F480.000
G1 X135.343 Y-32.194 Z-3.466 F480.000
G1 X135.206 Y-32.594 Z-3.479 F480.000
G1 X135.001 Y-32.963 Z-3.492 F480.000
G1 X134.736 Y-33.291 Z-3.504 F480.000
G1 X134.417 Y-33.568 Z-3.515 F480.000
G1 X134.055 Y-33.786 Z-3.525 F480.000
G1 X133.661 Y-33.937 Z-3.532 F480.000
G1 X133.232 Y-34.017 Z-3.543 F480.000
G1 X132.797 Y-34.020 Z-3.555 F480.000
G1 X132.368 Y-33.945 Z-3.566 F480.000
G1 X131.959 Y-33.794 Z-3.578 F480.000
G1 X131.584 Y-33.573 Z-3.590 F480.000
G1 X131.254 Y-33.288 Z-3.601 F480.000
G1 X109.712 Y-11.746 Z-4.399 F480.000
G1 X109.470 Y-11.470 Z-4.409 F480.000
G1 X109.240 Y-11.106 Z-4.411 F480.000
G1 X109.078 Y-10.707 Z-4.417 F480.000
G1 X108.989 Y-10.286 Z-4.425 F480.000
G1 X108.976 Y-9.856 Z-4.436 F480.000
G1 X109.040 Y-9.431 Z-4.449 F480.000
G1 X109.178 Y-9.024 Z-4.463 F480.000
G1 X109.386 Y-8.647 Z-4.479 F480.000
G1 X109.657 Y-8.314 Z-4.496 F480.000
G1 X109.983 Y-8.034 Z-4.513 F480.000
G1 X110.354 Y-7.816 Z-4.530 F480.000
G1 X110.758 Y-7.668 Z-4.546 F480.000
G1 X111.181 Y-7.593 Z-4.561 F480.000
G1 X111.611 Y-7.595 Z-4.574 F480.000
G1 X112.034 Y-7.673 Z-4.585 F480.000
G1 X112.437 Y-7.824 Z-4.593 F480.000
G1 X112.806 Y-8.045 Z-4.598 F480.000
G1 X113.131 Y-8.327 Z-4.601 F480.000
G1 X123.901 Y-19.097 Z-5.000 F480.000
G1 X134.671 Y-29.867 Z-5.399 F480.000
G1 X134.949 Y-30.185 Z-5.407 F480.000
G1 X135.167 Y-30.547 Z-5.416 F480.000
G1 X135.319 Y-30.940 Z-5.427 F480.000
G1 X135.401 Y-31.355 Z-5.439 F480.000
G1 X135.409 Y-31.777 Z-5.452 F480.000
G1 X135.343 Y-32.194 Z-5.466 F480.000
G1 X135.206 Y-32.594 Z-5.479 F480.000
G1 X135.001 Y-32.963 Z-5.492 F480.000
G1 X134.736 Y-33.291 Z-5.504 F480.000
G1 X134.417 Y-33.568 Z-5.515 F480.000
G1 X134.055 Y-33.786 Z-5.525 F480.000
G1 X133.661 Y-33.937 Z-5.532 F480.000
G1 X133.232 Y-34.017 Z-5.543 F480.000
G1 X132.797 Y-34.020 Z-5.555 F480.000
G1 X132.368 Y-33.945 Z-5.566 F480.000
G1 X131.959 Y-33.794 Z-5.578 F480.000
G1 X131.584 Y-33.573 Z-5.590 F480.000
G1 X131.254 Y-33.288 Z-5.601 F480.000
G1 X109.712 Y-11.746 Z-6.399 F480.000
G1 X109.470 Y-11.470 Z-6.409 F480.000
G1 X109.240 Y-11.106 Z-6.411 F480.000
G1 X109.078 Y-10.707 Z-6.417 F480.000
G1 X108.989 Y-10.286 Z-6.425 F480.000
G1 X108.976 Y-9.856 Z-6.436 F480.000
G1 X109.040 Y-9.431 Z-6.449 F480.000
G1 X109.178 Y-9.024 Z-6.463 F480.000
G1 X109.386 Y-8.647 Z-6.479 F480.000
G1 X109.657 Y-8.314 Z-6.496 F480.000
G1 X109.983 Y-8.034 Z-6.513 F480.000
G1 X110.354 Y-7.816 Z-6.530 F480.000
G1 X110.758 Y-7.668 Z-6.546 F480.000
G1 X111.181 Y-7.593 Z-6.561 F480.000
G1 X111.611 Y-7.595 Z-6.574 F480.000
G1 X112.034 Y-7.673 Z-6.585 F480.000
G1 X112.437 Y-7.824 Z-6.593 F480.000
G1 X112.806 Y-8.045 Z-6.598 F480.000
G1 X113.131 Y-8.327 Z-6.601 F480.000
G1 X123.901 Y-19.097 Z-7.000 F480.000
G1 X134.671 Y-29.867 Z-7.399 F480.000
G1 X134.949 Y-30.185 Z-7.407 F480.000
G1 X135.167 Y-30.547 Z-7.416 F480.000
G1 X135.319 Y-30.940 Z-7.427 F480.000
G1 X135.401 Y-31.355 Z-7.439 F480.000
G1 X135.409 Y-31.777 Z-7.452 F480.000
G1 X135.343 Y-32.194 Z-7.466 F480.000
G1 X135.206 Y-32.594 Z-7.479 F480.000
G1 X135.001 Y-32.963 Z-7.492 F480.000
G1 X134.736 Y-33.291 Z-7.504 F480.000
G1 X134.417 Y-33.568 Z-7.515 F480.000
G1 X134.055 Y-33.786 Z-7.525 F480.000
G1 X133.661 Y-33.937 Z-7.532 F480.000
G1 X133.232 Y-34.017 Z-7.543 F480.000
G1 X132.797 Y-34.020 Z-7.555 F480.000
G1 X132.368 Y-33.945 Z-7.566 F480.000
G1 X131.959 Y-33.794 Z-7.578 F480.000
G1 X131.584 Y-33.573 Z-7.590 F480.000
G1 X131.254 Y-33.288 Z-7.601 F480.000
G1 X109.712 Y-11.746 Z-8.399 F480.000
G1 X109.470 Y-11.470 Z-8.409 F480.000
G1 X109.240 Y-11.106 Z-8.411 F480.000
G1 X109.078 Y-10.707 Z-8.417 F480.000
G1 X108.989 Y-10.286 Z-8.425 F480.000
G1 X108.976 Y-9.856 Z-8.436 F480.000
G1 X109.040 Y-9.431 Z-8.449 F480.000
G1 X109.178 Y-9.024 Z-8.463 F480.000
G1 X109.386 Y-8.647 Z-8.479 F480.000
G1 X109.657 Y-8.314 Z-8.496 F480.000
G1 X109.983 Y-8.034 Z-8.513 F480.000
G1 X110.354 Y-7.816 Z-8.530 F480.000
G1 X110.758 Y-7.668 Z-8.546 F480.000
G1 X111.181 Y-7.593 Z-8.561 F480.000
G1 X111.611 Y-7.595 Z-8.574 F480.000
G1 X112.034 Y-7.673 Z-8.585 F480.000
G1 X112.437 Y-7.824 Z-8.593 F480.000
G1 X112.806 Y-8.045 Z-8.598 F480.000
G1 X113.131 Y-8.327 Z-8.601 F480.000
G1 X123.901 Y-19.097 Z-9.000 F480.000
G1 X134.671 Y-29.867 Z-9.200 F480.000
G1 X134.949 Y-30.185 Z-9.203 F480.000
G1 X135.167 Y-30.546 Z-9.208 F480.000
G1 X135.319 Y-30.940 Z-9.214 F480.000
G1 X135.401 Y-31.355 Z-9.220 F480.000
G1 X135.409 Y-31.777 Z-9.226 F480.000
G1 X135.343 Y-32.194 Z-9.233 F480.000
G1 X135.206 Y-32.594 Z-9.240 F480.000
G1 X135.001 Y-32.963 Z-9.246 F480.000
G1 X134.736 Y-33.291 Z-9.252 F480.000
G1 X134.417 Y-33.568 Z-9.258 F480.000
G1 X134.055 Y-33.786 Z-9.262 F480.000
G1 X133.661 Y-33.937 Z-9.266 F480.000
G1 X133.232 Y-34.017 Z-9.271 F480.000
G1 X132.797 Y-34.020 Z-9.277 F480.000
G1 X132.368 Y-33.945 Z-9.283 F480.000
G1 X131.959 Y-33.794 Z-9.289 F480.000
G1 X131.584 Y-33.573 Z-9.295 F480.000
G1 X131.254 Y-33.288 Z-9.300 F480.000
G1 X109.712 Y-11.746 Z-9.700 F480.000
G1 X109.470 Y-11.470 Z-9.704 F480.000
G1 X109.239 Y-11.106 Z-9.706 F480.000
G1 X109.077 Y-10.708 Z-9.708 F480.000
G1 X108.989 Y-10.287 Z-9.713 F480.000
G1 X108.976 Y-9.857 Z-9.718 F480.000
G1 X109.039 Y-9.431 Z-9.724 F480.000
G1 X109.177 Y-9.024 Z-9.732 F480.000
G1 X109.385 Y-8.648 Z-9.740 F480.000
G1 X109.657 Y-8.314 Z-9.748 F480.000
G1 X109.983 Y-8.034 Z-9.757 F480.000
G1 X110.354 Y-7.816 Z-9.765 F480.000
G1 X110.758 Y-7.668 Z-9.773 F480.000
G1 X111.181 Y-7.593 Z-9.780 F480.000
G1 X111.612 Y-7.594 Z-9.787 F480.000
G1 X112.035 Y-7.672 Z-9.792 F480.000
G1 X112.437 Y-7.824 Z-9.796 F480.000
G1 X112.806 Y-8.045 Z-9.799 F480.000
G1 X113.131 Y-8.327 Z-9.800 F480.000
G1 X123.901 Y-19.097 Z-10.000 F480.000
G1 X134.671 Y-29.867 Z-10.000 F480.000
G2 X133.661 Y-33.937 Z-10.000 I-1.675 J-1.745 K0.000 F480.000
G2 X131.254 Y-33.288 Z-10.000 I-0.661 J2.335 K0.000 F480.000
G1 X109.712 Y-11.746 Z-10.000 F480.000
G1 X109.470 Y-11.470 Z-10.000 F480.000
G2 X113.131 Y-8.327 Z-10.000 I1.918 J1.469 K0.000 F480.000
G1 X123.901 Y-19.097 Z-10.000 F480.000
G0 X123.901 Y-19.097 Z6.000
(Finish operation: RampEntryDressup019)
(Begin operation: RampEntryDressup020)
(Path: RampEntryDressup020)
G0 X0.000 Y0.000 Z6.000
G0 X114.709 Y-28.290 Z6.000
G0 X114.709 Y-28.290 Z4.000
G1 X134.671 Y-48.252 Z2.900 F480.000
G1 X134.945 Y-48.566 Z2.888 F480.000
G1 X135.162 Y-48.921 Z2.875 F480.000
G1 X135.314 Y-49.309 Z2.858 F480.000
G1 X135.398 Y-49.716 Z2.841 F480.000
G1 X135.411 Y-50.132 Z2.822 F480.000
G1 X135.352 Y-50.544 Z2.802 F480.000
G1 X135.223 Y-50.940 Z2.783 F480.000
G1 X135.028 Y-51.307 Z2.764 F480.000
G1 X134.773 Y-51.636 Z2.746 F480.000
G1 X134.466 Y-51.917 Z2.730 F480.000
G1 X134.115 Y-52.140 Z2.716 F480.000
G1 X133.730 Y-52.301 Z2.705 F480.000
G1 X133.356 Y-52.387 Z2.691 F480.000
G1 X132.972 Y-52.413 Z2.676 F480.000
G1 X132.590 Y-52.378 Z2.660 F480.000
G1 X132.217 Y-52.284 Z2.645 F480.000
G1 X131.865 Y-52.132 Z2.629 F480.000
G1 X131.540 Y-51.926 Z2.614 F480.000
G1 X131.252 Y-51.671 Z2.600 F480.000
G1 X91.327 Y-11.746 Z0.400 F480.000
G1 X91.085 Y-11.470 Z0.385 F480.000
G1 X90.855 Y-11.106 Z0.382 F480.000
G1 X90.693 Y-10.707 Z0.374 F480.000
G1 X90.604 Y-10.286 Z0.361 F480.000
G1 X90.592 Y-9.856 Z0.345 F480.000
G1 X90.655 Y-9.431 Z0.326 F480.000
G1 X90.793 Y-9.023 Z0.304 F480.000
G1 X91.001 Y-8.647 Z0.281 F480.000
G1 X91.272 Y-8.314 Z0.256 F480.000
G1 X91.598 Y-8.034 Z0.230 F480.000
G1 X91.969 Y-7.816 Z0.205 F480.000
G1 X92.372 Y-7.668 Z0.181 F480.000
G1 X92.796 Y-7.593 Z0.159 F480.000
G1 X93.226 Y-7.595 Z0.140 F480.000
G1 X93.649 Y-7.673 Z0.124 F480.000
G1 X94.052 Y-7.824 Z0.112 F480.000
G1 X94.421 Y-8.045 Z0.104 F480.000
G1 X94.746 Y-8.327 Z0.100 F480.000
G1 X114.709 Y-28.290 Z-1.000 F480.000
G1 X134.671 Y-48.252 Z-1.440 F480.000
G1 X134.945 Y-48.565 Z-1.445 F480.000
G1 X135.162 Y-48.921 Z-1.450 F480.000
G1 X135.314 Y-49.308 Z-1.457 F480.000
G1 X135.398 Y-49.716 Z-1.464 F480.000
G1 X135.411 Y-50.132 Z-1.471 F480.000
G1 X135.352 Y-50.544 Z-1.479 F480.000
G1 X135.223 Y-50.940 Z-1.487 F480.000
G1 X135.028 Y-51.308 Z-1.494 F480.000
G1 X134.773 Y-51.637 Z-1.501 F480.000
G1 X134.466 Y-51.917 Z-1.508 F480.000
G1 X134.114 Y-52.141 Z-1.513 F480.000
G1 X133.730 Y-52.301 Z-1.518 F480.000
G1 X133.356 Y-52.387 Z-1.524 F480.000
G1 X132.972 Y-52.413 Z-1.530 F480.000
G1 X132.590 Y-52.378 Z-1.536 F480.000
G1 X132.217 Y-52.284 Z-1.542 F480.000
G1 X131.865 Y-52.132 Z-1.548 F480.000
G1 X131.540 Y-51.926 Z-1.554 F480.000
G1 X131.252 Y-51.671 Z-1.560 F480.000
G1 X91.327 Y-11.746 Z-2.440 F480.000
G1 X91.085 Y-11.470 Z-2.446 F480.000
G1 X90.855 Y-11.106 Z-2.447 F480.000
G1 X90.693 Y-10.708 Z-2.451 F480.000
G1 X90.604 Y-10.287 Z-2.455 F480.000
G1 X90.591 Y-9.857 Z-2.462 F480.000
G1 X90.655 Y-9.431 Z-2.469 F480.000
G1 X90.793 Y-9.024 Z-2.478 F480.000
G1 X91.001 Y-8.648 Z-2.488 F480.000
G1 X91.272 Y-8.314 Z-2.498 F480.000
G1 X91.599 Y-8.034 Z-2.508 F480.000
G1 X91.969 Y-7.816 Z-2.518 F480.000
G1 X92.373 Y-7.668 Z-2.528 F480.000
G1 X92.797 Y-7.593 Z-2.536 F480.000
G1 X93.227 Y-7.595 Z-2.544 F480.000
G1 X93.650 Y-7.672 Z-2.550 F480.000
G1 X94.052 Y-7.824 Z-2.555 F480.000
G1 X94.422 Y-8.045 Z-2.558 F480.000
G1 X94.746 Y-8.327 Z-2.560 F480.000
G1 X114.709 Y-28.290 Z-3.000 F480.000
G1 X134.671 Y-48.252 Z-3.440 F480.000
G1 X134.945 Y-48.565 Z-3.445 F480.000
G1 X135.162 Y-48.921 Z-3.450 F480.000
G1 X135.314 Y-49.308 Z-3.457 F480.000
G1 X135.398 Y-49.716 Z-3.464 F480.000
G1 X135.411 Y-50.132 Z-3.471 F480.000
G1 X135.352 Y-50.544 Z-3.479 F480.000
G1 X135.223 Y-50.940 Z-3.487 F480.000
G1 X135.028 Y-51.308 Z-3.494 F480.000
G1 X134.773 Y-51.637 Z-3.501 F480.000
G1 X134.466 Y-51.917 Z-3.508 F480.000
G1 X134.114 Y-52.141 Z-3.513 F480.000
G1 X133.730 Y-52.301 Z-3.518 F480.000
G1 X133.356 Y-52.387 Z-3.524 F480.000
G1 X132.972 Y-52.413 Z-3.530 F480.000
G1 X132.590 Y-52.378 Z-3.536 F480.000
G1 X132.217 Y-52.284 Z-3.542 F480.000
G1 X131.865 Y-52.132 Z-3.548 F480.000
G1 X131.540 Y-51.926 Z-3.554 F480.000
G1 X131.252 Y-51.671 Z-3.560 F480.000
G1 X91.327 Y-11.746 Z-4.440 F480.000
G1 X91.085 Y-11.470 Z-4.446 F480.000
G1 X90.855 Y-11.106 Z-4.447 F480.000
G1 X90.693 Y-10.708 Z-4.451 F480.000
G1 X90.604 Y-10.287 Z-4.455 F480.000
G1 X90.591 Y-9.857 Z-4.462 F480.000
G1 X90.655 Y-9.431 Z-4.469 F480.000
G1 X90.793 Y-9.024 Z-4.478 F480.000
G1 X91.001 Y-8.648 Z-4.488 F480.000
G1 X91.272 Y-8.314 Z-4.498 F480.000
G1 X91.599 Y-8.034 Z-4.508 F480.000
G1 X91.969 Y-7.816 Z-4.518 F480.000
G1 X92.373 Y-7.668 Z-4.528 F480.000
G1 X92.797 Y-7.593 Z-4.536 F480.000
G1 X93.227 Y-7.595 Z-4.544 F480.000
G1 X93.650 Y-7.672 Z-4.550 F480.000
G1 X94.052 Y-7.824 Z-4.555 F480.000
G1 X94.422 Y-8.045 Z-4.558 F480.000
G1 X94.746 Y-8.327 Z-4.560 F480.000
G1 X114.709 Y-28.290 Z-5.000 F480.000
G1 X134.671 Y-48.252 Z-5.440 F480.000
G1 X134.945 Y-48.565 Z-5.445 F480.000
G1 X135.162 Y-48.921 Z-5.450 F480.000
G1 X135.314 Y-49.308 Z-5.457 F480.000
G1 X135.398 Y-49.716 Z-5.464 F480.000
G1 X135.411 Y-50.132 Z-5.471 F480.000
G1 X135.352 Y-50.544 Z-5.479 F480.000
G1 X135.223 Y-50.940 Z-5.487 F480.000
G1 X135.028 Y-51.308 Z-5.494 F480.000
G1 X134.773 Y-51.637 Z-5.501 F480.000
G1 X134.466 Y-51.917 Z-5.508 F480.000
G1 X134.114 Y-52.141 Z-5.513 F480.000
G1 X133.730 Y-52.301 Z-5.518 F480.000
G1 X133.356 Y-52.387 Z-5.524 F480.000
G1 X132.972 Y-52.413 Z-5.530 F480.000
G1 X132.590 Y-52.378 Z-5.536 F480.000
G1 X132.217 Y-52.284 Z-5.542 F480.000
G1 X131.865 Y-52.132 Z-5.548 F480.000
G1 X131.540 Y-51.926 Z-5.554 F480.000
G1 X131.252 Y-51.671 Z-5.560 F480.000
G1 X91.327 Y-11.746 Z-6.440 F480.000
G1 X91.085 Y-11.470 Z-6.446 F480.000
G1 X90.855 Y-11.106 Z-6.447 F480.000
G1 X90.693 Y-10.708 Z-6.451 F480.000
G1 X90.604 Y-10.287 Z-6.455 F480.000
G1 X90.591 Y-9.857 Z-6.462 F480.000
G1 X90.655 Y-9.431 Z-6.469 F480.000
G1 X90.793 Y-9.024 Z-6.478 F480.000
G1 X91.001 Y-8.648 Z-6.488 F480.000
G1 X91.272 Y-8.314 Z-6.498 F480.000
G1 X91.599 Y-8.034 Z-6.508 F480.000
G1 X91.969 Y-7.816 Z-6.518 F480.000
G1 X92.373 Y-7.668 Z-6.528 F480.000
G1 X92.797 Y-7.593 Z-6.536 F480.000
G1 X93.227 Y-7.595 Z-6.544 F480.000
G1 X93.650 Y-7.672 Z-6.550 F480.000
G1 X94.052 Y-7.824 Z-6.555 F480.000
G1 X94.422 Y-8.045 Z-6.558 F480.000
G1 X94.746 Y-8.327 Z-6.560 F480.000
G1 X114.709 Y-28.290 Z-7.000 F480.000
G1 X134.671 Y-48.252 Z-7.440 F480.000
G1 X134.945 Y-48.565 Z-7.445 F480.000
G1 X135.162 Y-48.921 Z-7.450 F480.000
G1 X135.314 Y-49.308 Z-7.457 F480.000
G1 X135.398 Y-49.716 Z-7.464 F480.000
G1 X135.411 Y-50.132 Z-7.471 F480.000
G1 X135.352 Y-50.544 Z-7.479 F480.000
G1 X135.223 Y-50.940 Z-7.487 F480.000
G1 X135.028 Y-51.308 Z-7.494 F480.000
G1 X134.773 Y-51.637 Z-7.501 F480.000
G1 X134.466 Y-51.917 Z-7.508 F480.000
G1 X134.114 Y-52.141 Z-7.513 F480.000
G1 X133.730 Y-52.301 Z-7.518 F480.000
G1 X133.356 Y-52.387 Z-7.524 F480.000
G1 X132.972 Y-52.413 Z-7.530 F480.000
G1 X132.590 Y-52.378 Z-7.536 F480.000
G1 X132.217 Y-52.284 Z-7.542 F480.000
G1 X131.865 Y-52.132 Z-7.548 F480.000
G1 X131.540 Y-51.926 Z-7.554 F480.000
G1 X131.252 Y-51.671 Z-7.560 F480.000
G1 X91.327 Y-11.746 Z-8.440 F480.000
G1 X91.085 Y-11.470 Z-8.446 F480.000
G1 X90.855 Y-11.106 Z-8.447 F480.000
G1 X90.693 Y-10.708 Z-8.451 F480.000
G1 X90.604 Y-10.287 Z-8.455 F480.000
G1 X90.591 Y-9.857 Z-8.462 F480.000
G1 X90.655 Y-9.431 Z-8.469 F480.000
G1 X90.793 Y-9.024 Z-8.478 F480.000
G1 X91.001 Y-8.648 Z-8.488 F480.000
G1 X91.272 Y-8.314 Z-8.498 F480.000
G1 X91.599 Y-8.034 Z-8.508 F480.000
G1 X91.969 Y-7.816 Z-8.518 F480.000
G1 X92.373 Y-7.668 Z-8.528 F480.000
G1 X92.797 Y-7.593 Z-8.536 F480.000
G1 X93.227 Y-7.595 Z-8.544 F480.000
G1 X93.650 Y-7.672 Z-8.550 F480.000
G1 X94.052 Y-7.824 Z-8.555 F480.000
G1 X94.422 Y-8.045 Z-8.558 F480.000
G1 X94.746 Y-8.327 Z-8.560 F480.000
G1 X114.709 Y-28.290 Z-9.000 F480.000
G1 X134.671 Y-48.252 Z-9.220 F480.000
G1 X134.945 Y-48.565 Z-9.222 F480.000
G1 X135.162 Y-48.921 Z-9.225 F480.000
G1 X135.314 Y-49.308 Z-9.228 F480.000
G1 X135.398 Y-49.716 Z-9.232 F480.000
G1 X135.411 Y-50.132 Z-9.236 F480.000
G1 X135.352 Y-50.544 Z-9.240 F480.000
G1 X135.223 Y-50.940 Z-9.243 F480.000
G1 X135.028 Y-51.308 Z-9.247 F480.000
G1 X134.773 Y-51.637 Z-9.251 F480.000
G1 X134.466 Y-51.917 Z-9.254 F480.000
G1 X134.114 Y-52.141 Z-9.257 F480.000
G1 X133.730 Y-52.301 Z-9.259 F480.000
G1 X133.356 Y-52.387 Z-9.262 F480.000
G1 X132.972 Y-52.413 Z-9.265 F480.000
G1 X132.590 Y-52.378 Z-9.268 F480.000
G1 X132.217 Y-52.284 Z-9.271 F480.000
G1 X131.865 Y-52.132 Z-9.274 F480.000
G1 X131.540 Y-51.926 Z-9.277 F480.000
G1 X131.252 Y-51.671 Z-9.280 F480.000
G1 X91.327 Y-11.746 Z-9.720 F480.000
G1 X91.085 Y-11.470 Z-9.723 F480.000
G1 X90.855 Y-11.106 Z-9.724 F480.000
G1 X90.693 Y-10.708 Z-9.725 F480.000
G1 X90.604 Y-10.287 Z-9.728 F480.000
G1 X90.591 Y-9.857 Z-9.731 F480.000
G1 X90.654 Y-9.431 Z-9.735 F480.000
G1 X90.793 Y-9.024 Z-9.739 F480.000
G1 X91.001 Y-8.648 Z-9.744 F480.000
G1 X91.272 Y-8.314 Z-9.749 F480.000
G1 X91.599 Y-8.034 Z-9.754 F480.000
G1 X91.969 Y-7.816 Z-9.759 F480.000
G1 X92.373 Y-7.667 Z-9.764 F480.000
G1 X92.797 Y-7.593 Z-9.768 F480.000
G1 X93.227 Y-7.594 Z-9.772 F480.000
G1 X93.650 Y-7.672 Z-9.775 F480.000
G1 X94.052 Y-7.824 Z-9.778 F480.000
G1 X94.422 Y-8.045 Z-9.779 F480.000
G1 X94.746 Y-8.327 Z-9.780 F480.000
G1 X114.709 Y-28.290 Z-10.000 F480.000
G1 X134.671 Y-48.252 Z-10.000 F480.000
G2 X133.730 Y-52.301 Z-10.000 I-1.675 J-1.744 K0.000 F480.000
G2 X131.252 Y-51.671 Z-10.000 I-0.731 J2.315 K0.000 F480.000
G1 X91.327 Y-11.746 Z-10.000 F480.000
G1 X91.085 Y-11.470 Z-10.000 F480.000
G2 X94.746 Y-8.327 Z-10.000 I1.918 J1.469 K0.000 F480.000
G1 X114.709 Y-28.290 Z-10.000 F480.000
G0 X114.709 Y-28.290 Z6.000
(Finish operation: RampEntryDressup020)
(Begin operation: RampEntryDressup021)
(Path: RampEntryDressup021)
G0 X0.000 Y0.000 Z6.000
G0 X96.324 Y-28.290 Z6.000
G0 X96.324 Y-28.290 Z4.000
G1 X116.286 Y-48.252 Z2.900 F480.000
G1 X116.564 Y-48.570 Z2.888 F480.000
G1 X116.782 Y-48.931 Z2.874 F480.000
G1 X116.934 Y-49.325 Z2.858 F480.000
G1 X117.016 Y-49.740 Z2.840 F480.000
G1 X117.024 Y-50.162 Z2.821 F480.000
G1 X116.958 Y-50.579 Z2.801 F480.000
G1 X116.821 Y-50.978 Z2.781 F480.000
G1 X116.617 Y-51.348 Z2.762 F480.000
G1 X116.351 Y-51.676 Z2.744 F480.000
G1 X116.032 Y-51.953 Z2.728 F480.000
G1 X115.670 Y-52.170 Z2.714 F480.000
G1 X115.276 Y-52.322 Z2.702 F480.000
G1 X114.848 Y-52.402 Z2.686 F480.000
G1 X114.412 Y-52.405 Z2.669 F480.000
G1 X113.983 Y-52.330 Z2.651 F480.000
G1 X113.574 Y-52.179 Z2.633 F480.000
G1 X113.199 Y-51.958 Z2.616 F480.000
G1 X112.869 Y-51.673 Z2.600 F480.000
G1 X72.942 Y-11.746 Z0.400 F480.000
G1 X72.700 Y-11.470 Z0.385 F480.000
G1 X72.470 Y-11.106 Z0.382 F480.000
G1 X72.308 Y-10.707 Z0.374 F480.000
G1 X72.220 Y-10.286 Z0.361 F480.000
G1 X72.207 Y-9.856 Z0.345 F480.000
G1 X72.271 Y-9.431 Z0.326 F480.000
G1 X72.408 Y-9.023 Z0.304 F480.000
G1 X72.616 Y-8.647 Z0.281 F480.000
G1 X72.888 Y-8.314 Z0.256 F480.000
G1 X73.214 Y-8.034 Z0.230 F480.000
G1 X73.584 Y-7.816 Z0.205 F480.000
G1 X73.988 Y-7.668 Z0.181 F480.000
G1 X74.411 Y-7.593 Z0.159 F480.000
G1 X74.841 Y-7.595 Z0.140 F480.000
G1 X75.264 Y-7.673 Z0.124 F480.000
G1 X75.667 Y-7.824 Z0.112 F480.000
G1 X76.036 Y-8.045 Z0.104 F480.000
G1 X76.361 Y-8.327 Z0.100 F480.000
G1 X96.324 Y-28.290 Z-1.000 F480.000
G1 X116.286 Y-48.252 Z-1.440 F480.000
G1 X116.564 Y-48.570 Z-1.445 F480.000
G1 X116.782 Y-48.931 Z-1.450 F480.000
G1 X116.934 Y-49.325 Z-1.457 F480.000
G1 X117.016 Y-49.740 Z-1.464 F480.000
G1 X117.024 Y-50.162 Z-1.472 F480.000
G1 X116.958 Y-50.579 Z-1.480 F480.000
G1 X116.821 Y-50.978 Z-1.488 F480.000
G1 X116.617 Y-51.348 Z-1.495 F480.000
G1 X116.351 Y-51.676 Z-1.502 F480.000
G1 X116.032 Y-51.953 Z-1.509 F480.000
G1 X115.670 Y-52.170 Z-1.515 F480.000
G1 X115.276 Y-52.322 Z-1.519 F480.000
G1 X114.848 Y-52.402 Z-1.526 F480.000
G1 X114.412 Y-52.405 Z-1.532 F480.000
G1 X113.983 Y-52.330 Z-1.540 F480.000
G1 X113.574 Y-52.179 Z-1.547 F480.000
G1 X113.199 Y-51.958 Z-1.554 F480.000
G1 X112.869 Y-51.673 Z-1.560 F480.000
G1 X72.942 Y-11.746 Z-2.440 F480.000
G1 X72.700 Y-11.470 Z-2.446 F480.000
G1 X72.470 Y-11.106 Z-2.447 F480.000
G1 X72.308 Y-10.708 Z-2.451 F480.000
G1 X72.219 Y-10.287 Z-2.455 F480.000
G1 X72.206 Y-9.857 Z-2.462 F480.000
G1 X72.270 Y-9.431 Z-2.469 F480.000
G1 X72.408 Y-9.024 Z-2.478 F480.000
G1 X72.616 Y-8.648 Z-2.488 F480.000
G1 X72.887 Y-8.314 Z-2.498 F480.000
G1 X73.214 Y-8.034 Z-2.508 F480.000
G1 X73.585 Y-7.816 Z-2.518 F480.000
G1 X73.988 Y-7.668 Z-2.528 F480.000
G1 X74.412 Y-7.593 Z-2.536 F480.000
G1 X74.842 Y-7.595 Z-2.544 F480.000
G1 X75.265 Y-7.672 Z-2.550 F480.000
G1 X75.668 Y-7.824 Z-2.555 F480.000
G1 X76.037 Y-8.045 Z-2.558 F480.000
G1 X76.361 Y-8.327 Z-2.560 F480.000
G1 X96.324 Y-28.290 Z-3.000 F480.000
G1 X116.286 Y-48.252 Z-3.440 F480.000
G1 X116.564 Y-48.570 Z-3.445 F480.000
G1 X116.782 Y-48.931 Z-3.450 F480.000
G1 X116.934 Y-49.325 Z-3.457 F480.000
G1 X117.016 Y-49.740 Z-3.464 F480.000
G1 X117.024 Y-50.162 Z-3.472 F480.000
G1 X116.958 Y-50.579 Z-3.480 F480.000
G1 X116.821 Y-50.978 Z-3.488 F480.000
G1 X116.617 Y-51.348 Z-3.495 F480.000
G1 X116.351 Y-51.676 Z-3.502 F480.000
G1 X116.032 Y-51.953 Z-3.509 F480.000
G1 X115.670 Y-52.170 Z-3.515 F480.000
G1 X115.276 Y-52.322 Z-3.519 F480.000
G1 X114.848 Y-52.402 Z-3.526 F480.000
G1 X114.412 Y-52.405 Z-3.532 F480.000
G1 X113.983 Y-52.330 Z-3.540 F480.000
G1 X113.574 Y-52.179 Z-3.547 F480.000
G1 X113.199 Y-51.958 Z-3.554 F480.000
G1 X112.869 Y-51.673 Z-3.560 F480.000
G1 X72.942 Y-11.746 Z-4.440 F480.000
G1 X72.700 Y-11.470 Z-4.446 F480.000
G1 X72.470 Y-11.106 Z-4.447 F480.000
G1 X72.308 Y-10.708 Z-4.451 F480.000
G1 X72.219 Y-10.287 Z-4.455 F480.000
G1 X72.206 Y-9.857 Z-4.462 F480.000
G1 X72.270 Y-9.431 Z-4.469 F480.000
G1 X72.408 Y-9.024 Z-4.478 F480.000
G1 X72.616 Y-8.648 Z-4.488 F480.000
G1 X72.887 Y-8.314 Z-4.498 F480.000
G1 X73.214 Y-8.034 Z-4.508 F480.000
G1 X73.585 Y-7.816 Z-4.518 F480.000
G1 X73.988 Y-7.668 Z-4.528 F480.000
G1 X74.412 Y-7.593 Z-4.536 F480.000
G1 X74.842 Y-7.595 Z-4.544 F480.000
G1 X75.265 Y-7.672 Z-4.550 F480.000
G1 X75.668 Y-7.824 Z-4.555 F480.000
G1 X76.037 Y-8.045 Z-4.558 F480.000
G1 X76.361 Y-8.327 Z-4.560 F480.000
G1 X96.324 Y-28.290 Z-5.000 F480.000
G1 X116.286 Y-48.252 Z-5.440 F480.000
G1 X116.564 Y-48.570 Z-5.445 F480.000
G1 X116.782 Y-48.931 Z-5.450 F480.000
G1 X116.934 Y-49.325 Z-5.457 F480.000
G1 X117.016 Y-49.740 Z-5.464 F480.000
G1 X117.024 Y-50.162 Z-5.472 F480.000
G1 X116.958 Y-50.579 Z-5.480 F480.000
G1 X116.821 Y-50.978 Z-5.488 F480.000
G1 X116.617 Y-51.348 Z-5.495 F480.000
G1 X116.351 Y-51.676 Z-5.502 F480.000
G1 X116.032 Y-51.953 Z-5.509 F480.000
G1 X115.670 Y-52.170 Z-5.515 F480.000
G1 X115.276 Y-52.322 Z-5.519 F480.000
G1 X114.848 Y-52.402 Z-5.526 F480.000
G1 X114.412 Y-52.405 Z-5.532 F480.000
G1 X113.983 Y-52.330 Z-5.540 F480.000
G1 X113.574 Y-52.179 Z-5.547 F480.000
G1 X113.199 Y-51.958 Z-5.554 F480.000
G1 X112.869 Y-51.673 Z-5.560 F480.000
G1 X72.942 Y-11.746 Z-6.440 F480.000
G1 X72.700 Y-11.470 Z-6.446 F480.000
G1 X72.470 Y-11.106 Z-6.447 F480.000
G1 X72.308 Y-10.708 Z-6.451 F480.000
G1 X72.219 Y-10.287 Z-6.455 F480.000
G1 X72.206 Y-9.857 Z-6.462 F480.000
G1 X72.270 Y-9.431 Z-6.469 F480.000
G1 X72.408 Y-9.024 Z-6.478 F480.000
G1 X72.616 Y-8.648 Z-6.488 F480.000
G1 X72.887 Y-8.314 Z-6.498 F480.000
G1 X73.214 Y-8.034 Z-6.508 F480.000
G1 X73.585 Y-7.816 Z-6.518 F480.000
G1 X73.988 Y-7.668 Z-6.528 F480.000
G1 X74.412 Y-7.593 Z-6.536 F480.000
G1 X74.842 Y-7.595 Z-6.544 F480.000
G1 X75.265 Y-7.672 Z-6.550 F480.000
G1 X75.668 Y-7.824 Z-6.555 F480.000
G1 X76.037 Y-8.045 Z-6.558 F480.000
G1 X76.361 Y-8.327 Z-6.560 F480.000
G1 X96.324 Y-28.290 Z-7.000 F480.000
G1 X116.286 Y-48.252 Z-7.440 F480.000
G1 X116.564 Y-48.570 Z-7.445 F480.000
G1 X116.782 Y-48.931 Z-7.450 F480.000
G1 X116.934 Y-49.325 Z-7.457 F480.000
G1 X117.016 Y-49.740 Z-7.464 F480.000
G1 X117.024 Y-50.162 Z-7.472 F480.000
G1 X116.958 Y-50.579 Z-7.480 F480.000
G1 X116.821 Y-50.978 Z-7.488 F480.000
G1 X116.617 Y-51.348 Z-7.495 F480.000
G1 X116.351 Y-51.676 Z-7.502 F480.000
G1 X116.032 Y-51.953 Z-7.509 F480.000
G1 X115.670 Y-52.170 Z-7.515 F480.000
G1 X115.276 Y-52.322 Z-7.519 F480.000
G1 X114.848 Y-52.402 Z-7.526 F480.000
G1 X114.412 Y-52.405 Z-7.532 F480.000
G1 X113.983 Y-52.330 Z-7.540 F480.000
G1 X113.574 Y-52.179 Z-7.547 F480.000
G1 X113.199 Y-51.958 Z-7.554 F480.000
G1 X112.869 Y-51.673 Z-7.560 F480.000
G1 X72.942 Y-11.746 Z-8.440 F480.000
G1 X72.700 Y-11.470 Z-8.446 F480.000
G1 X72.470 Y-11.106 Z-8.447 F480.000
G1 X72.308 Y-10.708 Z-8.451 F480.000
G1 X72.219 Y-10.287 Z-8.455 F480.000
G1 X72.206 Y-9.857 Z-8.462 F480.000
G1 X72.270 Y-9.431 Z-8.469 F480.000
G1 X72.408 Y-9.024 Z-8.478 F480.000
G1 X72.616 Y-8.648 Z-8.488 F480.000
G1 X72.887 Y-8.314 Z-8.498 F480.000
G1 X73.214 Y-8.034 Z-8.508 F480.000
G1 X73.585 Y-7.816 Z-8.518 F480.000
G1 X73.988 Y-7.668 Z-8.528 F480.000
G1 X74.412 Y-7.593 Z-8.536 F480.000
G1 X74.842 Y-7.595 Z-8.544 F480.000
G1 X75.265 Y-7.672 Z-8.550 F480.000
G1 X75.668 Y-7.824 Z-8.555 F480.000
G1 X76.037 Y-8.045 Z-8.558 F480.000
G1 X76.361 Y-8.327 Z-8.560 F480.000
G1 X96.324 Y-28.290 Z-9.000 F480.000
G1 X116.286 Y-48.252 Z-9.220 F480.000
G1 X116.564 Y-48.570 Z-9.222 F480.000
G1 X116.782 Y-48.931 Z-9.225 F480.000
G1 X116.934 Y-49.325 Z-9.228 F480.000
G1 X117.016 Y-49.739 Z-9.232 F480.000
G1 X117.024 Y-50.162 Z-9.236 F480.000
G1 X116.958 Y-50.579 Z-9.240 F480.000
G1 X116.821 Y-50.978 Z-9.244 F480.000
G1 X116.617 Y-51.348 Z-9.248 F480.000
G1 X116.351 Y-51.676 Z-9.251 F480.000
G1 X116.032 Y-51.953 Z-9.254 F480.000
G1 X115.670 Y-52.170 Z-9.257 F480.000
G1 X115.276 Y-52.322 Z-9.260 F480.000
G1 X114.848 Y-52.402 Z-9.263 F480.000
G1 X114.412 Y-52.405 Z-9.266 F480.000
G1 X113.983 Y-52.330 Z-9.270 F480.000
G1 X113.574 Y-52.179 Z-9.273 F480.000
G1 X113.199 Y-51.958 Z-9.277 F480.000
G1 X112.869 Y-51.673 Z-9.280 F480.000
G1 X72.942 Y-11.746 Z-9.720 F480.000
G1 X72.700 Y-11.470 Z-9.723 F480.000
G1 X72.470 Y-11.106 Z-9.724 F480.000
G1 X72.308 Y-10.708 Z-9.725 F480.000
G1 X72.219 Y-10.287 Z-9.728 F480.000
G1 X72.206 Y-9.857 Z-9.731 F480.000
G1 X72.270 Y-9.431 Z-9.735 F480.000
G1 X72.408 Y-9.024 Z-9.739 F480.000
G1 X72.616 Y-8.648 Z-9.744 F480.000
G1 X72.887 Y-8.314 Z-9.749 F480.000
G1 X73.214 Y-8.034 Z-9.754 F480.000
G1 X73.585 Y-7.816 Z-9.759 F480.000
G1 X73.988 Y-7.667 Z-9.764 F480.000
G1 X74.412 Y-7.593 Z-9.768 F480.000
G1 X74.842 Y-7.594 Z-9.772 F480.000
G1 X75.265 Y-7.672 Z-9.775 F480.000
G1 X75.668 Y-7.824 Z-9.778 F480.000
G1 X76.037 Y-8.045 Z-9.779 F480.000
G1 X76.361 Y-8.327 Z-9.780 F480.000
G1 X96.324 Y-28.290 Z-10.000 F480.000
G1 X116.286 Y-48.252 Z-10.000 F480.000
G2 X115.276 Y-52.322 Z-10.000 I-1.675 J-1.745 K0.000 F480.000
G2 X112.869 Y-51.673 Z-10.000 I-0.661 J2.335 K0.000 F480.000
G1 X72.942 Y-11.746 Z-10.000 F480.000
G1 X72.700 Y-11.470 Z-10.000 F480.000
G2 X76.361 Y-8.327 Z-10.000 I1.918 J1.469 K0.000 F480.000
G1 X96.324 Y-28.290 Z-10.000 F480.000
G0 X96.324 Y-28.290 Z6.000
(Finish operation: RampEntryDressup021)
(Begin operation: RampEntryDressup022)
(Path: RampEntryDressup022)
G0 X0.000 Y0.000 Z6.000
G0 X77.939 Y-28.290 Z6.000
G0 X77.939 Y-28.290 Z4.000
G1 X97.901 Y-48.252 Z2.900 F480.000
G1 X98.179 Y-48.570 Z2.888 F480.000
G1 X98.397 Y-48.931 Z2.874 F480.000
G1 X98.550 Y-49.325 Z2.858 F480.000
G1 X98.631 Y-49.740 Z2.840 F480.000
G1 X98.639 Y-50.162 Z2.821 F480.000
G1 X98.574 Y-50.579 Z2.801 F480.000
G1 X98.436 Y-50.978 Z2.781 F480.000
G1 X98.232 Y-51.348 Z2.762 F480.000
G1 X97.966 Y-51.676 Z2.744 F480.000
G1 X97.648 Y-51.953 Z2.728 F480.000
G1 X97.285 Y-52.170 Z2.714 F480.000
G1 X96.891 Y-52.322 Z2.702 F480.000
G1 X96.463 Y-52.402 Z2.686 F480.000
G1 X96.027 Y-52.405 Z2.669 F480.000
G1 X95.598 Y-52.330 Z2.651 F480.000
G1 X95.189 Y-52.179 Z2.633 F480.000
G1 X94.814 Y-51.958 Z2.616 F480.000
G1 X94.484 Y-51.673 Z2.600 F480.000
G1 X54.558 Y-11.746 Z0.400 F480.000
G1 X54.315 Y-11.470 Z0.385 F480.000
G1 X54.085 Y-11.106 Z0.382 F480.000
G1 X53.924 Y-10.707 Z0.374 F480.000
G1 X53.835 Y-10.286 Z0.361 F480.000
G1 X53.822 Y-9.856 Z0.345 F480.000
G1 X53.886 Y-9.431 Z0.326 F480.000
G1 X54.024 Y-9.023 Z0.304 F480.000
G1 X54.232 Y-8.647 Z0.281 F480.000
G1 X54.503 Y-8.314 Z0.256 F480.000
G1 X54.829 Y-8.034 Z0.230 F480.000
G1 X55.199 Y-7.816 Z0.205 F480.000
G1 X55.603 Y-7.668 Z0.181 F480.000
G1 X56.026 Y-7.593 Z0.159 F480.000
G1 X56.456 Y-7.595 Z0.140 F480.000
G1 X56.879 Y-7.673 Z0.124 F480.000
G1 X57.282 Y-7.824 Z0.112 F480.000
G1 X57.652 Y-8.045 Z0.104 F480.000
G1 X57.977 Y-8.327 Z0.100 F480.000
G1 X77.939 Y-28.290 Z-1.000 F480.000
G1 X97.901 Y-48.252 Z-1.440 F480.000
G1 X98.179 Y-48.570 Z-1.445 F480.000
G1 X98.397 Y-48.931 Z-1.450 F480.000
G1 X98.550 Y-49.325 Z-1.457 F480.000
G1 X98.631 Y-49.740 Z-1.464 F480.000
G1 X98.639 Y-50.162 Z-1.472 F480.000
G1 X98.574 Y-50.579 Z-1.480 F480.000
G1 X98.436 Y-50.978 Z-1.488 F480.000
G1 X98.232 Y-51.348 Z-1.495 F480.000
G1 X97.966 Y-51.676 Z-1.502 F480.000
G1 X97.647 Y-51.953 Z-1.509 F480.000
G1 X97.285 Y-52.170 Z-1.515 F480.000
G1 X96.891 Y-52.322 Z-1.519 F480.000
G1 X96.463 Y-52.402 Z-1.526 F480.000
G1 X96.027 Y-52.405 Z-1.532 F480.000
G1 X95.598 Y-52.330 Z-1.540 F480.000
G1 X95.189 Y-52.179 Z-1.547 F480.000
G1 X94.814 Y-51.958 Z-1.554 F480.000
G1 X94.484 Y-51.673 Z-1.560 F480.000
G1 X54.558 Y-11.746 Z-2.440 F480.000
G1 X54.315 Y-11.470 Z-2.446 F480.000
G1 X54.085 Y-11.106 Z-2.447 F480.000
G1 X53.923 Y-10.708 Z-2.451 F480.000
G1 X53.834 Y-10.287 Z-2.455 F480.000
G1 X53.821 Y-9.857 Z-2.462 F480.000
G1 X53.885 Y-9.431 Z-2.469 F480.000
G1 X54.023 Y-9.024 Z-2.478 F480.000
G1 X54.231 Y-8.648 Z-2.488 F480.000
G1 X54.503 Y-8.314 Z-2.498 F480.000
G1 X54.829 Y-8.034 Z-2.508 F480.000
G1 X55.200 Y-7.816 Z-2.518 F480.000
G1 X55.603 Y-7.668 Z-2.528 F480.000
G1 X56.027 Y-7.593 Z-2.536 F480.000
G1 X56.457 Y-7.595 Z-2.544 F480.000
G1 X56.880 Y-7.672 Z-2.550 F480.000
G1 X57.283 Y-7.824 Z-2.555 F480.000
G1 X57.652 Y-8.045 Z-2.558 F480.000
G1 X57.977 Y-8.327 Z-2.560 F480.000
G1 X77.939 Y-28.290 Z-3.000 F480.000
G1 X97.901 Y-48.252 Z-3.440 F480.000
G1 X98.179 Y-48.570 Z-3.445 F480.000
G1 X98.397 Y-48.931 Z-3.450 F480.000
G1 X98.550 Y-49.325 Z-3.457 F480.000
G1 X98.631 Y-49.740 Z-3.464 F480.000
G1 X98.639 Y-50.162 Z-3.472 F480.000
G1 X98.574 Y-50.579 Z-3.480 F480.000
G1 X98.436 Y-50.978 Z-3.488 F480.000
G1 X98.232 Y-51.348 Z-3.495 F480.000
G1 X97.966 Y-51.676 Z-3.502 F480.000
G1 X97.647 Y-51.953 Z-3.509 F480.000
G1 X97.285 Y-52.170 Z-3.515 F480.000
G1 X96.891 Y-52.322 Z-3.519 F480.000
G1 X96.463 Y-52.402 Z-3.526 F480.000
G1 X96.027 Y-52.405 Z-3.532 F480.000
G1 X95.598 Y-52.330 Z-3.540 F480.000
G1 X95.189 Y-52.179 Z-3.547 F480.000
G1 X94.814 Y-51.958 Z-3.554 F480.000
G1 X94.484 Y-51.673 Z-3.560 F480.000
G1 X54.558 Y-11.746 Z-4.440 F480.000
G1 X54.315 Y-11.470 Z-4.446 F480.000
G1 X54.085 Y-11.106 Z-4.447 F480.000
G1 X53.923 Y-10.708 Z-4.451 F480.000
G1 X53.834 Y-10.287 Z-4.455 F480.000
G1 X53.821 Y-9.857 Z-4.462 F480.000
G1 X53.885 Y-9.431 Z-4.469 F480.000
G1 X54.023 Y-9.024 Z-4.478 F480.000
G1 X54.231 Y-8.648 Z-4.488 F480.000
G1 X54.503 Y-8.314 Z-4.498 F480.000
G1 X54.829 Y-8.034 Z-4.508 F480.000
G1 X55.200 Y-7.816 Z-4.518 F480.000
G1 X55.603 Y-7.668 Z-4.528 F480.000
G1 X56.027 Y-7.593 Z-4.536 F480.000
G1 X56.457 Y-7.595 Z-4.544 F480.000
G1 X56.880 Y-7.672 Z-4.550 F480.000
G1 X57.283 Y-7.824 Z-4.555 F480.000
G1 X57.652 Y-8.045 Z-4.558 F480.000
G1 X57.977 Y-8.327 Z-4.560 F480.000
G1 X77.939 Y-28.290 Z-5.000 F480.000
G1 X97.901 Y-48.252 Z-5.440 F480.000
G1 X98.179 Y-48.570 Z-5.445 F480.000
G1 X98.397 Y-48.931 Z-5.450 F480.000
G1 X98.550 Y-49.325 Z-5.457 F480.000
G1 X98.631 Y-49.740 Z-5.464 F480.000
G1 X98.639 Y-50.162 Z-5.472 F480.000
G1 X98.574 Y-50.579 Z-5.480 F480.000
G1 X98.436 Y-50.978 Z-5.488 F480.000
G1 X98.232 Y-51.348 Z-5.495 F480.000
G1 X97.966 Y-51.676 Z-5.502 F480.000
G1 X97.647 Y-51.953 Z-5.509 F480.000
G1 X97.285 Y-52.170 Z-5.515 F480.000
G1 X96.891 Y-52.322 Z-5.519 F480.000
G1 X96.463 Y-52.402 Z-5.526 F480.000
G1 X96.027 Y-52.405 Z-5.532 F480.000
G1 X95.598 Y-52.330 Z-5.540 F480.000
G1 X95.189 Y-52.179 Z-5.547 F480.000
G1 X94.814 Y-51.958 Z-5.554 F480.000
G1 X94.484 Y-51.673 Z-5.560 F480.000
G1 X54.558 Y-11.746 Z-6.440 F480.000
G1 X54.315 Y-11.470 Z-6.446 F480.000
G1 X54.085 Y-11.106 Z-6.447 F480.000
G1 X53.923 Y-10.708 Z-6.451 F480.000
G1 X53.834 Y-10.287 Z-6.455 F480.000
G1 X53.821 Y-9.857 Z-6.462 F480.000
G1 X53.885 Y-9.431 Z-6.469 F480.000
G1 X54.023 Y-9.024 Z-6.478 F480.000
G1 X54.231 Y-8.648 Z-6.488 F480.000
G1 X54.503 Y-8.314 Z-6.498 F480.000
G1 X54.829 Y-8.034 Z-6.508 F480.000
G1 X55.200 Y-7.816 Z-6.518 F480.000
G1 X55.603 Y-7.668 Z-6.528 F480.000
G1 X56.027 Y-7.593 Z-6.536 F480.000
G1 X56.457 Y-7.595 Z-6.544 F480.000
G1 X56.880 Y-7.672 Z-6.550 F480.000
G1 X57.283 Y-7.824 Z-6.555 F480.000
G1 X57.652 Y-8.045 Z-6.558 F480.000
G1 X57.977 Y-8.327 Z-6.560 F480.000
G1 X77.939 Y-28.290 Z-7.000 F480.000
G1 X97.901 Y-48.252 Z-7.440 F480.000
G1 X98.179 Y-48.570 Z-7.445 F480.000
G1 X98.397 Y-48.931 Z-7.450 F480.000
G1 X98.550 Y-49.325 Z-7.457 F480.000
G1 X98.631 Y-49.740 Z-7.464 F480.000
G1 X98.639 Y-50.162 Z-7.472 F480.000
G1 X98.574 Y-50.579 Z-7.480 F480.000
G1 X98.436 Y-50.978 Z-7.488 F480.000
G1 X98.232 Y-51.348 Z-7.495 F480.000
G1 X97.966 Y-51.676 Z-7.502 F480.000
G1 X97.647 Y-51.953 Z-7.509 F480.000
G1 X97.285 Y-52.170 Z-7.515 F480.000
G1 X96.891 Y-52.322 Z-7.519 F480.000
G1 X96.463 Y-52.402 Z-7.526 F480.000
G1 X96.027 Y-52.405 Z-7.532 F480.000
G1 X95.598 Y-52.330 Z-7.540 F480.000
G1 X95.189 Y-52.179 Z-7.547 F480.000
G1 X94.814 Y-51.958 Z-7.554 F480.000
G1 X94.484 Y-51.673 Z-7.560 F480.000
G1 X54.558 Y-11.746 Z-8.440 F480.000
G1 X54.315 Y-11.470 Z-8.446 F480.000
G1 X54.085 Y-11.106 Z-8.447 F480.000
G1 X53.923 Y-10.708 Z-8.451 F480.000
G1 X53.834 Y-10.287 Z-8.455 F480.000
G1 X53.821 Y-9.857 Z-8.462 F480.000
G1 X53.885 Y-9.431 Z-8.469 F480.000
G1 X54.023 Y-9.024 Z-8.478 F480.000
G1 X54.231 Y-8.648 Z-8.488 F480.000
G1 X54.503 Y-8.314 Z-8.498 F480.000
G1 X54.829 Y-8.034 Z-8.508 F480.000
G1 X55.200 Y-7.816 Z-8.518 F480.000
G1 X55.603 Y-7.668 Z-8.528 F480.000
G1 X56.027 Y-7.593 Z-8.536 F480.000
G1 X56.457 Y-7.595 Z-8.544 F480.000
G1 X56.880 Y-7.672 Z-8.550 F480.000
G1 X57.283 Y-7.824 Z-8.555 F480.000
G1 X57.652 Y-8.045 Z-8.558 F480.000
G1 X57.977 Y-8.327 Z-8.560 F480.000
G1 X77.939 Y-28.290 Z-9.000 F480.000
G1 X97.901 Y-48.252 Z-9.220 F480.000
G1 X98.179 Y-48.570 Z-9.222 F480.000
G1 X98.397 Y-48.931 Z-9.225 F480.000
G1 X98.550 Y-49.325 Z-9.228 F480.000
G1 X98.631 Y-49.739 Z-9.232 F480.000
G1 X98.639 Y-50.162 Z-9.236 F480.000
G1 X98.574 Y-50.579 Z-9.240 F480.000
G1 X98.436 Y-50.978 Z-9.244 F480.000
G1 X98.232 Y-51.348 Z-9.248 F480.000
G1 X97.966 Y-51.676 Z-9.251 F480.000
G1 X97.647 Y-51.953 Z-9.254 F480.000
G1 X97.285 Y-52.170 Z-9.257 F480.000
G1 X96.891 Y-52.322 Z-9.260 F480.000
G1 X96.463 Y-52.402 Z-9.263 F480.000
G1 X96.027 Y-52.405 Z-9.266 F480.000
G1 X95.598 Y-52.330 Z-9.270 F480.000
G1 X95.189 Y-52.179 Z-9.273 F480.000
G1 X94.814 Y-51.958 Z-9.277 F480.000
G1 X94.484 Y-51.673 Z-9.280 F480.000
G1 X54.558 Y-11.746 Z-9.720 F480.000
G1 X54.315 Y-11.470 Z-9.723 F480.000
G1 X54.085 Y-11.106 Z-9.724 F480.000
G1 X53.923 Y-10.708 Z-9.725 F480.000
G1 X53.834 Y-10.287 Z-9.728 F480.000
G1 X53.821 Y-9.857 Z-9.731 F480.000
G1 X53.885 Y-9.431 Z-9.735 F480.000
G1 X54.023 Y-9.024 Z-9.739 F480.000
G1 X54.231 Y-8.648 Z-9.744 F480.000
G1 X54.503 Y-8.314 Z-9.749 F480.000
G1 X54.829 Y-8.034 Z-9.754 F480.000
G1 X55.200 Y-7.816 Z-9.759 F480.000
G1 X55.604 Y-7.667 Z-9.764 F480.000
G1 X56.027 Y-7.593 Z-9.768 F480.000
G1 X56.457 Y-7.594 Z-9.772 F480.000
G1 X56.880 Y-7.672 Z-9.775 F480.000
G1 X57.283 Y-7.824 Z-9.778 F480.000
G1 X57.652 Y-8.045 Z-9.779 F480.000
G1 X57.977 Y-8.327 Z-9.780 F480.000
G1 X77.939 Y-28.290 Z-10.000 F480.000
G1 X97.901 Y-48.252 Z-10.000 F480.000
G2 X96.891 Y-52.322 Z-10.000 I-1.675 J-1.745 K0.000 F480.000
G2 X94.484 Y-51.673 Z-10.000 I-0.661 J2.335 K0.000 F480.000
G1 X54.558 Y-11.746 Z-10.000 F480.000
G1 X54.315 Y-11.470 Z-10.000 F480.000
G2 X57.977 Y-8.327 Z-10.000 I1.918 J1.469 K0.000 F480.000
G1 X77.939 Y-28.290 Z-10.000 F480.000
G0 X77.939 Y-28.290 Z6.000
(Finish operation: RampEntryDressup022)
(Begin operation: RampEntryDressup023)
(Path: RampEntryDressup023)
G0 X0.000 Y0.000 Z6.000
G0 X67.631 Y-36.367 Z6.000
G0 X67.631 Y-36.367 Z4.000
G1 X79.516 Y-48.252 Z2.983 F480.000
G1 X79.794 Y-48.570 Z2.965 F480.000
G1 X80.013 Y-48.932 Z2.943 F480.000
G1 X80.165 Y-49.326 Z2.918 F480.000
G1 X80.246 Y-49.740 Z2.890 F480.000
G1 X80.254 Y-50.162 Z2.860 F480.000
G1 X80.189 Y-50.579 Z2.829 F480.000
G1 X80.052 Y-50.978 Z2.798 F480.000
G1 X79.847 Y-51.347 Z2.769 F480.000
G1 X79.582 Y-51.675 Z2.741 F480.000
G1 X79.263 Y-51.952 Z2.715 F480.000
G1 X78.901 Y-52.170 Z2.693 F480.000
G1 X78.506 Y-52.322 Z2.676 F480.000
G1 X78.078 Y-52.401 Z2.651 F480.000
G1 X77.642 Y-52.403 Z2.624 F480.000
G1 X77.213 Y-52.328 Z2.596 F480.000
G1 X76.804 Y-52.177 Z2.569 F480.000
G1 X76.429 Y-51.956 Z2.542 F480.000
G1 X76.098 Y-51.672 Z2.517 F480.000
G1 X52.327 Y-27.900 Z0.483 F480.000
G1 X52.085 Y-27.624 Z0.460 F480.000
G1 X51.855 Y-27.259 Z0.455 F480.000
G1 X51.694 Y-26.860 Z0.442 F480.000
G1 X51.606 Y-26.439 Z0.423 F480.000
G1 X51.593 Y-26.009 Z0.398 F480.000
G1 X51.656 Y-25.584 Z0.368 F480.000
G1 X51.794 Y-25.177 Z0.334 F480.000
G1 X52.002 Y-24.801 Z0.297 F480.000
G1 X52.273 Y-24.468 Z0.259 F480.000
G1 X52.598 Y-24.189 Z0.219 F480.000
G1 X52.968 Y-23.971 Z0.180 F480.000
G1 X53.371 Y-23.823 Z0.143 F480.000
G1 X53.794 Y-23.749 Z0.109 F480.000
G1 X54.224 Y-23.750 Z0.080 F480.000
G1 X54.647 Y-23.828 Z0.055 F480.000
G1 X55.050 Y-23.979 Z0.036 F480.000
G1 X55.420 Y-24.200 Z0.023 F480.000
G1 X55.746 Y-24.482 Z0.017 F480.000
G1 X67.631 Y-36.367 Z-1.000 F480.000
G1 X79.516 Y-48.252 Z-1.407 F480.000
G1 X79.794 Y-48.570 Z-1.414 F480.000
G1 X80.013 Y-48.931 Z-1.423 F480.000
G1 X80.165 Y-49.325 Z-1.433 F480.000
G1 X80.246 Y-49.740 Z-1.444 F480.000
G1 X80.254 Y-50.162 Z-1.456 F480.000
G1 X80.189 Y-50.579 Z-1.468 F480.000
G1 X80.052 Y-50.978 Z-1.481 F480.000
G1 X79.847 Y-51.348 Z-1.493 F480.000
G1 X79.581 Y-51.676 Z-1.504 F480.000
G1 X79.263 Y-51.953 Z-1.514 F480.000
G1 X78.901 Y-52.170 Z-1.523 F480.000
G1 X78.506 Y-52.322 Z-1.530 F480.000
G1 X78.078 Y-52.401 Z-1.540 F480.000
G1 X77.642 Y-52.403 Z-1.550 F480.000
G1 X77.213 Y-52.328 Z-1.561 F480.000
G1 X76.804 Y-52.177 Z-1.572 F480.000
G1 X76.429 Y-51.956 Z-1.583 F480.000
G1 X76.098 Y-51.672 Z-1.593 F480.000
G1 X52.327 Y-27.900 Z-2.407 F480.000
G1 X52.085 Y-27.624 Z-2.416 F480.000
G1 X51.855 Y-27.260 Z-2.418 F480.000
G1 X51.693 Y-26.862 Z-2.423 F480.000
G1 X51.604 Y-26.441 Z-2.431 F480.000
G1 X51.591 Y-26.011 Z-2.441 F480.000
G1 X51.655 Y-25.585 Z-2.453 F480.000
G1 X51.793 Y-25.178 Z-2.466 F480.000
G1 X52.001 Y-24.802 Z-2.481 F480.000
G1 X52.272 Y-24.468 Z-2.497 F480.000
G1 X52.599 Y-24.188 Z-2.512 F480.000
G1 X52.969 Y-23.971 Z-2.528 F480.000
G1 X53.373 Y-23.822 Z-2.543 F480.000
G1 X53.796 Y-23.747 Z-2.556 F480.000
G1 X54.226 Y-23.749 Z-2.568 F480.000
G1 X54.650 Y-23.827 Z-2.578 F480.000
G1 X55.052 Y-23.978 Z-2.586 F480.000
G1 X55.422 Y-24.199 Z-2.591 F480.000
G1 X55.746 Y-24.482 Z-2.593 F480.000
G1 X67.631 Y-36.367 Z-3.000 F480.000
G1 X79.516 Y-48.252 Z-3.407 F480.000
G1 X79.794 Y-48.570 Z-3.414 F480.000
G1 X80.013 Y-48.931 Z-3.423 F480.000
G1 X80.165 Y-49.325 Z-3.433 F480.000
G1 X80.246 Y-49.740 Z-3.444 F480.000
G1 X80.254 Y-50.162 Z-3.456 F480.000
G1 X80.189 Y-50.579 Z-3.468 F480.000
G1 X80.052 Y-50.978 Z-3.481 F480.000
G1 X79.847 Y-51.348 Z-3.493 F480.000
G1 X79.581 Y-51.676 Z-3.504 F480.000
G1 X79.263 Y-51.953 Z-3.514 F480.000
G1 X78.901 Y-52.170 Z-3.523 F480.000
G1 X78.506 Y-52.322 Z-3.530 F480.000
G1 X78.078 Y-52.401 Z-3.540 F480.000
G1 X77.642 Y-52.403 Z-3.550 F480.000
G1 X77.213 Y-52.328 Z-3.561 F480.000
G1 X76.804 Y-52.177 Z-3.572 F480.000
G1 X76.429 Y-51.956 Z-3.583 F480.000
G1 X76.098 Y-51.672 Z-3.593 F480.000
G1 X52.327 Y-27.900 Z-4.407 F480.000
G1 X52.085 Y-27.624 Z-4.416 F480.000
G1 X51.855 Y-27.260 Z-4.418 F480.000
G1 X51.693 Y-26.862 Z-4.423 F480.000
G1 X51.604 Y-26.441 Z-4.431 F480.000
G1 X51.591 Y-26.011 Z-4.441 F480.000
G1 X51.655 Y-25.585 Z-4.453 F480.000
G1 X51.793 Y-25.178 Z-4.466 F480.000
G1 X52.001 Y-24.802 Z-4.481 F480.000
G1 X52.272 Y-24.468 Z-4.497 F480.000
G1 X52.599 Y-24.188 Z-4.512 F480.000
G1 X52.969 Y-23.971 Z-4.528 F480.000
G1 X53.373 Y-23.822 Z-4.543 F480.000
G1 X53.796 Y-23.747 Z-4.556 F480.000
G1 X54.226 Y-23.749 Z-4.568 F480.000
G1 X54.650 Y-23.827 Z-4.578 F480.000
G1 X55.052 Y-23.978 Z-4.586 F480.000
G1 X55.422 Y-24.199 Z-4.591 F480.000
G1 X55.746 Y-24.482 Z-4.593 F480.000
G1 X67.631 Y-36.367 Z-5.000 F480.000
G1 X79.516 Y-48.252 Z-5.407 F480.000
G1 X79.794 Y-48.570 Z-5.414 F480.000
G1 X80.013 Y-48.931 Z-5.423 F480.000
G1 X80.165 Y-49.325 Z-5.433 F480.000
G1 X80.246 Y-49.740 Z-5.444 F480.000
G1 X80.254 Y-50.162 Z-5.456 F480.000
G1 X80.189 Y-50.579 Z-5.468 F480.000
G1 X80.052 Y-50.978 Z-5.481 F480.000
G1 X79.847 Y-51.348 Z-5.493 F480.000
G1 X79.581 Y-51.676 Z-5.504 F480.000
G1 X79.263 Y-51.953 Z-5.514 F480.000
G1 X78.901 Y-52.170 Z-5.523 F480.000
G1 X78.506 Y-52.322 Z-5.530 F480.000
G1 X78.078 Y-52.401 Z-5.540 F480.000
G1 X77.642 Y-52.403 Z-5.550 F480.000
G1 X77.213 Y-52.328 Z-5.561 F480.000
G1 X76.804 Y-52.177 Z-5.572 F480.000
G1 X76.429 Y-51.956 Z-5.583 F480.000
G1 X76.098 Y-51.672 Z-5.593 F480.000
G1 X52.327 Y-27.900 Z-6.407 F480.000
G1 X52.085 Y-27.624 Z-6.416 F480.000
G1 X51.855 Y-27.260 Z-6.418 F480.000
G1 X51.693 Y-26.862 Z-6.423 F480.000
G1 X51.604 Y-26.441 Z-6.431 F480.000
G1 X51.591 Y-26.011 Z-6.441 F480.000
G1 X51.655 Y-25.585 Z-6.453 F480.000
G1 X51.793 Y-25.178 Z-6.466 F480.000
G1 X52.001 Y-24.802 Z-6.481 F480.000
G1 X52.272 Y-24.468 Z-6.497 F480.000
G1 X52.599 Y-24.188 Z-6.512 F480.000
G1 X52.969 Y-23.971 Z-6.528 F480.000
G1 X53.373 Y-23.822 Z-6.543 F480.000
G1 X53.796 Y-23.747 Z-6.556 F480.000
G1 X54.226 Y-23.749 Z-6.568 F480.000
G1 X54.650 Y-23.827 Z-6.578 F480.000
G1 X55.052 Y-23.978 Z-6.586 F480.000
G1 X55.422 Y-24.199 Z-6.591 F480.000
G1 X55.746 Y-24.482 Z-6.593 F480.000
G1 X67.631 Y-36.367 Z-7.000 F480.000
G1 X79.516 Y-48.252 Z-7.407 F480.000
G1 X79.794 Y-48.570 Z-7.414 F480.000
G1 X80.013 Y-48.931 Z-7.423 F480.000
G1 X80.165 Y-49.325 Z-7.433 F480.000
G1 X80.246 Y-49.740 Z-7.444 F480.000
G1 X80.254 Y-50.162 Z-7.456 F480.000
G1 X80.189 Y-50.579 Z-7.468 F480.000
G1 X80.052 Y-50.978 Z-7.481 F480.000
G1 X79.847 Y-51.348 Z-7.493 F480.000
G1 X79.581 Y-51.676 Z-7.504 F480.000
G1 X79.263 Y-51.953 Z-7.514 F480.000
G1 X78.901 Y-52.170 Z-7.523 F480.000
G1 X78.506 Y-52.322 Z-7.530 F480.000
G1 X78.078 Y-52.401 Z-7.540 F480.000
G1 X77.642 Y-52.403 Z-7.550 F480.000
G1 X77.213 Y-52.328 Z-7.561 F480.000
G1 X76.804 Y-52.177 Z-7.572 F480.000
G1 X76.429 Y-51.956 Z-7.583 F480.000
G1 X76.098 Y-51.672 Z-7.593 F480.000
G1 X52.327 Y-27.900 Z-8.407 F480.000
G1 X52.085 Y-27.624 Z-8.416 F480.000
G1 X51.855 Y-27.260 Z-8.418 F480.000
G1 X51.693 Y-26.862 Z-8.423 F480.000
G1 X51.604 Y-26.441 Z-8.431 F480.000
G1 X51.591 Y-26.011 Z-8.441 F480.000
G1 X51.655 Y-25.585 Z-8.453 F480.000
G1 X51.793 Y-25.178 Z-8.466 F480.000
G1 X52.001 Y-24.802 Z-8.481 F480.000
G1 X52.272 Y-24.468 Z-8.497 F480.000
G1 X52.599 Y-24.188 Z-8.512 F480.000
G1 X52.969 Y-23.971 Z-8.528 F480.000
G1 X53.373 Y-23.822 Z-8.543 F480.000
G1 X53.796 Y-23.747 Z-8.556 F480.000
G1 X54.226 Y-23.749 Z-8.568 F480.000
G1 X54.650 Y-23.827 Z-8.578 F480.000
G1 X55.052 Y-23.978 Z-8.586 F480.000
G1 X55.422 Y-24.199 Z-8.591 F480.000
G1 X55.746 Y-24.482 Z-8.593 F480.000
G1 X67.631 Y-36.367 Z-9.000 F480.000
G1 X79.516 Y-48.252 Z-9.203 F480.000
G1 X79.794 Y-48.570 Z-9.207 F480.000
G1 X80.013 Y-48.931 Z-9.211 F480.000
G1 X80.165 Y-49.325 Z-9.216 F480.000
G1 X80.246 Y-49.740 Z-9.222 F480.000
G1 X80.254 Y-50.162 Z-9.228 F480.000
G1 X80.189 Y-50.579 Z-9.234 F480.000
G1 X80.052 Y-50.978 Z-9.240 F480.000
G1 X79.847 Y-51.348 Z-9.246 F480.000
G1 X79.581 Y-51.676 Z-9.252 F480.000
G1 X79.263 Y-51.953 Z-9.257 F480.000
G1 X78.901 Y-52.170 Z-9.261 F480.000
G1 X78.506 Y-52.322 Z-9.265 F480.000
G1 X78.078 Y-52.401 Z-9.270 F480.000
G1 X77.642 Y-52.403 Z-9.275 F480.000
G1 X77.213 Y-52.328 Z-9.281 F480.000
G1 X76.804 Y-52.177 Z-9.286 F480.000
G1 X76.428 Y-51.956 Z-9.292 F480.000
G1 X76.098 Y-51.672 Z-9.297 F480.000
G1 X52.327 Y-27.900 Z-9.703 F480.000
G1 X52.085 Y-27.624 Z-9.708 F480.000
G1 X51.855 Y-27.260 Z-9.709 F480.000
G1 X51.693 Y-26.862 Z-9.712 F480.000
G1 X51.604 Y-26.441 Z-9.715 F480.000
G1 X51.591 Y-26.011 Z-9.720 F480.000
G1 X51.655 Y-25.586 Z-9.726 F480.000
G1 X51.793 Y-25.178 Z-9.733 F480.000
G1 X52.001 Y-24.802 Z-9.741 F480.000
G1 X52.272 Y-24.468 Z-9.748 F480.000
G1 X52.599 Y-24.188 Z-9.756 F480.000
G1 X52.969 Y-23.970 Z-9.764 F480.000
G1 X53.373 Y-23.822 Z-9.771 F480.000
G1 X53.797 Y-23.747 Z-9.778 F480.000
G1 X54.227 Y-23.749 Z-9.784 F480.000
G1 X54.650 Y-23.827 Z-9.789 F480.000
G1 X55.052 Y-23.978 Z-9.793 F480.000
G1 X55.422 Y-24.199 Z-9.795 F480.000
G1 X55.746 Y-24.482 Z-9.797 F480.000
G1 X67.631 Y-36.367 Z-10.000 F480.000
G1 X79.516 Y-48.252 Z-10.000 F480.000
G2 X78.506 Y-52.322 Z-10.000 I-1.675 J-1.745 K0.000 F480.000
G2 X76.098 Y-51.672 Z-10.000 I-0.658 J2.347 K0.000 F480.000
G1 X52.327 Y-27.900 Z-10.000 F480.000
G1 X52.085 Y-27.624 Z-10.000 F480.000
G2 X55.746 Y-24.482 Z-10.000 I1.918 J1.469 K0.000 F480.000
G1 X67.631 Y-36.367 Z-10.000 F480.000
G0 X67.631 Y-36.367 Z6.000
(Finish operation: RampEntryDressup023)
(Begin operation: RampEntryDressup024)
(Path: RampEntryDressup024)
G0 X0.000 Y0.000 Z6.000
G0 X58.439 Y-45.559 Z6.000
G0 X58.439 Y-45.559 Z4.000
G1 X61.132 Y-48.252 Z3.378 F480.000
G1 X61.363 Y-48.512 Z3.322 F480.000
G1 X61.556 Y-48.801 Z3.264 F480.000
G1 X61.706 Y-49.115 Z3.207 F480.000
G1 X61.810 Y-49.447 Z3.151 F480.000
G1 X61.865 Y-49.867 Z3.117 F480.000
G1 X61.849 Y-50.289 Z3.069 F480.000
G1 X61.762 Y-50.700 Z3.009 F480.000
G1 X61.608 Y-51.089 Z2.938 F480.000
G1 X61.389 Y-51.445 Z2.858 F480.000
G1 X61.114 Y-51.757 Z2.772 F480.000
G1 X60.789 Y-52.015 Z2.682 F480.000
G1 X60.425 Y-52.213 Z2.590 F480.000
G1 X60.031 Y-52.345 Z2.500 F480.000
G1 X59.620 Y-52.406 Z2.414 F480.000
G1 X59.203 Y-52.396 Z2.334 F480.000
G1 X58.792 Y-52.314 Z2.263 F480.000
G1 X58.400 Y-52.163 Z2.203 F480.000
G1 X58.037 Y-51.947 Z2.155 F480.000
G1 X57.715 Y-51.673 Z2.122 F480.000
G1 X52.329 Y-46.287 Z0.878 F480.000
G1 X52.077 Y-45.998 Z0.815 F480.000
G1 X51.855 Y-45.624 Z0.797 F480.000
G1 X51.700 Y-45.220 Z0.761 F480.000
G1 X51.616 Y-44.796 Z0.709 F480.000
G1 X51.607 Y-44.367 Z0.642 F480.000
G1 X51.672 Y-43.945 Z0.562 F480.000
G1 X51.809 Y-43.542 Z0.472 F480.000
G1 X52.014 Y-43.172 Z0.373 F480.000
G1 X52.281 Y-42.845 Z0.271 F480.000
G1 X52.602 Y-42.571 Z0.166 F480.000
G1 X52.967 Y-42.359 Z0.063 F480.000
G1 X53.366 Y-42.215 Z-0.035 F480.000
G1 X53.785 Y-42.143 Z-0.125 F480.000
G1 X54.212 Y-42.146 Z-0.205 F480.000
G1 X54.634 Y-42.223 Z-0.272 F480.000
G1 X55.039 Y-42.373 Z-0.325 F480.000
G1 X55.414 Y-42.590 Z-0.360 F480.000
G1 X55.748 Y-42.868 Z-0.378 F480.000
G1 X58.439 Y-45.559 Z-1.000 F480.000
G1 X61.132 Y-48.252 Z-1.249 F480.000
G1 X61.363 Y-48.512 Z-1.271 F480.000
G1 X61.556 Y-48.801 Z-1.294 F480.000
G1 X61.706 Y-49.115 Z-1.317 F480.000
G1 X61.810 Y-49.447 Z-1.340 F480.000
G1 X61.870 Y-49.863 Z-1.353 F480.000
G1 X61.856 Y-50.283 Z-1.371 F480.000
G1 X61.771 Y-50.694 Z-1.395 F480.000
G1 X61.616 Y-51.083 Z-1.424 F480.000
G1 X61.396 Y-51.440 Z-1.456 F480.000
G1 X61.119 Y-51.754 Z-1.491 F480.000
G1 X60.791 Y-52.014 Z-1.527 F480.000
G1 X60.423 Y-52.214 Z-1.564 F480.000
G1 X60.026 Y-52.347 Z-1.600 F480.000
G1 X59.612 Y-52.410 Z-1.635 F480.000
G1 X59.193 Y-52.400 Z-1.667 F480.000
G1 X58.782 Y-52.318 Z-1.696 F480.000
G1 X58.391 Y-52.166 Z-1.720 F480.000
G1 X58.032 Y-51.949 Z-1.738 F480.000
G1 X57.715 Y-51.673 Z-1.751 F480.000
G1 X52.329 Y-46.287 Z-2.249 F480.000
G1 X52.077 Y-45.998 Z-2.274 F480.000
G1 X51.850 Y-45.632 Z-2.280 F480.000
G1 X51.691 Y-45.232 Z-2.294 F480.000
G1 X51.605 Y-44.811 Z-2.315 F480.000
G1 X51.594 Y-44.382 Z-2.341 F480.000
G1 X51.660 Y-43.958 Z-2.373 F480.000
G1 X51.799 Y-43.552 Z-2.410 F480.000
G1 X52.007 Y-43.178 Z-2.450 F480.000
G1 X52.279 Y-42.847 Z-2.491 F480.000
G1 X52.605 Y-42.569 Z-2.534 F480.000
G1 X52.975 Y-42.354 Z-2.576 F480.000
G1 X53.377 Y-42.207 Z-2.615 F480.000
G1 X53.800 Y-42.134 Z-2.652 F480.000
G1 X54.229 Y-42.136 Z-2.684 F480.000
G1 X54.651 Y-42.214 Z-2.711 F480.000
G1 X55.053 Y-42.366 Z-2.731 F480.000
G1 X55.423 Y-42.586 Z-2.745 F480.000
G1 X55.748 Y-42.868 Z-2.751 F480.000
G1 X58.439 Y-45.559 Z-3.000 F480.000
G1 X61.132 Y-48.252 Z-3.249 F480.000
G1 X61.363 Y-48.512 Z-3.271 F480.000
G1 X61.556 Y-48.801 Z-3.294 F480.000
G1 X61.706 Y-49.115 Z-3.317 F480.000
G1 X61.810 Y-49.447 Z-3.340 F480.000
G1 X61.870 Y-49.863 Z-3.353 F480.000
G1 X61.856 Y-50.283 Z-3.371 F480.000
G1 X61.771 Y-50.694 Z-3.395 F480.000
G1 X61.616 Y-51.083 Z-3.424 F480.000
G1 X61.396 Y-51.440 Z-3.456 F480.000
G1 X61.119 Y-51.754 Z-3.491 F480.000
G1 X60.791 Y-52.014 Z-3.527 F480.000
G1 X60.423 Y-52.214 Z-3.564 F480.000
G1 X60.026 Y-52.347 Z-3.600 F480.000
G1 X59.612 Y-52.410 Z-3.635 F480.000
G1 X59.193 Y-52.400 Z-3.667 F480.000
G1 X58.782 Y-52.318 Z-3.696 F480.000
G1 X58.391 Y-52.166 Z-3.720 F480.000
G1 X58.032 Y-51.949 Z-3.738 F480.000
G1 X57.715 Y-51.673 Z-3.751 F480.000
G1 X52.329 Y-46.287 Z-4.249 F480.000
G1 X52.077 Y-45.998 Z-4.274 F480.000
G1 X51.850 Y-45.632 Z-4.280 F480.000
G1 X51.691 Y-45.232 Z-4.294 F480.000
G1 X51.605 Y-44.811 Z-4.315 F480.000
G1 X51.594 Y-44.382 Z-4.341 F480.000
G1 X51.660 Y-43.958 Z-4.373 F480.000
G1 X51.799 Y-43.552 Z-4.410 F480.000
G1 X52.007 Y-43.178 Z-4.450 F480.000
G1 X52.279 Y-42.847 Z-4.491 F480.000
G1 X52.605 Y-42.569 Z-4.534 F480.000
G1 X52.975 Y-42.354 Z-4.576 F480.000
G1 X53.377 Y-42.207 Z-4.615 F480.000
G1 X53.800 Y-42.134 Z-4.652 F480.000
G1 X54.229 Y-42.136 Z-4.684 F480.000
G1 X54.651 Y-42.214 Z-4.711 F480.000
G1 X55.053 Y-42.366 Z-4.731 F480.000
G1 X55.423 Y-42.586 Z-4.745 F480.000
G1 X55.748 Y-42.868 Z-4.751 F480.000
G1 X58.439 Y-45.559 Z-5.000 F480.000
G1 X61.132 Y-48.252 Z-5.249 F480.000
G1 X61.363 Y-48.512 Z-5.271 F480.000
G1 X61.556 Y-48.801 Z-5.294 F480.000
G1 X61.706 Y-49.115 Z-5.317 F480.000
G1 X61.810 Y-49.447 Z-5.340 F480.000
G1 X61.870 Y-49.863 Z-5.353 F480.000
G1 X61.856 Y-50.283 Z-5.371 F480.000
G1 X61.771 Y-50.694 Z-5.395 F480.000
G1 X61.616 Y-51.083 Z-5.424 F480.000
G1 X61.396 Y-51.440 Z-5.456 F480.000
G1 X61.119 Y-51.754 Z-5.491 F480.000
G1 X60.791 Y-52.014 Z-5.527 F480.000
G1 X60.423 Y-52.214 Z-5.564 F480.000
G1 X60.026 Y-52.347 Z-5.600 F480.000
G1 X59.612 Y-52.410 Z-5.635 F480.000
G1 X59.193 Y-52.400 Z-5.667 F480.000
G1 X58.782 Y-52.318 Z-5.696 F480.000
G1 X58.391 Y-52.166 Z-5.720 F480.000
G1 X58.032 Y-51.949 Z-5.738 F480.000
G1 X57.715 Y-51.673 Z-5.751 F480.000
G1 X52.329 Y-46.287 Z-6.249 F480.000
G1 X52.077 Y-45.998 Z-6.274 F480.000
G1 X51.850 Y-45.632 Z-6.280 F480.000
G1 X51.691 Y-45.232 Z-6.294 F480.000
G1 X51.605 Y-44.811 Z-6.315 F480.000
G1 X51.594 Y-44.382 Z-6.341 F480.000
G1 X51.660 Y-43.958 Z-6.373 F480.000
G1 X51.799 Y-43.552 Z-6.410 F480.000
G1 X52.007 Y-43.178 Z-6.450 F480.000
G1 X52.279 Y-42.847 Z-6.491 F480.000
G1 X52.605 Y-42.569 Z-6.534 F480.000
G1 X52.975 Y-42.354 Z-6.576 F480.000
G1 X53.377 Y-42.207 Z-6.615 F480.000
G1 X53.800 Y-42.134 Z-6.652 F480.000
G1 X54.229 Y-42.136 Z-6.684 F480.000
G1 X54.651 Y-42.214 Z-6.711 F480.000
G1 X55.053 Y-42.366 Z-6.731 F480.000
G1 X55.423 Y-42.586 Z-6.745 F480.000
G1 X55.748 Y-42.868 Z-6.751 F480.000
G1 X58.439 Y-45.559 Z-7.000 F480.000
G1 X61.132 Y-48.252 Z-7.249 F480.000
G1 X61.363 Y-48.512 Z-7.271 F480.000
G1 X61.556 Y-48.801 Z-7.294 F480.000
G1 X61.706 Y-49.115 Z-7.317 F480.000
G1 X61.810 Y-49.447 Z-7.340 F480.000
G1 X61.870 Y-49.863 Z-7.353 F480.000
G1 X61.856 Y-50.283 Z-7.371 F480.000
G1 X61.771 Y-50.694 Z-7.395 F480.000
G1 X61.616 Y-51.083 Z-7.424 F480.000
G1 X61.396 Y-51.440 Z-7.456 F480.000
G1 X61.119 Y-51.754 Z-7.491 F480.000
G1 X60.791 Y-52.014 Z-7.527 F480.000
G1 X60.423 Y-52.214 Z-7.564 F480.000
G1 X60.026 Y-52.347 Z-7.600 F480.000
G1 X59.612 Y-52.410 Z-7.635 F480.000
G1 X59.193 Y-52.400 Z-7.667 F480.000
G1 X58.782 Y-52.318 Z-7.696 F480.000
G1 X58.391 Y-52.166 Z-7.720 F480.000
G1 X58.032 Y-51.949 Z-7.738 F480.000
G1 X57.715 Y-51.673 Z-7.751 F480.000
G1 X52.329 Y-46.287 Z-8.249 F480.000
G1 X52.077 Y-45.998 Z-8.274 F480.000
G1 X51.850 Y-45.632 Z-8.280 F480.000
G1 X51.691 Y-45.232 Z-8.294 F480.000
G1 X51.605 Y-44.811 Z-8.315 F480.000
G1 X51.594 Y-44.382 Z-8.341 F480.000
G1 X51.660 Y-43.958 Z-8.373 F480.000
G1 X51.799 Y-43.552 Z-8.410 F480.000
G1 X52.007 Y-43.178 Z-8.450 F480.000
G1 X52.279 Y-42.847 Z-8.491 F480.000
G1 X52.605 Y-42.569 Z-8.534 F480.000
G1 X52.975 Y-42.354 Z-8.576 F480.000
G1 X53.377 Y-42.207 Z-8.615 F480.000
G1 X53.800 Y-42.134 Z-8.652 F480.000
G1 X54.229 Y-42.136 Z-8.684 F480.000
G1 X54.651 Y-42.214 Z-8.711 F480.000
G1 X55.053 Y-42.366 Z-8.731 F480.000
G1 X55.423 Y-42.586 Z-8.745 F480.000
G1 X55.748 Y-42.868 Z-8.751 F480.000
G1 X58.439 Y-45.559 Z-9.000 F480.000
G1 X61.132 Y-48.252 Z-9.124 F480.000
G1 X61.363 Y-48.512 Z-9.136 F480.000
G1 X61.556 Y-48.801 Z-9.147 F480.000
G1 X61.706 Y-49.115 Z-9.159 F480.000
G1 X61.810 Y-49.447 Z-9.170 F480.000
G1 X61.870 Y-49.863 Z-9.176 F480.000
G1 X61.857 Y-50.282 Z-9.186 F480.000
G1 X61.772 Y-50.693 Z-9.198 F480.000
G1 X61.617 Y-51.082 Z-9.212 F480.000
G1 X61.397 Y-51.439 Z-9.228 F480.000
G1 X61.119 Y-51.753 Z-9.245 F480.000
G1 X60.791 Y-52.014 Z-9.264 F480.000
G1 X60.423 Y-52.214 Z-9.282 F480.000
G1 X60.025 Y-52.348 Z-9.300 F480.000
G1 X59.611 Y-52.410 Z-9.318 F480.000
G1 X59.192 Y-52.400 Z-9.334 F480.000
G1 X58.781 Y-52.318 Z-9.348 F480.000
G1 X58.390 Y-52.166 Z-9.360 F480.000
G1 X58.031 Y-51.949 Z-9.369 F480.000
G1 X57.715 Y-51.673 Z-9.376 F480.000
G1 X52.329 Y-46.287 Z-9.624 F480.000
G1 X52.077 Y-45.998 Z-9.637 F480.000
G1 X51.849 Y-45.633 Z-9.640 F480.000
G1 X51.690 Y-45.234 Z-9.647 F480.000
G1 X51.603 Y-44.814 Z-9.657 F480.000
G1 X51.593 Y-44.384 Z-9.671 F480.000
G1 X51.658 Y-43.960 Z-9.687 F480.000
G1 X51.797 Y-43.554 Z-9.705 F480.000
G1 X52.006 Y-43.179 Z-9.725 F480.000
G1 X52.279 Y-42.847 Z-9.746 F480.000
G1 X52.605 Y-42.569 Z-9.767 F480.000
G1 X52.976 Y-42.353 Z-9.788 F480.000
G1 X53.379 Y-42.206 Z-9.808 F480.000
G1 X53.802 Y-42.132 Z-9.826 F480.000
G1 X54.231 Y-42.135 Z-9.842 F480.000
G1 X54.653 Y-42.213 Z-9.856 F480.000
G1 X55.055 Y-42.365 Z-9.866 F480.000
G1 X55.424 Y-42.586 Z-9.873 F480.000
G1 X55.748 Y-42.868 Z-9.876 F480.000
G1 X58.439 Y-45.559 Z-10.000 F480.000
G1 X61.132 Y-48.252 Z-10.000 F480.000
G2 X61.810 Y-49.447 Z-10.000 I-1.720 J-1.767 K0.000 F480.000
G2 X57.715 Y-51.673 Z-10.000 I-2.353 J-0.551 K0.000 F480.000
G1 X52.329 Y-46.287 Z-10.000 F480.000
G1 X52.077 Y-45.998 Z-10.000 F480.000
G2 X55.748 Y-42.868 Z-10.000 I1.926 J1.458 K0.000 F480.000
G1 X58.439 Y-45.559 Z-10.000 F480.000
G0 X58.439 Y-45.559 Z6.000
(Finish operation: RampEntryDressup024)
(Begin operation: DressupTag002)
(Path: DressupTag002)
G0 Z6.000
G0 X221.119 Y1.119 Z6.000
G0 X221.119 Y1.119 Z4.000
G1 X220.879 Y1.316 Z3.997 F479.013
G1 X220.606 Y1.462 Z3.995 F478.973
G1 X220.309 Y1.552 Z3.992 F478.973
G1 X220.000 Y1.582 Z3.989 F479.013
G1 X-0.000 Y1.582 Z2.059 F478.995
G1 X-0.352 Y1.543 Z2.056 F479.127
G1 X-0.687 Y1.426 Z2.053 F478.994
G1 X-0.987 Y1.237 Z2.050 F478.911
G1 X-1.237 Y0.987 Z2.046 F478.883
G1 X-1.426 Y0.687 Z2.043 F478.911
G1 X-1.543 Y0.352 Z2.040 F478.994
G1 X-1.583 Y-0.000 Z2.037 F479.127
G1 X-1.582 Y-60.000 Z1.511 F478.995
G1 X-1.543 Y-60.352 Z1.508 F479.127
G1 X-1.426 Y-60.687 Z1.505 F478.994
G1 X-1.237 Y-60.987 Z1.502 F478.911
G1 X-0.987 Y-61.237 Z1.498 F478.883
G1 X-0.687 Y-61.426 Z1.495 F478.911
G1 X-0.352 Y-61.543 Z1.492 F478.994
G1 X0.000 Y-61.582 Z1.489 F479.127
G1 X220.000 Y-61.583 Z-0.441 F478.995
G1 X220.352 Y-61.543 Z-0.444 F479.127
G1 X220.687 Y-61.426 Z-0.447 F478.994
G1 X220.987 Y-61.237 Z-0.450 F478.911
G1 X221.237 Y-60.987 Z-0.454 F478.883
G1 X221.426 Y-60.687 Z-0.457 F478.911
G1 X221.543 Y-60.352 Z-0.460 F478.994
G1 X221.582 Y-60.000 Z-0.463 F479.127
G1 X221.582 Y-0.000 Z-0.989 F478.995
G1 X221.552 Y0.309 Z-0.992 F479.013
G1 X221.462 Y0.606 Z-0.995 F478.973
G1 X221.316 Y0.879 Z-0.997 F478.973
G1 X221.119 Y1.119 Z-1.000 F479.013
G1 X220.879 Y1.316 Z-1.001 F479.605
G1 X220.606 Y1.462 Z-1.002 F479.589
G1 X220.309 Y1.552 Z-1.003 F479.589
G1 X220.000 Y1.582 Z-1.004 F479.605
G1 X-0.000 Y1.582 Z-1.776 F479.598
G1 X-0.352 Y1.543 Z-1.777 F479.651
G1 X-0.687 Y1.426 Z-1.779 F479.598
G1 X-0.987 Y1.237 Z-1.780 F479.565
G1 X-1.237 Y0.987 Z-1.781 F479.553
G1 X-1.426 Y0.687 Z-1.783 F479.565
G1 X-1.543 Y0.352 Z-1.784 F479.598
G1 X-1.583 Y-0.000 Z-1.785 F479.651
G1 X-1.582 Y-60.000 Z-1.996 F479.598
G1 X-1.543 Y-60.352 Z-1.997 F479.651
G1 X-1.426 Y-60.687 Z-1.998 F479.598
G1 X-1.237 Y-60.987 Z-1.999 F479.565
G1 X-0.987 Y-61.237 Z-2.001 F479.553
G1 X-0.687 Y-61.426 Z-2.002 F479.565
G1 X-0.352 Y-61.543 Z-2.003 F479.598
G1 X0.000 Y-61.582 Z-2.004 F479.651
G1 X220.000 Y-61.583 Z-2.776 F479.598
G1 X220.352 Y-61.543 Z-2.777 F479.651
G1 X220.687 Y-61.426 Z-2.779 F479.598
G1 X220.987 Y-61.237 Z-2.780 F479.565
G1 X221.237 Y-60.987 Z-2.781 F479.553
G1 X221.426 Y-60.687 Z-2.783 F479.565
G1 X221.543 Y-60.352 Z-2.784 F479.598
G1 X221.582 Y-60.000 Z-2.785 F479.651
G1 X221.582 Y-0.000 Z-2.996 F479.598
G1 X221.552 Y0.309 Z-2.997 F479.605
G1 X221.462 Y0.606 Z-2.998 F479.589
G1 X221.316 Y0.879 Z-2.999 F479.589
G1 X221.119 Y1.119 Z-3.000 F479.605
G1 X220.879 Y1.316 Z-3.001 F479.605
G1 X220.606 Y1.462 Z-3.002 F479.589
G1 X220.309 Y1.552 Z-3.003 F479.589
G1 X220.000 Y1.582 Z-3.004 F479.605
G1 X-0.000 Y1.582 Z-3.776 F479.598
G1 X-0.352 Y1.543 Z-3.777 F479.651
G1 X-0.687 Y1.426 Z-3.779 F479.598
G1 X-0.987 Y1.237 Z-3.780 F479.565
G1 X-1.237 Y0.987 Z-3.781 F479.553
G1 X-1.426 Y0.687 Z-3.783 F479.565
G1 X-1.543 Y0.352 Z-3.784 F479.598
G1 X-1.583 Y-0.000 Z-3.785 F479.651
G1 X-1.582 Y-60.000 Z-3.996 F479.598
G1 X-1.543 Y-60.352 Z-3.997 F479.651
G1 X-1.426 Y-60.687 Z-3.998 F479.598
G1 X-1.237 Y-60.987 Z-3.999 F479.565
G1 X-0.987 Y-61.237 Z-4.001 F479.553
G1 X-0.687 Y-61.426 Z-4.002 F479.565
G1 X-0.352 Y-61.543 Z-4.003 F479.598
G1 X0.000 Y-61.582 Z-4.004 F479.651
G1 X220.000 Y-61.583 Z-4.776 F479.598
G1 X220.352 Y-61.543 Z-4.777 F479.651
G1 X220.687 Y-61.426 Z-4.779 F479.598
G1 X220.987 Y-61.237 Z-4.780 F479.565
G1 X221.237 Y-60.987 Z-4.781 F479.553
G1 X221.426 Y-60.687 Z-4.783 F479.565
G1 X221.543 Y-60.352 Z-4.784 F479.598
G1 X221.582 Y-60.000 Z-4.785 F479.651
G1 X221.582 Y-0.000 Z-4.996 F479.598
G1 X221.552 Y0.309 Z-4.997 F479.605
G1 X221.462 Y0.606 Z-4.998 F479.589
G1 X221.316 Y0.879 Z-4.999 F479.589
G1 X221.119 Y1.119 Z-5.000 F479.605
G1 X220.879 Y1.316 Z-5.001 F479.605
G1 X220.606 Y1.462 Z-5.002 F479.589
G1 X220.309 Y1.552 Z-5.003 F479.589
G1 X220.000 Y1.582 Z-5.004 F479.605
G1 X-0.000 Y1.582 Z-5.776 F479.598
G1 X-0.352 Y1.543 Z-5.777 F479.651
G1 X-0.687 Y1.426 Z-5.779 F479.598
G1 X-0.987 Y1.237 Z-5.780 F479.565
G1 X-1.237 Y0.987 Z-5.781 F479.553
G1 X-1.426 Y0.687 Z-5.783 F479.565
G1 X-1.543 Y0.352 Z-5.784 F479.598
G1 X-1.583 Y-0.000 Z-5.785 F479.651
G1 X-1.582 Y-60.000 Z-5.996 F479.598
G1 X-1.543 Y-60.352 Z-5.997 F479.651
G1 X-1.426 Y-60.687 Z-5.998 F479.598
G1 X-1.237 Y-60.987 Z-5.999 F479.565
G1 X-0.987 Y-61.237 Z-6.001 F479.553
G1 X-0.687 Y-61.426 Z-6.002 F479.565
G1 X-0.352 Y-61.543 Z-6.003 F479.598
G1 X0.000 Y-61.582 Z-6.004 F479.651
G1 X220.000 Y-61.583 Z-6.776 F479.598
G1 X220.352 Y-61.543 Z-6.777 F479.651
G1 X220.687 Y-61.426 Z-6.779 F479.598
G1 X220.987 Y-61.237 Z-6.780 F479.565
G1 X221.237 Y-60.987 Z-6.781 F479.553
G1 X221.426 Y-60.687 Z-6.783 F479.565
G1 X221.543 Y-60.352 Z-6.784 F479.598
G1 X221.582 Y-60.000 Z-6.785 F479.651
G1 X221.582 Y-0.000 Z-6.996 F479.598
G1 X221.552 Y0.309 Z-6.997 F479.605
G1 X221.462 Y0.606 Z-6.998 F479.589
G1 X221.316 Y0.879 Z-6.999 F479.589
G1 X221.119 Y1.119 Z-7.000 F479.605
G1 X220.879 Y1.316 Z-7.001 F479.605
G1 X220.606 Y1.462 Z-7.002 F479.589
G1 X220.309 Y1.552 Z-7.003 F479.589
G1 X220.000 Y1.582 Z-7.004 F479.605
G1 X-0.000 Y1.582 Z-7.776 F479.598
G1 X-0.352 Y1.543 Z-7.777 F479.651
G1 X-0.687 Y1.426 Z-7.779 F479.598
G1 X-0.987 Y1.237 Z-7.780 F479.565
G1 X-1.237 Y0.987 Z-7.781 F479.553
G1 X-1.426 Y0.687 Z-7.783 F479.565
G1 X-1.543 Y0.352 Z-7.784 F479.598
G1 X-1.583 Y-0.000 Z-7.785 F479.651
G1 X-1.582 Y-60.000 Z-7.996 F479.598
G1 X-1.543 Y-60.352 Z-7.997 F479.651
G1 X-1.426 Y-60.687 Z-7.998 F479.598
G1 X-1.237 Y-60.987 Z-7.999 F479.565
G1 X-0.987 Y-61.237 Z-8.001 F479.553
G1 X-0.687 Y-61.426 Z-8.002 F479.565
G1 X-0.352 Y-61.543 Z-8.003 F479.598
G1 X0.000 Y-61.582 Z-8.004 F479.651
G1 X52.748 Y-61.582 Z-8.189 F479.598
G1 X52.938 Y-61.582 Z-8.000 F390.000
G1 X57.063 Y-61.582 Z-8.000 F480.000
G1 X57.268 Y-61.582 Z-8.205 F390.000
G1 X162.363 Y-61.582 Z-8.574 F479.598
G1 X162.938 Y-61.582 Z-8.000 F390.000
G1 X167.063 Y-61.582 Z-8.000 F480.000
G1 X167.655 Y-61.582 Z-8.593 F390.000
G1 X220.000 Y-61.583 Z-8.776 F479.598
G1 X220.352 Y-61.543 Z-8.777 F479.651
G1 X220.687 Y-61.426 Z-8.779 F479.598
G1 X220.987 Y-61.237 Z-8.780 F479.565
G1 X221.237 Y-60.987 Z-8.781 F479.553
G1 X221.426 Y-60.687 Z-8.783 F479.565
G1 X221.543 Y-60.352 Z-8.784 F479.598
G1 X221.582 Y-60.000 Z-8.785 F479.651
G1 X221.582 Y-0.000 Z-8.996 F479.598
G1 X221.552 Y0.309 Z-8.997 F479.605
G1 X221.462 Y0.606 Z-8.998 F479.589
G1 X221.316 Y0.879 Z-8.999 F479.589
G1 X221.119 Y1.119 Z-9.000 F479.605
G1 X220.879 Y1.316 Z-9.001 F479.803
G1 X220.606 Y1.462 Z-9.001 F479.795
G1 X220.309 Y1.552 Z-9.002 F479.795
G1 X220.000 Y1.582 Z-9.002 F479.803
G1 X168.156 Y1.582 Z-9.093 F479.799
G1 X167.062 Y1.582 Z-8.000 F390.000
G1 X162.937 Y1.582 Z-8.000 F480.000
G1 X161.833 Y1.582 Z-9.104 F390.000
G1 X58.348 Y1.582 Z-9.286 F479.799
G1 X57.062 Y1.582 Z-8.000 F390.000
G1 X52.937 Y1.582 Z-8.000 F480.000
G1 X51.640 Y1.582 Z-9.298 F390.000
G1 X-0.000 Y1.582 Z-9.388 F479.799
G1 X-0.352 Y1.543 Z-9.389 F479.825
G1 X-0.687 Y1.426 Z-9.389 F479.799
G1 X-0.987 Y1.237 Z-9.390 F479.782
G1 X-1.237 Y0.987 Z-9.391 F479.777
G1 X-1.426 Y0.687 Z-9.391 F479.782
G1 X-1.543 Y0.352 Z-9.392 F479.799
G1 X-1.583 Y-0.000 Z-9.393 F479.825
G1 X-1.582 Y-60.000 Z-9.498 F479.799
G1 X-1.543 Y-60.352 Z-9.498 F479.825
G1 X-1.426 Y-60.687 Z-9.499 F479.799
G1 X-1.237 Y-60.987 Z-9.500 F479.782
G1 X-0.987 Y-61.237 Z-9.500 F479.777
G1 X-0.687 Y-61.426 Z-9.501 F479.782
G1 X-0.352 Y-61.543 Z-9.502 F479.799
G1 X0.000 Y-61.582 Z-9.502 F479.825
G1 X51.345 Y-61.582 Z-9.592 F479.799
G1 X52.938 Y-61.582 Z-8.000 F390.000
G1 X57.063 Y-61.582 Z-8.000 F480.000
G1 X58.668 Y-61.582 Z-9.605 F390.000
G1 X161.153 Y-61.582 Z-9.785 F479.799
G1 X162.938 Y-61.582 Z-8.000 F390.000
G1 X167.063 Y-61.582 Z-8.000 F480.000
G1 X168.861 Y-61.582 Z-9.798 F390.000
G1 X220.000 Y-61.583 Z-9.888 F479.799
G1 X220.352 Y-61.543 Z-9.889 F479.825
G1 X220.687 Y-61.426 Z-9.889 F479.799
G1 X220.987 Y-61.237 Z-9.890 F479.782
G1 X221.237 Y-60.987 Z-9.891 F479.777
G1 X221.426 Y-60.687 Z-9.891 F479.782
G1 X221.543 Y-60.352 Z-9.892 F479.799
G1 X221.582 Y-60.000 Z-9.893 F479.825
G1 X221.582 Y-0.000 Z-9.998 F479.799
G1 X221.552 Y0.309 Z-9.998 F479.803
G1 X221.462 Y0.606 Z-9.999 F479.795
G1 X221.316 Y0.879 Z-9.999 F479.795
G1 X221.119 Y1.119 Z-10.000 F479.803
G3 X220.000 Y1.582 Z-10.000 I-1.119 J-1.119 K0.000 F480.000
G1 X169.062 Y1.582 Z-10.000 F480.000
G1 X167.062 Y1.582 Z-8.000 F390.000
G1 X162.937 Y1.582 Z-8.000 F480.000
G1 X160.937 Y1.582 Z-10.000 F390.000
G1 X59.062 Y1.582 Z-10.000 F480.000
G1 X57.062 Y1.582 Z-8.000 F390.000
G1 X52.937 Y1.582 Z-8.000 F480.000
G1 X50.937 Y1.582 Z-10.000 F390.000
G1 X-0.000 Y1.582 Z-10.000 F480.000
G3 X-1.583 Y-0.000 Z-10.000 I0.000 J-1.583 K0.000 F480.000
G1 X-1.582 Y-60.000 Z-10.000 F480.000
G3 X0.000 Y-61.582 Z-10.000 I1.583 J0.000 K0.000 F480.000
G1 X50.938 Y-61.582 Z-10.000 F480.000
G1 X52.938 Y-61.582 Z-8.000 F390.000
G1 X57.063 Y-61.582 Z-8.000 F480.000
G1 X59.063 Y-61.582 Z-10.000 F390.000
G1 X160.938 Y-61.582 Z-10.000 F480.000
G1 X162.938 Y-61.582 Z-8.000 F390.000
G1 X167.063 Y-61.582 Z-8.000 F480.000
G1 X169.063 Y-61.582 Z-10.000 F390.000
G1 X220.000 Y-61.583 Z-10.000 F480.000
G3 X221.582 Y-60.000 Z-10.000 I-0.000 J1.583 K0.000 F480.000
G1 X221.582 Y-0.000 Z-10.000 F480.000
G3 X221.119 Y1.119 Z-10.000 I-1.583 J-0.000 K0.000 F480.000
G0 X221.119 Y1.119 Z6.000
(Finish operation: DressupTag002)
(Begin postamble)
M5
G17 G90
M2
