(Exported by FreeCAD)
(Post Processor: grbl_post)
(Output Time:2022-05-28 11:53:59.721396)
(Begin preamble)
G17 G90
G21
(Begin operation: Fixture)
(Path: Fixture)
G54
(Finish operation: Fixture)
(Begin operation: TC: endmill_FC1D320)
(Path: TC: endmill_FC1D320)
(TC: endmill_FC1D320)
(Begin toolchange)
( M6 T1.0 )
M3 S10000.0
(Finish operation: TC: endmill_FC1D320)
(Begin operation: RampEntryDressup026)
(Path: RampEntryDressup026)
G0 X0.000 Y0.000 Z6.000
G0 X162.113 Y-26.387 Z6.000
G0 X162.113 Y-26.387 Z4.000
G1 X162.158 Y-26.486 Z3.480 F480.000
G1 X162.140 Y-26.573 Z2.957 F480.000
G1 X162.061 Y-26.648 Z2.437 F480.000
G1 X161.943 Y-26.628 Z1.943 F480.000
G1 X161.871 Y-26.589 Z1.440 F480.000
G1 X161.846 Y-26.529 Z0.935 F480.000
G1 X161.869 Y-26.450 Z0.432 F480.000
G1 X161.939 Y-26.352 Z-0.063 F480.000
G1 X162.031 Y-26.343 Z-0.531 F480.000
G1 X162.113 Y-26.387 Z-1.000 F480.000
G1 X162.158 Y-26.485 Z-1.206 F480.000
G1 X162.140 Y-26.574 Z-1.419 F480.000
G1 X162.061 Y-26.648 Z-1.625 F480.000
G1 X161.945 Y-26.631 Z-1.813 F480.000
G1 X161.871 Y-26.590 Z-2.019 F480.000
G1 X161.845 Y-26.527 Z-2.231 F480.000
G1 X161.868 Y-26.447 Z-2.437 F480.000
G1 X161.939 Y-26.352 Z-2.625 F480.000
G1 X162.031 Y-26.343 Z-2.813 F480.000
G1 X162.113 Y-26.387 Z-3.000 F480.000
G1 X162.158 Y-26.485 Z-3.206 F480.000
G1 X162.140 Y-26.574 Z-3.419 F480.000
G1 X162.061 Y-26.648 Z-3.625 F480.000
G1 X161.945 Y-26.631 Z-3.813 F480.000
G1 X161.871 Y-26.590 Z-4.019 F480.000
G1 X161.845 Y-26.527 Z-4.231 F480.000
G1 X161.868 Y-26.447 Z-4.437 F480.000
G1 X161.939 Y-26.352 Z-4.625 F480.000
G1 X162.031 Y-26.343 Z-4.813 F480.000
G1 X162.113 Y-26.387 Z-5.000 F480.000
G1 X162.158 Y-26.485 Z-5.206 F480.000
G1 X162.140 Y-26.574 Z-5.419 F480.000
G1 X162.061 Y-26.648 Z-5.625 F480.000
G1 X161.945 Y-26.631 Z-5.813 F480.000
G1 X161.871 Y-26.590 Z-6.019 F480.000
G1 X161.845 Y-26.527 Z-6.231 F480.000
G1 X161.868 Y-26.447 Z-6.437 F480.000
G1 X161.939 Y-26.352 Z-6.625 F480.000
G1 X162.031 Y-26.343 Z-6.813 F480.000
G1 X162.113 Y-26.387 Z-7.000 F480.000
G1 X162.158 Y-26.485 Z-7.206 F480.000
G1 X162.140 Y-26.574 Z-7.419 F480.000
G1 X162.061 Y-26.648 Z-7.625 F480.000
G1 X161.945 Y-26.631 Z-7.813 F480.000
G1 X161.871 Y-26.590 Z-8.019 F480.000
G1 X161.845 Y-26.527 Z-8.231 F480.000
G1 X161.868 Y-26.447 Z-8.437 F480.000
G1 X161.939 Y-26.352 Z-8.625 F480.000
G1 X162.031 Y-26.343 Z-8.813 F480.000
G1 X162.113 Y-26.387 Z-9.000 F480.000
G1 X162.158 Y-26.483 Z-9.101 F480.000
G1 X162.140 Y-26.576 Z-9.212 F480.000
G1 X162.061 Y-26.648 Z-9.312 F480.000
G1 X161.949 Y-26.637 Z-9.395 F480.000
G1 X161.873 Y-26.593 Z-9.504 F480.000
G1 X161.844 Y-26.524 Z-9.621 F480.000
G1 X161.867 Y-26.439 Z-9.730 F480.000
G1 X161.939 Y-26.352 Z-9.812 F480.000
G1 X162.031 Y-26.343 Z-9.906 F480.000
G1 X162.113 Y-26.387 Z-10.000 F480.000
G2 X162.061 Y-26.648 Z-10.000 I-0.113 J-0.113 K0.000 F480.000
G2 X161.939 Y-26.352 Z-10.000 I-0.061 J0.148 K0.000 F480.000
G2 X162.113 Y-26.387 Z-10.000 I0.061 J-0.148 K0.000 F480.000
G0 X162.113 Y-26.387 Z6.000
(Finish operation: RampEntryDressup026)
(Begin operation: RampEntryDressup027)
(Path: RampEntryDressup027)
G0 X0.000 Y0.000 Z6.000
G0 X136.613 Y-14.887 Z6.000
G0 X136.613 Y-14.887 Z4.000
G1 X136.658 Y-14.986 Z3.480 F480.000
G1 X136.640 Y-15.073 Z2.957 F480.000
G1 X136.561 Y-15.148 Z2.437 F480.000
G1 X136.443 Y-15.128 Z1.943 F480.000
G1 X136.371 Y-15.089 Z1.440 F480.000
G1 X136.346 Y-15.029 Z0.935 F480.000
G1 X136.369 Y-14.950 Z0.432 F480.000
G1 X136.439 Y-14.852 Z-0.063 F480.000
G1 X136.531 Y-14.843 Z-0.531 F480.000
G1 X136.613 Y-14.887 Z-1.000 F480.000
G1 X136.658 Y-14.985 Z-1.206 F480.000
G1 X136.640 Y-15.074 Z-1.419 F480.000
G1 X136.561 Y-15.148 Z-1.625 F480.000
G1 X136.445 Y-15.131 Z-1.813 F480.000
G1 X136.371 Y-15.090 Z-2.019 F480.000
G1 X136.345 Y-15.027 Z-2.231 F480.000
G1 X136.368 Y-14.947 Z-2.437 F480.000
G1 X136.439 Y-14.852 Z-2.625 F480.000
G1 X136.531 Y-14.843 Z-2.813 F480.000
G1 X136.613 Y-14.887 Z-3.000 F480.000
G1 X136.658 Y-14.985 Z-3.206 F480.000
G1 X136.640 Y-15.074 Z-3.419 F480.000
G1 X136.561 Y-15.148 Z-3.625 F480.000
G1 X136.445 Y-15.131 Z-3.813 F480.000
G1 X136.371 Y-15.090 Z-4.019 F480.000
G1 X136.345 Y-15.027 Z-4.231 F480.000
G1 X136.368 Y-14.947 Z-4.437 F480.000
G1 X136.439 Y-14.852 Z-4.625 F480.000
G1 X136.531 Y-14.843 Z-4.813 F480.000
G1 X136.613 Y-14.887 Z-5.000 F480.000
G1 X136.658 Y-14.985 Z-5.206 F480.000
G1 X136.640 Y-15.074 Z-5.419 F480.000
G1 X136.561 Y-15.148 Z-5.625 F480.000
G1 X136.445 Y-15.131 Z-5.813 F480.000
G1 X136.371 Y-15.090 Z-6.019 F480.000
G1 X136.345 Y-15.027 Z-6.231 F480.000
G1 X136.368 Y-14.947 Z-6.437 F480.000
G1 X136.439 Y-14.852 Z-6.625 F480.000
G1 X136.531 Y-14.843 Z-6.813 F480.000
G1 X136.613 Y-14.887 Z-7.000 F480.000
G1 X136.658 Y-14.985 Z-7.206 F480.000
G1 X136.640 Y-15.074 Z-7.419 F480.000
G1 X136.561 Y-15.148 Z-7.625 F480.000
G1 X136.445 Y-15.131 Z-7.813 F480.000
G1 X136.371 Y-15.090 Z-8.019 F480.000
G1 X136.345 Y-15.027 Z-8.231 F480.000
G1 X136.368 Y-14.947 Z-8.437 F480.000
G1 X136.439 Y-14.852 Z-8.625 F480.000
G1 X136.531 Y-14.843 Z-8.813 F480.000
G1 X136.613 Y-14.887 Z-9.000 F480.000
G1 X136.658 Y-14.983 Z-9.101 F480.000
G1 X136.640 Y-15.076 Z-9.212 F480.000
G1 X136.561 Y-15.148 Z-9.312 F480.000
G1 X136.449 Y-15.137 Z-9.395 F480.000
G1 X136.373 Y-15.093 Z-9.504 F480.000
G1 X136.344 Y-15.024 Z-9.621 F480.000
G1 X136.367 Y-14.939 Z-9.730 F480.000
G1 X136.439 Y-14.852 Z-9.812 F480.000
G1 X136.531 Y-14.843 Z-9.906 F480.000
G1 X136.613 Y-14.887 Z-10.000 F480.000
G2 X136.561 Y-15.148 Z-10.000 I-0.113 J-0.113 K0.000 F480.000
G2 X136.439 Y-14.852 Z-10.000 I-0.061 J0.148 K0.000 F480.000
G2 X136.613 Y-14.887 Z-10.000 I0.061 J-0.148 K0.000 F480.000
G0 X136.613 Y-14.887 Z6.000
(Finish operation: RampEntryDressup027)
(Begin operation: RampEntryDressup028)
(Path: RampEntryDressup028)
G0 X0.000 Y0.000 Z6.000
G0 X59.613 Y-24.388 Z6.000
G0 X59.613 Y-24.388 Z4.000
G1 X59.658 Y-24.480 Z3.507 F480.000
G1 X59.645 Y-24.565 Z3.011 F480.000
G1 X59.576 Y-24.640 Z2.518 F480.000
G1 X59.547 Y-24.653 Z2.362 F480.000
G1 X59.411 Y-24.613 Z1.746 F480.000
G1 X59.349 Y-24.549 Z1.120 F480.000
G1 X59.362 Y-24.460 Z0.494 F480.000
G1 X59.451 Y-24.349 Z-0.122 F480.000
G1 X59.538 Y-24.345 Z-0.561 F480.000
G1 X59.613 Y-24.388 Z-1.000 F480.000
G1 X59.658 Y-24.479 Z-1.195 F480.000
G1 X59.645 Y-24.565 Z-1.397 F480.000
G1 X59.576 Y-24.640 Z-1.593 F480.000
G1 X59.547 Y-24.653 Z-1.655 F480.000
G1 X59.434 Y-24.626 Z-1.843 F480.000
G1 X59.365 Y-24.579 Z-2.047 F480.000
G1 X59.345 Y-24.514 Z-2.257 F480.000
G1 X59.374 Y-24.436 Z-2.461 F480.000
G1 X59.451 Y-24.349 Z-2.649 F480.000
G1 X59.538 Y-24.345 Z-2.824 F480.000
G1 X59.613 Y-24.388 Z-3.000 F480.000
G1 X59.658 Y-24.479 Z-3.195 F480.000
G1 X59.645 Y-24.565 Z-3.397 F480.000
G1 X59.576 Y-24.640 Z-3.593 F480.000
G1 X59.547 Y-24.653 Z-3.655 F480.000
G1 X59.434 Y-24.626 Z-3.843 F480.000
G1 X59.365 Y-24.579 Z-4.047 F480.000
G1 X59.345 Y-24.514 Z-4.257 F480.000
G1 X59.374 Y-24.436 Z-4.461 F480.000
G1 X59.451 Y-24.349 Z-4.649 F480.000
G1 X59.538 Y-24.345 Z-4.824 F480.000
G1 X59.613 Y-24.388 Z-5.000 F480.000
G1 X59.658 Y-24.479 Z-5.195 F480.000
G1 X59.645 Y-24.565 Z-5.397 F480.000
G1 X59.576 Y-24.640 Z-5.593 F480.000
G1 X59.547 Y-24.653 Z-5.655 F480.000
G1 X59.434 Y-24.626 Z-5.843 F480.000
G1 X59.365 Y-24.579 Z-6.047 F480.000
G1 X59.345 Y-24.514 Z-6.257 F480.000
G1 X59.374 Y-24.436 Z-6.461 F480.000
G1 X59.451 Y-24.349 Z-6.649 F480.000
G1 X59.538 Y-24.345 Z-6.824 F480.000
G1 X59.613 Y-24.388 Z-7.000 F480.000
G1 X59.658 Y-24.479 Z-7.195 F480.000
G1 X59.645 Y-24.565 Z-7.397 F480.000
G1 X59.576 Y-24.640 Z-7.593 F480.000
G1 X59.547 Y-24.653 Z-7.655 F480.000
G1 X59.434 Y-24.626 Z-7.843 F480.000
G1 X59.365 Y-24.579 Z-8.047 F480.000
G1 X59.345 Y-24.514 Z-8.257 F480.000
G1 X59.374 Y-24.436 Z-8.461 F480.000
G1 X59.451 Y-24.349 Z-8.649 F480.000
G1 X59.538 Y-24.345 Z-8.824 F480.000
G1 X59.613 Y-24.388 Z-9.000 F480.000
G1 X59.658 Y-24.478 Z-9.096 F480.000
G1 X59.645 Y-24.567 Z-9.201 F480.000
G1 X59.576 Y-24.640 Z-9.296 F480.000
G1 X59.547 Y-24.653 Z-9.328 F480.000
G1 X59.438 Y-24.632 Z-9.410 F480.000
G1 X59.367 Y-24.582 Z-9.518 F480.000
G1 X59.344 Y-24.511 Z-9.634 F480.000
G1 X59.374 Y-24.429 Z-9.742 F480.000
G1 X59.451 Y-24.349 Z-9.824 F480.000
G1 X59.538 Y-24.345 Z-9.912 F480.000
G1 X59.613 Y-24.388 Z-10.000 F480.000
G2 X59.576 Y-24.640 Z-10.000 I-0.113 J-0.113 K0.000 F480.000
G1 X59.547 Y-24.653 Z-10.000 F480.000
G2 X59.451 Y-24.349 Z-10.000 I-0.047 J0.152 K0.000 F480.000
G2 X59.613 Y-24.388 Z-10.000 I0.050 J-0.151 K0.000 F480.000
G0 X59.613 Y-24.388 Z6.000
(Finish operation: RampEntryDressup028)
(Begin operation: RampEntryDressup029)
(Path: RampEntryDressup029)
G0 X0.000 Y0.000 Z6.000
G0 X59.613 Y-6.388 Z6.000
G0 X59.613 Y-6.388 Z4.000
G1 X59.658 Y-6.480 Z3.507 F480.000
G1 X59.645 Y-6.565 Z3.011 F480.000
G1 X59.576 Y-6.640 Z2.518 F480.000
G1 X59.547 Y-6.653 Z2.362 F480.000
G1 X59.411 Y-6.613 Z1.746 F480.000
G1 X59.349 Y-6.549 Z1.120 F480.000
G1 X59.362 Y-6.460 Z0.494 F480.000
G1 X59.451 Y-6.349 Z-0.122 F480.000
G1 X59.538 Y-6.345 Z-0.561 F480.000
G1 X59.613 Y-6.388 Z-1.000 F480.000
G1 X59.658 Y-6.479 Z-1.195 F480.000
G1 X59.645 Y-6.565 Z-1.397 F480.000
G1 X59.576 Y-6.640 Z-1.593 F480.000
G1 X59.547 Y-6.653 Z-1.655 F480.000
G1 X59.434 Y-6.626 Z-1.843 F480.000
G1 X59.365 Y-6.579 Z-2.047 F480.000
G1 X59.345 Y-6.514 Z-2.257 F480.000
G1 X59.374 Y-6.436 Z-2.461 F480.000
G1 X59.451 Y-6.349 Z-2.649 F480.000
G1 X59.538 Y-6.345 Z-2.824 F480.000
G1 X59.613 Y-6.388 Z-3.000 F480.000
G1 X59.658 Y-6.479 Z-3.195 F480.000
G1 X59.645 Y-6.565 Z-3.397 F480.000
G1 X59.576 Y-6.640 Z-3.593 F480.000
G1 X59.547 Y-6.653 Z-3.655 F480.000
G1 X59.434 Y-6.626 Z-3.843 F480.000
G1 X59.365 Y-6.579 Z-4.047 F480.000
G1 X59.345 Y-6.514 Z-4.257 F480.000
G1 X59.374 Y-6.436 Z-4.461 F480.000
G1 X59.451 Y-6.349 Z-4.649 F480.000
G1 X59.538 Y-6.345 Z-4.824 F480.000
G1 X59.613 Y-6.388 Z-5.000 F480.000
G1 X59.658 Y-6.479 Z-5.195 F480.000
G1 X59.645 Y-6.565 Z-5.397 F480.000
G1 X59.576 Y-6.640 Z-5.593 F480.000
G1 X59.547 Y-6.653 Z-5.655 F480.000
G1 X59.434 Y-6.626 Z-5.843 F480.000
G1 X59.365 Y-6.579 Z-6.047 F480.000
G1 X59.345 Y-6.514 Z-6.257 F480.000
G1 X59.374 Y-6.436 Z-6.461 F480.000
G1 X59.451 Y-6.349 Z-6.649 F480.000
G1 X59.538 Y-6.345 Z-6.824 F480.000
G1 X59.613 Y-6.388 Z-7.000 F480.000
G1 X59.658 Y-6.479 Z-7.195 F480.000
G1 X59.645 Y-6.565 Z-7.397 F480.000
G1 X59.576 Y-6.640 Z-7.593 F480.000
G1 X59.547 Y-6.653 Z-7.655 F480.000
G1 X59.434 Y-6.626 Z-7.843 F480.000
G1 X59.365 Y-6.579 Z-8.047 F480.000
G1 X59.345 Y-6.514 Z-8.257 F480.000
G1 X59.374 Y-6.436 Z-8.461 F480.000
G1 X59.451 Y-6.349 Z-8.649 F480.000
G1 X59.538 Y-6.345 Z-8.824 F480.000
G1 X59.613 Y-6.388 Z-9.000 F480.000
G1 X59.658 Y-6.478 Z-9.096 F480.000
G1 X59.645 Y-6.567 Z-9.201 F480.000
G1 X59.576 Y-6.640 Z-9.296 F480.000
G1 X59.547 Y-6.653 Z-9.328 F480.000
G1 X59.438 Y-6.632 Z-9.410 F480.000
G1 X59.367 Y-6.582 Z-9.518 F480.000
G1 X59.344 Y-6.511 Z-9.634 F480.000
G1 X59.374 Y-6.429 Z-9.742 F480.000
G1 X59.451 Y-6.349 Z-9.824 F480.000
G1 X59.538 Y-6.345 Z-9.912 F480.000
G1 X59.613 Y-6.388 Z-10.000 F480.000
G2 X59.576 Y-6.640 Z-10.000 I-0.113 J-0.113 K0.000 F480.000
G1 X59.547 Y-6.653 Z-10.000 F480.000
G2 X59.451 Y-6.349 Z-10.000 I-0.047 J0.152 K0.000 F480.000
G2 X59.613 Y-6.388 Z-10.000 I0.050 J-0.151 K0.000 F480.000
G0 X59.613 Y-6.388 Z6.000
(Finish operation: RampEntryDressup029)
(Begin operation: RampEntryDressup030)
(Path: RampEntryDressup030)
G0 X0.000 Y0.000 Z6.000
G0 X42.613 Y-14.888 Z6.000
G0 X42.613 Y-14.888 Z4.000
G1 X42.658 Y-14.980 Z3.507 F480.000
G1 X42.645 Y-15.065 Z3.011 F480.000
G1 X42.576 Y-15.140 Z2.518 F480.000
G1 X42.547 Y-15.153 Z2.362 F480.000
G1 X42.411 Y-15.113 Z1.746 F480.000
G1 X42.349 Y-15.049 Z1.120 F480.000
G1 X42.362 Y-14.960 Z0.494 F480.000
G1 X42.451 Y-14.849 Z-0.122 F480.000
G1 X42.538 Y-14.845 Z-0.561 F480.000
G1 X42.613 Y-14.888 Z-1.000 F480.000
G1 X42.658 Y-14.979 Z-1.195 F480.000
G1 X42.645 Y-15.065 Z-1.397 F480.000
G1 X42.576 Y-15.140 Z-1.593 F480.000
G1 X42.547 Y-15.153 Z-1.655 F480.000
G1 X42.434 Y-15.126 Z-1.843 F480.000
G1 X42.365 Y-15.079 Z-2.047 F480.000
G1 X42.345 Y-15.014 Z-2.257 F480.000
G1 X42.374 Y-14.936 Z-2.461 F480.000
G1 X42.451 Y-14.849 Z-2.649 F480.000
G1 X42.538 Y-14.845 Z-2.824 F480.000
G1 X42.613 Y-14.888 Z-3.000 F480.000
G1 X42.658 Y-14.979 Z-3.195 F480.000
G1 X42.645 Y-15.065 Z-3.397 F480.000
G1 X42.576 Y-15.140 Z-3.593 F480.000
G1 X42.547 Y-15.153 Z-3.655 F480.000
G1 X42.434 Y-15.126 Z-3.843 F480.000
G1 X42.365 Y-15.079 Z-4.047 F480.000
G1 X42.345 Y-15.014 Z-4.257 F480.000
G1 X42.374 Y-14.936 Z-4.461 F480.000
G1 X42.451 Y-14.849 Z-4.649 F480.000
G1 X42.538 Y-14.845 Z-4.824 F480.000
G1 X42.613 Y-14.888 Z-5.000 F480.000
G1 X42.658 Y-14.979 Z-5.195 F480.000
G1 X42.645 Y-15.065 Z-5.397 F480.000
G1 X42.576 Y-15.140 Z-5.593 F480.000
G1 X42.547 Y-15.153 Z-5.655 F480.000
G1 X42.434 Y-15.126 Z-5.843 F480.000
G1 X42.365 Y-15.079 Z-6.047 F480.000
G1 X42.345 Y-15.014 Z-6.257 F480.000
G1 X42.374 Y-14.936 Z-6.461 F480.000
G1 X42.451 Y-14.849 Z-6.649 F480.000
G1 X42.538 Y-14.845 Z-6.824 F480.000
G1 X42.613 Y-14.888 Z-7.000 F480.000
G1 X42.658 Y-14.979 Z-7.195 F480.000
G1 X42.645 Y-15.065 Z-7.397 F480.000
G1 X42.576 Y-15.140 Z-7.593 F480.000
G1 X42.547 Y-15.153 Z-7.655 F480.000
G1 X42.434 Y-15.126 Z-7.843 F480.000
G1 X42.365 Y-15.079 Z-8.047 F480.000
G1 X42.345 Y-15.014 Z-8.257 F480.000
G1 X42.374 Y-14.936 Z-8.461 F480.000
G1 X42.451 Y-14.849 Z-8.649 F480.000
G1 X42.538 Y-14.845 Z-8.824 F480.000
G1 X42.613 Y-14.888 Z-9.000 F480.000
G1 X42.658 Y-14.978 Z-9.096 F480.000
G1 X42.645 Y-15.067 Z-9.201 F480.000
G1 X42.576 Y-15.140 Z-9.296 F480.000
G1 X42.547 Y-15.153 Z-9.328 F480.000
G1 X42.438 Y-15.132 Z-9.410 F480.000
G1 X42.367 Y-15.082 Z-9.518 F480.000
G1 X42.344 Y-15.011 Z-9.634 F480.000
G1 X42.374 Y-14.929 Z-9.742 F480.000
G1 X42.451 Y-14.849 Z-9.824 F480.000
G1 X42.538 Y-14.845 Z-9.912 F480.000
G1 X42.613 Y-14.888 Z-10.000 F480.000
G2 X42.576 Y-15.140 Z-10.000 I-0.113 J-0.113 K0.000 F480.000
G1 X42.547 Y-15.153 Z-10.000 F480.000
G2 X42.451 Y-14.849 Z-10.000 I-0.047 J0.152 K0.000 F480.000
G2 X42.613 Y-14.888 Z-10.000 I0.050 J-0.151 K0.000 F480.000
G0 X42.613 Y-14.888 Z6.000
(Finish operation: RampEntryDressup030)
(Begin operation: Pocket_Shape002)
(Path: Pocket_Shape002)
(Pocket_Shape002)
G0 Z6.000
G0 X44.207 Y-13.293
G0 Z4.000
G1 X44.207 Y-13.293 Z-1.000 F300.000
G2 X42.665 Y-17.408 Z-1.000 I-1.707 J-1.707 K0.000 F480.000
G2 X42.335 Y-12.592 Z-1.000 I-0.165 J2.408 K0.000 F480.000
G2 X44.207 Y-13.293 Z-1.000 I0.165 J-2.408 K0.000 F480.000
G0 Z6.000
G0 X43.588 Y-12.847 Z6.000
G0 X43.588 Y-12.847 Z4.000
G1 X43.588 Y-12.847 Z-1.000 F300.000
G3 X40.350 Y-16.085 Z-1.000 I-1.090 J-2.148 K0.000 F480.000
G1 X43.588 Y-12.847 Z-1.000 F480.000
G2 X44.148 Y-16.764 Z-1.000 I-1.086 J-2.153 K0.000 F480.000
G1 X44.148 Y-16.764 Z-3.000 F300.000
G3 X43.588 Y-12.847 Z-3.000 I-1.645 J1.763 K0.000 F480.000
G1 X40.350 Y-16.085 Z-3.000 F480.000
G2 X43.588 Y-12.847 Z-3.000 I2.148 J1.090 K0.000 F480.000
G0 Z6.000
G0 X43.589 Y-12.846 Z6.000
G0 X43.589 Y-12.846 Z4.000
G1 X43.589 Y-12.846 Z-3.000 F300.000
G2 X42.665 Y-17.408 Z-3.000 I-1.089 J-2.154 K0.000 F480.000
G2 X42.335 Y-12.592 Z-3.000 I-0.165 J2.408 K0.000 F480.000
G2 X43.589 Y-12.846 Z-3.000 I0.165 J-2.408 K0.000 F480.000
G0 Z6.000
G0 Z6.000
G0 X43.589 Y-12.846
G0 X57.258 Y-7.394
G0 X57.258 Y-7.394 Z4.000
G1 X57.258 Y-7.394 Z-1.000 F300.000
G2 X59.335 Y-4.092 Z-1.000 I2.242 J0.894 K0.000 F480.000
G2 X59.665 Y-8.908 Z-1.000 I0.165 J-2.408 K0.000 F480.000
G2 X57.258 Y-7.394 Z-1.000 I-0.165 J2.408 K0.000 F480.000
G0 Z6.000
G0 X61.148 Y-8.264 Z6.000
G0 X61.148 Y-8.264 Z4.000
G1 X61.148 Y-8.264 Z-1.000 F300.000
G3 X60.588 Y-4.347 Z-1.000 I-1.645 J1.763 K0.000 F480.000
G1 X57.350 Y-7.585 Z-1.000 F480.000
G2 X60.588 Y-4.347 Z-1.000 I2.148 J1.090 K0.000 F480.000
G1 X60.588 Y-4.347 Z-3.000 F300.000
G3 X57.350 Y-7.585 Z-3.000 I-1.090 J-2.148 K0.000 F480.000
G1 X60.588 Y-4.347 Z-3.000 F480.000
G2 X61.148 Y-8.264 Z-3.000 I-1.086 J-2.153 K0.000 F480.000
G1 X61.148 Y-8.264 Z-3.000 F300.000
G2 X59.665 Y-8.908 Z-3.000 I-1.648 J1.764 K0.000 F480.000
G2 X59.335 Y-4.092 Z-3.000 I-0.165 J2.408 K0.000 F480.000
G2 X61.148 Y-8.264 Z-3.000 I0.165 J-2.408 K0.000 F480.000
G0 Z6.000
G0 Z6.000
G0 X61.148 Y-8.264
G0 X59.744 Y-22.099
G0 X59.744 Y-22.099 Z4.000
G1 X59.744 Y-22.099 Z-1.000 F300.000
G2 X59.665 Y-26.908 Z-1.000 I-0.244 J-2.401 K0.000 F480.000
G2 X59.335 Y-22.092 Z-1.000 I-0.165 J2.408 K0.000 F480.000
G2 X59.744 Y-22.099 Z-1.000 I0.165 J-2.408 K0.000 F480.000
G0 Z6.000
G0 X60.588 Y-22.347 Z6.000
G0 X60.588 Y-22.347 Z4.000
G1 X60.588 Y-22.347 Z-1.000 F300.000
G3 X57.350 Y-25.585 Z-1.000 I-1.090 J-2.148 K0.000 F480.000
G1 X60.588 Y-22.347 Z-1.000 F480.000
G2 X61.148 Y-26.264 Z-1.000 I-1.086 J-2.153 K0.000 F480.000
G1 X61.148 Y-26.264 Z-3.000 F300.000
G3 X60.588 Y-22.347 Z-3.000 I-1.645 J1.763 K0.000 F480.000
G1 X57.350 Y-25.585 Z-3.000 F480.000
G2 X60.588 Y-22.347 Z-3.000 I2.148 J1.090 K0.000 F480.000
G0 Z6.000
G0 X60.589 Y-22.346 Z6.000
G0 X60.589 Y-22.346 Z4.000
G1 X60.589 Y-22.346 Z-3.000 F300.000
G2 X59.665 Y-26.908 Z-3.000 I-1.089 J-2.154 K0.000 F480.000
G2 X59.335 Y-22.092 Z-3.000 I-0.165 J2.408 K0.000 F480.000
G2 X60.589 Y-22.346 Z-3.000 I0.165 J-2.408 K0.000 F480.000
G0 Z6.000
G0 Z6.000
G0 X60.589 Y-22.346
G0 X134.097 Y-15.232
G0 X134.097 Y-15.232 Z4.000
G1 X134.097 Y-15.232 Z-1.000 F300.000
G2 X136.335 Y-12.592 Z-1.000 I2.403 J0.232 K0.000 F480.000
G2 X136.665 Y-17.408 Z-1.000 I0.165 J-2.408 K0.000 F480.000
G2 X134.097 Y-15.232 Z-1.000 I-0.165 J2.408 K0.000 F480.000
G0 Z6.000
G0 X137.588 Y-12.847 Z6.000
G0 X137.588 Y-12.847 Z4.000
G1 X137.588 Y-12.847 Z-1.000 F300.000
G3 X134.350 Y-16.085 Z-1.000 I-1.090 J-2.148 K0.000 F480.000
G1 X137.588 Y-12.847 Z-1.000 F480.000
G2 X138.148 Y-16.764 Z-1.000 I-1.086 J-2.153 K0.000 F480.000
G1 X138.148 Y-16.764 Z-3.000 F300.000
G3 X137.588 Y-12.847 Z-3.000 I-1.645 J1.763 K0.000 F480.000
G1 X134.350 Y-16.085 Z-3.000 F480.000
G2 X137.588 Y-12.847 Z-3.000 I2.148 J1.090 K0.000 F480.000
G0 Z6.000
G0 X137.589 Y-12.846 Z6.000
G0 X137.589 Y-12.846 Z4.000
G1 X137.589 Y-12.846 Z-3.000 F300.000
G2 X136.665 Y-17.408 Z-3.000 I-1.089 J-2.154 K0.000 F480.000
G2 X136.335 Y-12.592 Z-3.000 I-0.165 J2.408 K0.000 F480.000
G2 X137.589 Y-12.846 Z-3.000 I0.165 J-2.408 K0.000 F480.000
G0 Z6.000
G0 Z6.000
G0 X137.589 Y-12.846
G0 X159.893 Y-25.322
G0 X159.893 Y-25.322 Z4.000
G1 X159.893 Y-25.322 Z-1.000 F300.000
G2 X161.835 Y-24.092 Z-1.000 I2.107 J-1.178 K0.000 F480.000
G2 X162.165 Y-28.908 Z-1.000 I0.165 J-2.408 K0.000 F480.000
G2 X159.893 Y-25.322 Z-1.000 I-0.165 J2.408 K0.000 F480.000
G0 Z6.000
G0 X163.088 Y-24.347 Z6.000
G0 X163.088 Y-24.347 Z4.000
G1 X163.088 Y-24.347 Z-1.000 F300.000
G3 X159.850 Y-27.585 Z-1.000 I-1.090 J-2.148 K0.000 F480.000
G1 X163.088 Y-24.347 Z-1.000 F480.000
G2 X163.648 Y-28.264 Z-1.000 I-1.086 J-2.153 K0.000 F480.000
G1 X163.648 Y-28.264 Z-3.000 F300.000
G3 X163.088 Y-24.347 Z-3.000 I-1.645 J1.763 K0.000 F480.000
G1 X159.850 Y-27.585 Z-3.000 F480.000
G2 X163.088 Y-24.347 Z-3.000 I2.148 J1.090 K0.000 F480.000
G0 Z6.000
G0 X163.089 Y-24.346 Z6.000
G0 X163.089 Y-24.346 Z4.000
G1 X163.089 Y-24.346 Z-3.000 F300.000
G2 X162.165 Y-28.908 Z-3.000 I-1.089 J-2.154 K0.000 F480.000
G2 X161.835 Y-24.092 Z-3.000 I-0.165 J2.408 K0.000 F480.000
G2 X163.089 Y-24.346 Z-3.000 I0.165 J-2.408 K0.000 F480.000
G0 Z6.000
G0 Z6.000
(Finish operation: Pocket_Shape002)
(Begin operation: DressupTag003)
(Path: DressupTag003)
G0 Z6.000
G0 X221.119 Y1.119 Z6.000
G0 X221.119 Y1.119 Z4.000
G1 X220.879 Y1.316 Z3.997 F479.013
G1 X220.606 Y1.462 Z3.995 F478.973
G1 X220.309 Y1.552 Z3.992 F478.973
G1 X220.000 Y1.582 Z3.989 F479.013
G1 X0.000 Y1.582 Z2.059 F478.995
G1 X-0.352 Y1.543 Z2.056 F479.127
G1 X-0.687 Y1.426 Z2.053 F478.994
G1 X-0.987 Y1.237 Z2.050 F478.911
G1 X-1.237 Y0.987 Z2.046 F478.883
G1 X-1.426 Y0.687 Z2.043 F478.911
G1 X-1.543 Y0.352 Z2.040 F478.994
G1 X-1.582 Y-0.000 Z2.037 F479.127
G1 X-1.582 Y-60.000 Z1.511 F478.995
G1 X-1.543 Y-60.352 Z1.508 F479.127
G1 X-1.426 Y-60.687 Z1.505 F478.994
G1 X-1.237 Y-60.987 Z1.502 F478.911
G1 X-0.987 Y-61.237 Z1.498 F478.883
G1 X-0.687 Y-61.426 Z1.495 F478.911
G1 X-0.352 Y-61.543 Z1.492 F478.994
G1 X0.000 Y-61.582 Z1.489 F479.127
G1 X220.000 Y-61.583 Z-0.441 F478.995
G1 X220.352 Y-61.543 Z-0.444 F479.127
G1 X220.687 Y-61.426 Z-0.447 F478.994
G1 X220.987 Y-61.237 Z-0.450 F478.911
G1 X221.237 Y-60.987 Z-0.454 F478.883
G1 X221.426 Y-60.687 Z-0.457 F478.911
G1 X221.543 Y-60.352 Z-0.460 F478.994
G1 X221.582 Y-60.000 Z-0.463 F479.127
G1 X221.582 Y-0.000 Z-0.989 F478.995
G1 X221.552 Y0.309 Z-0.992 F479.013
G1 X221.462 Y0.606 Z-0.995 F478.973
G1 X221.316 Y0.879 Z-0.997 F478.973
G1 X221.119 Y1.119 Z-1.000 F479.013
G1 X220.879 Y1.316 Z-1.001 F479.605
G1 X220.606 Y1.462 Z-1.002 F479.589
G1 X220.309 Y1.552 Z-1.003 F479.589
G1 X220.000 Y1.582 Z-1.004 F479.605
G1 X0.000 Y1.582 Z-1.776 F479.598
G1 X-0.352 Y1.543 Z-1.777 F479.651
G1 X-0.687 Y1.426 Z-1.779 F479.598
G1 X-0.987 Y1.237 Z-1.780 F479.565
G1 X-1.237 Y0.987 Z-1.781 F479.553
G1 X-1.426 Y0.687 Z-1.783 F479.565
G1 X-1.543 Y0.352 Z-1.784 F479.598
G1 X-1.582 Y-0.000 Z-1.785 F479.651
G1 X-1.582 Y-60.000 Z-1.996 F479.598
G1 X-1.543 Y-60.352 Z-1.997 F479.651
G1 X-1.426 Y-60.687 Z-1.998 F479.598
G1 X-1.237 Y-60.987 Z-1.999 F479.565
G1 X-0.987 Y-61.237 Z-2.001 F479.553
G1 X-0.687 Y-61.426 Z-2.002 F479.565
G1 X-0.352 Y-61.543 Z-2.003 F479.598
G1 X0.000 Y-61.582 Z-2.004 F479.651
G1 X220.000 Y-61.583 Z-2.776 F479.598
G1 X220.352 Y-61.543 Z-2.777 F479.651
G1 X220.687 Y-61.426 Z-2.779 F479.598
G1 X220.987 Y-61.237 Z-2.780 F479.565
G1 X221.237 Y-60.987 Z-2.781 F479.553
G1 X221.426 Y-60.687 Z-2.783 F479.565
G1 X221.543 Y-60.352 Z-2.784 F479.598
G1 X221.582 Y-60.000 Z-2.785 F479.651
G1 X221.582 Y-0.000 Z-2.996 F479.598
G1 X221.552 Y0.309 Z-2.997 F479.605
G1 X221.462 Y0.606 Z-2.998 F479.589
G1 X221.316 Y0.879 Z-2.999 F479.589
G1 X221.119 Y1.119 Z-3.000 F479.605
G1 X220.879 Y1.316 Z-3.001 F479.605
G1 X220.606 Y1.462 Z-3.002 F479.589
G1 X220.309 Y1.552 Z-3.003 F479.589
G1 X220.000 Y1.582 Z-3.004 F479.605
G1 X0.000 Y1.582 Z-3.776 F479.598
G1 X-0.352 Y1.543 Z-3.777 F479.651
G1 X-0.687 Y1.426 Z-3.779 F479.598
G1 X-0.987 Y1.237 Z-3.780 F479.565
G1 X-1.237 Y0.987 Z-3.781 F479.553
G1 X-1.426 Y0.687 Z-3.783 F479.565
G1 X-1.543 Y0.352 Z-3.784 F479.598
G1 X-1.582 Y-0.000 Z-3.785 F479.651
G1 X-1.582 Y-60.000 Z-3.996 F479.598
G1 X-1.543 Y-60.352 Z-3.997 F479.651
G1 X-1.426 Y-60.687 Z-3.998 F479.598
G1 X-1.237 Y-60.987 Z-3.999 F479.565
G1 X-0.987 Y-61.237 Z-4.001 F479.553
G1 X-0.687 Y-61.426 Z-4.002 F479.565
G1 X-0.352 Y-61.543 Z-4.003 F479.598
G1 X0.000 Y-61.582 Z-4.004 F479.651
G1 X220.000 Y-61.583 Z-4.776 F479.598
G1 X220.352 Y-61.543 Z-4.777 F479.651
G1 X220.687 Y-61.426 Z-4.779 F479.598
G1 X220.987 Y-61.237 Z-4.780 F479.565
G1 X221.237 Y-60.987 Z-4.781 F479.553
G1 X221.426 Y-60.687 Z-4.783 F479.565
G1 X221.543 Y-60.352 Z-4.784 F479.598
G1 X221.582 Y-60.000 Z-4.785 F479.651
G1 X221.582 Y-0.000 Z-4.996 F479.598
G1 X221.552 Y0.309 Z-4.997 F479.605
G1 X221.462 Y0.606 Z-4.998 F479.589
G1 X221.316 Y0.879 Z-4.999 F479.589
G1 X221.119 Y1.119 Z-5.000 F479.605
G1 X220.879 Y1.316 Z-5.001 F479.605
G1 X220.606 Y1.462 Z-5.002 F479.589
G1 X220.309 Y1.552 Z-5.003 F479.589
G1 X220.000 Y1.582 Z-5.004 F479.605
G1 X0.000 Y1.582 Z-5.776 F479.598
G1 X-0.352 Y1.543 Z-5.777 F479.651
G1 X-0.687 Y1.426 Z-5.779 F479.598
G1 X-0.987 Y1.237 Z-5.780 F479.565
G1 X-1.237 Y0.987 Z-5.781 F479.553
G1 X-1.426 Y0.687 Z-5.783 F479.565
G1 X-1.543 Y0.352 Z-5.784 F479.598
G1 X-1.582 Y-0.000 Z-5.785 F479.651
G1 X-1.582 Y-60.000 Z-5.996 F479.598
G1 X-1.543 Y-60.352 Z-5.997 F479.651
G1 X-1.426 Y-60.687 Z-5.998 F479.598
G1 X-1.237 Y-60.987 Z-5.999 F479.565
G1 X-0.987 Y-61.237 Z-6.001 F479.553
G1 X-0.687 Y-61.426 Z-6.002 F479.565
G1 X-0.352 Y-61.543 Z-6.003 F479.598
G1 X0.000 Y-61.582 Z-6.004 F479.651
G1 X220.000 Y-61.583 Z-6.776 F479.598
G1 X220.352 Y-61.543 Z-6.777 F479.651
G1 X220.687 Y-61.426 Z-6.779 F479.598
G1 X220.987 Y-61.237 Z-6.780 F479.565
G1 X221.237 Y-60.987 Z-6.781 F479.553
G1 X221.426 Y-60.687 Z-6.783 F479.565
G1 X221.543 Y-60.352 Z-6.784 F479.598
G1 X221.582 Y-60.000 Z-6.785 F479.651
G1 X221.582 Y-0.000 Z-6.996 F479.598
G1 X221.552 Y0.309 Z-6.997 F479.605
G1 X221.462 Y0.606 Z-6.998 F479.589
G1 X221.316 Y0.879 Z-6.999 F479.589
G1 X221.119 Y1.119 Z-7.000 F479.605
G1 X220.879 Y1.316 Z-7.001 F479.605
G1 X220.606 Y1.462 Z-7.002 F479.589
G1 X220.309 Y1.552 Z-7.003 F479.589
G1 X220.000 Y1.582 Z-7.004 F479.605
G1 X0.000 Y1.582 Z-7.776 F479.598
G1 X-0.352 Y1.543 Z-7.777 F479.651
G1 X-0.687 Y1.426 Z-7.779 F479.598
G1 X-0.987 Y1.237 Z-7.780 F479.565
G1 X-1.237 Y0.987 Z-7.781 F479.553
G1 X-1.426 Y0.687 Z-7.783 F479.565
G1 X-1.543 Y0.352 Z-7.784 F479.598
G1 X-1.582 Y-0.000 Z-7.785 F479.651
G1 X-1.582 Y-60.000 Z-7.996 F479.598
G1 X-1.543 Y-60.352 Z-7.997 F479.651
G1 X-1.426 Y-60.687 Z-7.998 F479.598
G1 X-1.237 Y-60.987 Z-7.999 F479.565
G1 X-0.987 Y-61.237 Z-8.001 F479.553
G1 X-0.687 Y-61.426 Z-8.002 F479.565
G1 X-0.352 Y-61.543 Z-8.003 F479.598
G1 X0.000 Y-61.582 Z-8.004 F479.651
G1 X52.748 Y-61.582 Z-8.189 F479.598
G1 X52.938 Y-61.582 Z-8.000 F390.000
G1 X57.063 Y-61.582 Z-8.000 F480.000
G1 X57.268 Y-61.582 Z-8.205 F390.000
G1 X162.363 Y-61.582 Z-8.574 F479.598
G1 X162.937 Y-61.582 Z-8.000 F390.000
G1 X167.062 Y-61.582 Z-8.000 F480.000
G1 X167.655 Y-61.582 Z-8.593 F390.000
G1 X220.000 Y-61.583 Z-8.776 F479.598
G1 X220.352 Y-61.543 Z-8.777 F479.651
G1 X220.687 Y-61.426 Z-8.779 F479.598
G1 X220.987 Y-61.237 Z-8.780 F479.565
G1 X221.237 Y-60.987 Z-8.781 F479.553
G1 X221.426 Y-60.687 Z-8.783 F479.565
G1 X221.543 Y-60.352 Z-8.784 F479.598
G1 X221.582 Y-60.000 Z-8.785 F479.651
G1 X221.582 Y-0.000 Z-8.996 F479.598
G1 X221.552 Y0.309 Z-8.997 F479.605
G1 X221.462 Y0.606 Z-8.998 F479.589
G1 X221.316 Y0.879 Z-8.999 F479.589
G1 X221.119 Y1.119 Z-9.000 F479.605
G1 X220.879 Y1.316 Z-9.001 F479.803
G1 X220.606 Y1.462 Z-9.001 F479.795
G1 X220.309 Y1.552 Z-9.002 F479.795
G1 X220.000 Y1.582 Z-9.002 F479.803
G1 X168.156 Y1.582 Z-9.093 F479.799
G1 X167.062 Y1.582 Z-8.000 F390.000
G1 X162.937 Y1.582 Z-8.000 F480.000
G1 X161.833 Y1.582 Z-9.104 F390.000
G1 X58.348 Y1.582 Z-9.286 F479.799
G1 X57.062 Y1.582 Z-8.000 F390.000
G1 X52.937 Y1.582 Z-8.000 F480.000
G1 X51.640 Y1.582 Z-9.298 F390.000
G1 X0.000 Y1.582 Z-9.388 F479.799
G1 X-0.352 Y1.543 Z-9.389 F479.825
G1 X-0.687 Y1.426 Z-9.389 F479.799
G1 X-0.987 Y1.237 Z-9.390 F479.782
G1 X-1.237 Y0.987 Z-9.391 F479.777
G1 X-1.426 Y0.687 Z-9.391 F479.782
G1 X-1.543 Y0.352 Z-9.392 F479.799
G1 X-1.582 Y-0.000 Z-9.393 F479.825
G1 X-1.582 Y-60.000 Z-9.498 F479.799
G1 X-1.543 Y-60.352 Z-9.498 F479.825
G1 X-1.426 Y-60.687 Z-9.499 F479.799
G1 X-1.237 Y-60.987 Z-9.500 F479.782
G1 X-0.987 Y-61.237 Z-9.500 F479.777
G1 X-0.687 Y-61.426 Z-9.501 F479.782
G1 X-0.352 Y-61.543 Z-9.502 F479.799
G1 X0.000 Y-61.582 Z-9.502 F479.825
G1 X51.345 Y-61.582 Z-9.592 F479.799
G1 X52.938 Y-61.582 Z-8.000 F390.000
G1 X57.063 Y-61.582 Z-8.000 F480.000
G1 X58.668 Y-61.582 Z-9.605 F390.000
G1 X161.153 Y-61.582 Z-9.785 F479.799
G1 X162.937 Y-61.582 Z-8.000 F390.000
G1 X167.062 Y-61.582 Z-8.000 F480.000
G1 X168.861 Y-61.582 Z-9.798 F390.000
G1 X220.000 Y-61.583 Z-9.888 F479.799
G1 X220.352 Y-61.543 Z-9.889 F479.825
G1 X220.687 Y-61.426 Z-9.889 F479.799
G1 X220.987 Y-61.237 Z-9.890 F479.782
G1 X221.237 Y-60.987 Z-9.891 F479.777
G1 X221.426 Y-60.687 Z-9.891 F479.782
G1 X221.543 Y-60.352 Z-9.892 F479.799
G1 X221.582 Y-60.000 Z-9.893 F479.825
G1 X221.582 Y-0.000 Z-9.998 F479.799
G1 X221.552 Y0.309 Z-9.998 F479.803
G1 X221.462 Y0.606 Z-9.999 F479.795
G1 X221.316 Y0.879 Z-9.999 F479.795
G1 X221.119 Y1.119 Z-10.000 F479.803
G3 X220.000 Y1.582 Z-10.000 I-1.119 J-1.119 K0.000 F480.000
G1 X169.062 Y1.582 Z-10.000 F480.000
G1 X167.062 Y1.582 Z-8.000 F390.000
G1 X162.937 Y1.582 Z-8.000 F480.000
G1 X160.937 Y1.582 Z-10.000 F390.000
G1 X59.062 Y1.582 Z-10.000 F480.000
G1 X57.062 Y1.582 Z-8.000 F390.000
G1 X52.937 Y1.582 Z-8.000 F480.000
G1 X50.937 Y1.582 Z-10.000 F390.000
G1 X0.000 Y1.582 Z-10.000 F480.000
G3 X-1.582 Y-0.000 Z-10.000 I0.000 J-1.583 K0.000 F480.000
G1 X-1.582 Y-60.000 Z-10.000 F480.000
G3 X0.000 Y-61.582 Z-10.000 I1.583 J0.000 K0.000 F480.000
G1 X50.938 Y-61.582 Z-10.000 F480.000
G1 X52.938 Y-61.582 Z-8.000 F390.000
G1 X57.063 Y-61.582 Z-8.000 F480.000
G1 X59.063 Y-61.582 Z-10.000 F390.000
G1 X160.937 Y-61.582 Z-10.000 F480.000
G1 X162.937 Y-61.582 Z-8.000 F390.000
G1 X167.062 Y-61.582 Z-8.000 F480.000
G1 X169.062 Y-61.582 Z-10.000 F390.000
G1 X220.000 Y-61.583 Z-10.000 F480.000
G3 X221.582 Y-60.000 Z-10.000 I-0.000 J1.583 K0.000 F480.000
G1 X221.582 Y-0.000 Z-10.000 F480.000
G3 X221.119 Y1.119 Z-10.000 I-1.583 J-0.000 K0.000 F480.000
G0 X221.119 Y1.119 Z6.000
(Finish operation: DressupTag003)
(Begin postamble)
M5
G17 G90
M2
