(Exported by FreeCAD)
(Post Processor: grbl_post)
(Output Time:2022-05-29 15:58:12.670619)
(Begin preamble)
G17 G90
G21
(Begin operation: Fixture)
(Path: Fixture)
G54
(Finish operation: Fixture)
(Begin operation: TC: v-bit_PJ1D45EVOAX)
(Path: TC: v-bit_PJ1D45EVOAX)
(TC: v-bit_PJ1D45EVOAX)
(Begin toolchange)
( M6 T3.0 )
M3 S10000.0
(Finish operation: TC: v-bit_PJ1D45EVOAX)
(Begin operation: Engrave)
(Path: Engrave)
(Engrave)
G0 Z25.000
G0 Z25.000
G0 X22.000 Y-77.081
G0 Z2.000
G1 X22.000 Y-77.081 Z-0.200 F120.000
G1 X22.000 Y-77.608 Z-0.200 F300.000
G1 X19.374 Y-77.608 Z-0.200 F300.000
G1 X19.712 Y-78.206 Z-0.200 F300.000
G1 X19.243 Y-78.437 Z-0.200 F300.000
G1 X18.744 Y-77.541 Z-0.200 F300.000
G1 X18.744 Y-77.081 Z-0.200 F300.000
G1 X22.000 Y-77.081 Z-0.200 F300.000
G0 Z25.000
G0 Z25.000
G0 X19.179 Y-75.674
G0 Z2.000
G1 X19.179 Y-75.674 Z-0.200 F120.000
G1 X19.214 Y-75.874 Z-0.200 F300.000
G1 X19.314 Y-76.041 Z-0.200 F300.000
G1 X19.473 Y-76.166 Z-0.200 F300.000
G1 X19.621 Y-76.224 Z-0.200 F300.000
G1 X19.416 Y-76.715 Z-0.200 F300.000
G1 X19.161 Y-76.601 Z-0.200 F300.000
G1 X18.948 Y-76.429 Z-0.200 F300.000
G1 X18.785 Y-76.205 Z-0.200 F300.000
G1 X18.684 Y-75.943 Z-0.200 F300.000
G1 X18.651 Y-75.670 Z-0.200 F300.000
G1 X18.686 Y-75.381 Z-0.200 F300.000
G1 X18.788 Y-75.123 Z-0.200 F300.000
G1 X18.948 Y-74.909 Z-0.200 F300.000
G1 X19.157 Y-74.748 Z-0.200 F300.000
G1 X19.406 Y-74.650 Z-0.200 F300.000
G1 X19.529 Y-74.628 Z-0.200 F300.000
G1 X19.657 Y-74.621 Z-0.200 F300.000
G1 X19.970 Y-74.658 Z-0.200 F300.000
G1 X20.257 Y-74.769 Z-0.200 F300.000
G1 X20.560 Y-74.966 Z-0.200 F300.000
G1 X20.828 Y-75.201 Z-0.200 F300.000
G1 X21.474 Y-75.826 Z-0.200 F300.000
G1 X21.474 Y-74.562 Z-0.200 F300.000
G1 X22.000 Y-74.562 Z-0.200 F300.000
G1 X22.000 Y-76.661 Z-0.200 F300.000
G1 X21.558 Y-76.661 Z-0.200 F300.000
G1 X20.442 Y-75.576 Z-0.200 F300.000
G1 X20.186 Y-75.347 Z-0.200 F300.000
G1 X19.940 Y-75.201 Z-0.200 F300.000
G1 X19.812 Y-75.161 Z-0.200 F300.000
G1 X19.676 Y-75.147 Z-0.200 F300.000
G1 X19.488 Y-75.181 Z-0.200 F300.000
G1 X19.335 Y-75.280 Z-0.200 F300.000
G1 X19.228 Y-75.433 Z-0.200 F300.000
G1 X19.179 Y-75.674 Z-0.200 F300.000
G0 Z25.000
G0 Z25.000
G0 X22.000 Y-72.853
G0 Z2.000
G1 X22.000 Y-72.853 Z-0.200 F120.000
G1 X22.000 Y-73.443 Z-0.200 F300.000
G1 X19.767 Y-74.372 Z-0.200 F300.000
G1 X19.767 Y-73.801 Z-0.200 F300.000
G1 X21.358 Y-73.148 Z-0.200 F300.000
G1 X19.767 Y-72.501 Z-0.200 F300.000
G1 X19.767 Y-71.929 Z-0.200 F300.000
G1 X22.000 Y-72.853 Z-0.200 F300.000
G0 Z25.000
(Finish operation: Engrave)
(Begin postamble)
M5
G17 G90
M2
