(Exported by FreeCAD)
(Post Processor: grbl_post)
(Output Time:2022-05-28 10:19:32.544363)
(Begin preamble)
G17 G90
G21
(Begin operation: Fixture)
(Path: Fixture)
G54
(Finish operation: Fixture)
(Begin operation: TC: endmill_FC1D318)
(Path: TC: endmill_FC1D318)
(TC: endmill_FC1D318)
(Begin toolchange)
( M6 T1.0 )
M3 S10000.0
(Finish operation: TC: endmill_FC1D318)
(Begin operation: RampEntryDressup005)
(Path: RampEntryDressup005)
G0 X0.000 Y0.000 Z6.000
G0 X94.790 Y-23.210 Z6.000
G0 X94.790 Y-23.210 Z4.000
G1 X94.878 Y-23.363 Z3.697 F600.000
G1 X94.908 Y-23.510 Z3.380 F600.000
G1 X94.881 Y-23.647 Z3.058 F600.000
G1 X94.796 Y-23.771 Z2.741 F600.000
G1 X94.657 Y-23.879 Z2.437 F600.000
G1 X94.433 Y-23.854 Z2.108 F600.000
G1 X94.263 Y-23.798 Z1.751 F600.000
G1 X94.153 Y-23.711 Z1.377 F600.000
G1 X94.106 Y-23.596 Z0.998 F600.000
G1 X94.122 Y-23.457 Z0.624 F600.000
G1 X94.202 Y-23.297 Z0.267 F600.000
G1 X94.343 Y-23.121 Z-0.062 F600.000
G1 X94.503 Y-23.091 Z-0.373 F600.000
G1 X94.654 Y-23.121 Z-0.689 F600.000
G1 X94.790 Y-23.210 Z-1.000 F600.000
G1 X94.878 Y-23.353 Z-1.113 F600.000
G1 X94.909 Y-23.505 Z-1.244 F600.000
G1 X94.880 Y-23.652 Z-1.381 F600.000
G1 X94.793 Y-23.780 Z-1.512 F600.000
G1 X94.657 Y-23.879 Z-1.625 F600.000
G1 X94.450 Y-23.875 Z-1.726 F600.000
G1 X94.278 Y-23.820 Z-1.868 F600.000
G1 X94.158 Y-23.721 Z-2.036 F600.000
G1 X94.102 Y-23.586 Z-2.214 F600.000
G1 X94.117 Y-23.430 Z-2.382 F600.000
G1 X94.200 Y-23.270 Z-2.524 F600.000
G1 X94.343 Y-23.121 Z-2.625 F600.000
G1 X94.502 Y-23.090 Z-2.748 F600.000
G1 X94.655 Y-23.121 Z-2.877 F600.000
G1 X94.790 Y-23.210 Z-3.000 F600.000
G1 X94.878 Y-23.353 Z-3.113 F600.000
G1 X94.909 Y-23.505 Z-3.244 F600.000
G1 X94.880 Y-23.652 Z-3.381 F600.000
G1 X94.793 Y-23.780 Z-3.512 F600.000
G1 X94.657 Y-23.879 Z-3.625 F600.000
G1 X94.450 Y-23.875 Z-3.726 F600.000
G1 X94.278 Y-23.820 Z-3.868 F600.000
G1 X94.158 Y-23.721 Z-4.036 F600.000
G1 X94.102 Y-23.586 Z-4.214 F600.000
G1 X94.117 Y-23.430 Z-4.382 F600.000
G1 X94.200 Y-23.270 Z-4.524 F600.000
G1 X94.343 Y-23.121 Z-4.625 F600.000
G1 X94.502 Y-23.090 Z-4.748 F600.000
G1 X94.655 Y-23.121 Z-4.877 F600.000
G1 X94.790 Y-23.210 Z-5.000 F600.000
G1 X94.878 Y-23.353 Z-5.113 F600.000
G1 X94.909 Y-23.505 Z-5.244 F600.000
G1 X94.880 Y-23.652 Z-5.381 F600.000
G1 X94.793 Y-23.780 Z-5.512 F600.000
G1 X94.657 Y-23.879 Z-5.625 F600.000
G1 X94.450 Y-23.875 Z-5.726 F600.000
G1 X94.278 Y-23.820 Z-5.868 F600.000
G1 X94.158 Y-23.721 Z-6.036 F600.000
G1 X94.102 Y-23.586 Z-6.214 F600.000
G1 X94.117 Y-23.430 Z-6.382 F600.000
G1 X94.200 Y-23.270 Z-6.524 F600.000
G1 X94.343 Y-23.121 Z-6.625 F600.000
G1 X94.502 Y-23.090 Z-6.748 F600.000
G1 X94.655 Y-23.121 Z-6.877 F600.000
G1 X94.790 Y-23.210 Z-7.000 F600.000
G1 X94.878 Y-23.353 Z-7.113 F600.000
G1 X94.909 Y-23.505 Z-7.244 F600.000
G1 X94.880 Y-23.652 Z-7.381 F600.000
G1 X94.793 Y-23.780 Z-7.512 F600.000
G1 X94.657 Y-23.879 Z-7.625 F600.000
G1 X94.450 Y-23.875 Z-7.726 F600.000
G1 X94.278 Y-23.820 Z-7.868 F600.000
G1 X94.158 Y-23.721 Z-8.036 F600.000
G1 X94.102 Y-23.586 Z-8.214 F600.000
G1 X94.117 Y-23.430 Z-8.382 F600.000
G1 X94.200 Y-23.270 Z-8.524 F600.000
G1 X94.343 Y-23.121 Z-8.625 F600.000
G1 X94.502 Y-23.090 Z-8.748 F600.000
G1 X94.655 Y-23.121 Z-8.877 F600.000
G1 X94.790 Y-23.210 Z-9.000 F600.000
G1 X94.878 Y-23.347 Z-9.054 F600.000
G1 X94.910 Y-23.502 Z-9.120 F600.000
G1 X94.879 Y-23.655 Z-9.192 F600.000
G1 X94.791 Y-23.786 Z-9.259 F600.000
G1 X94.657 Y-23.879 Z-9.312 F600.000
G1 X94.466 Y-23.894 Z-9.348 F600.000
G1 X94.292 Y-23.842 Z-9.418 F600.000
G1 X94.162 Y-23.730 Z-9.512 F600.000
G1 X94.099 Y-23.576 Z-9.613 F600.000
G1 X94.111 Y-23.405 Z-9.707 F600.000
G1 X94.197 Y-23.245 Z-9.777 F600.000
G1 X94.343 Y-23.121 Z-9.812 F600.000
G1 X94.501 Y-23.090 Z-9.874 F600.000
G1 X94.656 Y-23.121 Z-9.939 F600.000
G1 X94.790 Y-23.210 Z-10.000 F600.000
G2 X94.657 Y-23.879 Z-10.000 I-0.290 J-0.290 K0.000 F600.000
G2 X94.343 Y-23.121 Z-10.000 I-0.157 J0.379 K0.000 F600.000
G2 X94.790 Y-23.210 Z-10.000 I0.157 J-0.379 K0.000 F600.000
G0 X94.790 Y-23.210 Z6.000
(Finish operation: RampEntryDressup005)
(Begin operation: RampEntryDressup006)
(Path: RampEntryDressup006)
G0 X0.000 Y0.000 Z6.000
G0 X177.790 Y-23.210 Z6.000
G0 X177.790 Y-23.210 Z4.000
G1 X177.878 Y-23.363 Z3.697 F600.000
G1 X177.908 Y-23.510 Z3.380 F600.000
G1 X177.881 Y-23.647 Z3.058 F600.000
G1 X177.796 Y-23.771 Z2.741 F600.000
G1 X177.657 Y-23.879 Z2.437 F600.000
G1 X177.433 Y-23.854 Z2.108 F600.000
G1 X177.263 Y-23.798 Z1.751 F600.000
G1 X177.153 Y-23.711 Z1.377 F600.000
G1 X177.106 Y-23.596 Z0.998 F600.000
G1 X177.122 Y-23.457 Z0.624 F600.000
G1 X177.202 Y-23.297 Z0.267 F600.000
G1 X177.343 Y-23.121 Z-0.062 F600.000
G1 X177.503 Y-23.091 Z-0.373 F600.000
G1 X177.654 Y-23.121 Z-0.689 F600.000
G1 X177.790 Y-23.210 Z-1.000 F600.000
G1 X177.878 Y-23.353 Z-1.113 F600.000
G1 X177.909 Y-23.505 Z-1.244 F600.000
G1 X177.880 Y-23.652 Z-1.381 F600.000
G1 X177.793 Y-23.780 Z-1.512 F600.000
G1 X177.657 Y-23.879 Z-1.625 F600.000
G1 X177.450 Y-23.875 Z-1.726 F600.000
G1 X177.278 Y-23.820 Z-1.868 F600.000
G1 X177.158 Y-23.721 Z-2.036 F600.000
G1 X177.102 Y-23.586 Z-2.214 F600.000
G1 X177.117 Y-23.430 Z-2.382 F600.000
G1 X177.200 Y-23.270 Z-2.524 F600.000
G1 X177.343 Y-23.121 Z-2.625 F600.000
G1 X177.502 Y-23.090 Z-2.748 F600.000
G1 X177.655 Y-23.121 Z-2.877 F600.000
G1 X177.790 Y-23.210 Z-3.000 F600.000
G1 X177.878 Y-23.353 Z-3.113 F600.000
G1 X177.909 Y-23.505 Z-3.244 F600.000
G1 X177.880 Y-23.652 Z-3.381 F600.000
G1 X177.793 Y-23.780 Z-3.512 F600.000
G1 X177.657 Y-23.879 Z-3.625 F600.000
G1 X177.450 Y-23.875 Z-3.726 F600.000
G1 X177.278 Y-23.820 Z-3.868 F600.000
G1 X177.158 Y-23.721 Z-4.036 F600.000
G1 X177.102 Y-23.586 Z-4.214 F600.000
G1 X177.117 Y-23.430 Z-4.382 F600.000
G1 X177.200 Y-23.270 Z-4.524 F600.000
G1 X177.343 Y-23.121 Z-4.625 F600.000
G1 X177.502 Y-23.090 Z-4.748 F600.000
G1 X177.655 Y-23.121 Z-4.877 F600.000
G1 X177.790 Y-23.210 Z-5.000 F600.000
G1 X177.878 Y-23.353 Z-5.113 F600.000
G1 X177.909 Y-23.505 Z-5.244 F600.000
G1 X177.880 Y-23.652 Z-5.381 F600.000
G1 X177.793 Y-23.780 Z-5.512 F600.000
G1 X177.657 Y-23.879 Z-5.625 F600.000
G1 X177.450 Y-23.875 Z-5.726 F600.000
G1 X177.278 Y-23.820 Z-5.868 F600.000
G1 X177.158 Y-23.721 Z-6.036 F600.000
G1 X177.102 Y-23.586 Z-6.214 F600.000
G1 X177.117 Y-23.430 Z-6.382 F600.000
G1 X177.200 Y-23.270 Z-6.524 F600.000
G1 X177.343 Y-23.121 Z-6.625 F600.000
G1 X177.502 Y-23.090 Z-6.748 F600.000
G1 X177.655 Y-23.121 Z-6.877 F600.000
G1 X177.790 Y-23.210 Z-7.000 F600.000
G1 X177.878 Y-23.353 Z-7.113 F600.000
G1 X177.909 Y-23.505 Z-7.244 F600.000
G1 X177.880 Y-23.652 Z-7.381 F600.000
G1 X177.793 Y-23.780 Z-7.512 F600.000
G1 X177.657 Y-23.879 Z-7.625 F600.000
G1 X177.450 Y-23.875 Z-7.726 F600.000
G1 X177.278 Y-23.820 Z-7.868 F600.000
G1 X177.158 Y-23.721 Z-8.036 F600.000
G1 X177.102 Y-23.586 Z-8.214 F600.000
G1 X177.117 Y-23.430 Z-8.382 F600.000
G1 X177.200 Y-23.270 Z-8.524 F600.000
G1 X177.343 Y-23.121 Z-8.625 F600.000
G1 X177.502 Y-23.090 Z-8.748 F600.000
G1 X177.655 Y-23.121 Z-8.877 F600.000
G1 X177.790 Y-23.210 Z-9.000 F600.000
G1 X177.878 Y-23.347 Z-9.054 F600.000
G1 X177.910 Y-23.502 Z-9.120 F600.000
G1 X177.879 Y-23.655 Z-9.192 F600.000
G1 X177.791 Y-23.786 Z-9.259 F600.000
G1 X177.657 Y-23.879 Z-9.312 F600.000
G1 X177.466 Y-23.894 Z-9.348 F600.000
G1 X177.292 Y-23.842 Z-9.418 F600.000
G1 X177.162 Y-23.730 Z-9.512 F600.000
G1 X177.099 Y-23.576 Z-9.613 F600.000
G1 X177.111 Y-23.405 Z-9.707 F600.000
G1 X177.197 Y-23.245 Z-9.777 F600.000
G1 X177.343 Y-23.121 Z-9.812 F600.000
G1 X177.501 Y-23.090 Z-9.874 F600.000
G1 X177.656 Y-23.121 Z-9.939 F600.000
G1 X177.790 Y-23.210 Z-10.000 F600.000
G2 X177.657 Y-23.879 Z-10.000 I-0.290 J-0.290 K0.000 F600.000
G2 X177.343 Y-23.121 Z-10.000 I-0.157 J0.379 K0.000 F600.000
G2 X177.790 Y-23.210 Z-10.000 I0.157 J-0.379 K0.000 F600.000
G0 X177.790 Y-23.210 Z6.000
(Finish operation: RampEntryDressup006)
(Begin operation: RampEntryDressup007)
(Path: RampEntryDressup007)
G0 X0.000 Y0.000 Z6.000
G0 X177.790 Y-106.210 Z6.000
G0 X177.790 Y-106.210 Z4.000
G1 X177.878 Y-106.363 Z3.697 F600.000
G1 X177.908 Y-106.510 Z3.380 F600.000
G1 X177.881 Y-106.647 Z3.058 F600.000
G1 X177.796 Y-106.771 Z2.741 F600.000
G1 X177.657 Y-106.879 Z2.438 F600.000
G1 X177.491 Y-106.907 Z2.130 F600.000
G1 X177.343 Y-106.879 Z1.812 F600.000
G1 X177.219 Y-106.794 Z1.495 F600.000
G1 X177.121 Y-106.657 Z1.187 F600.000
G1 X177.093 Y-106.491 Z0.880 F600.000
G1 X177.121 Y-106.343 Z0.562 F600.000
G1 X177.206 Y-106.219 Z0.245 F600.000
G1 X177.343 Y-106.121 Z-0.063 F600.000
G1 X177.503 Y-106.091 Z-0.373 F600.000
G1 X177.654 Y-106.121 Z-0.689 F600.000
G1 X177.790 Y-106.210 Z-1.000 F600.000
G1 X177.878 Y-106.353 Z-1.113 F600.000
G1 X177.909 Y-106.505 Z-1.244 F600.000
G1 X177.880 Y-106.652 Z-1.381 F600.000
G1 X177.793 Y-106.780 Z-1.512 F600.000
G1 X177.657 Y-106.879 Z-1.625 F600.000
G1 X177.495 Y-106.908 Z-1.744 F600.000
G1 X177.343 Y-106.879 Z-1.875 F600.000
G1 X177.215 Y-106.792 Z-2.006 F600.000
G1 X177.121 Y-106.657 Z-2.125 F600.000
G1 X177.092 Y-106.495 Z-2.244 F600.000
G1 X177.121 Y-106.343 Z-2.375 F600.000
G1 X177.208 Y-106.215 Z-2.506 F600.000
G1 X177.343 Y-106.121 Z-2.625 F600.000
G1 X177.502 Y-106.090 Z-2.748 F600.000
G1 X177.655 Y-106.121 Z-2.877 F600.000
G1 X177.790 Y-106.210 Z-3.000 F600.000
G1 X177.878 Y-106.353 Z-3.113 F600.000
G1 X177.909 Y-106.505 Z-3.244 F600.000
G1 X177.880 Y-106.652 Z-3.381 F600.000
G1 X177.793 Y-106.780 Z-3.512 F600.000
G1 X177.657 Y-106.879 Z-3.625 F600.000
G1 X177.495 Y-106.908 Z-3.744 F600.000
G1 X177.343 Y-106.879 Z-3.875 F600.000
G1 X177.215 Y-106.792 Z-4.006 F600.000
G1 X177.121 Y-106.657 Z-4.125 F600.000
G1 X177.092 Y-106.495 Z-4.244 F600.000
G1 X177.121 Y-106.343 Z-4.375 F600.000
G1 X177.208 Y-106.215 Z-4.506 F600.000
G1 X177.343 Y-106.121 Z-4.625 F600.000
G1 X177.502 Y-106.090 Z-4.748 F600.000
G1 X177.655 Y-106.121 Z-4.877 F600.000
G1 X177.790 Y-106.210 Z-5.000 F600.000
G1 X177.878 Y-106.353 Z-5.113 F600.000
G1 X177.909 Y-106.505 Z-5.244 F600.000
G1 X177.880 Y-106.652 Z-5.381 F600.000
G1 X177.793 Y-106.780 Z-5.512 F600.000
G1 X177.657 Y-106.879 Z-5.625 F600.000
G1 X177.495 Y-106.908 Z-5.744 F600.000
G1 X177.343 Y-106.879 Z-5.875 F600.000
G1 X177.215 Y-106.792 Z-6.006 F600.000
G1 X177.121 Y-106.657 Z-6.125 F600.000
G1 X177.092 Y-106.495 Z-6.244 F600.000
G1 X177.121 Y-106.343 Z-6.375 F600.000
G1 X177.208 Y-106.215 Z-6.506 F600.000
G1 X177.343 Y-106.121 Z-6.625 F600.000
G1 X177.502 Y-106.090 Z-6.748 F600.000
G1 X177.655 Y-106.121 Z-6.877 F600.000
G1 X177.790 Y-106.210 Z-7.000 F600.000
G1 X177.878 Y-106.353 Z-7.113 F600.000
G1 X177.909 Y-106.505 Z-7.244 F600.000
G1 X177.880 Y-106.652 Z-7.381 F600.000
G1 X177.793 Y-106.780 Z-7.512 F600.000
G1 X177.657 Y-106.879 Z-7.625 F600.000
G1 X177.495 Y-106.908 Z-7.744 F600.000
G1 X177.343 Y-106.879 Z-7.875 F600.000
G1 X177.215 Y-106.792 Z-8.006 F600.000
G1 X177.121 Y-106.657 Z-8.125 F600.000
G1 X177.092 Y-106.495 Z-8.244 F600.000
G1 X177.121 Y-106.343 Z-8.375 F600.000
G1 X177.208 Y-106.215 Z-8.506 F600.000
G1 X177.343 Y-106.121 Z-8.625 F600.000
G1 X177.502 Y-106.090 Z-8.748 F600.000
G1 X177.655 Y-106.121 Z-8.877 F600.000
G1 X177.790 Y-106.210 Z-9.000 F600.000
G1 X177.878 Y-106.347 Z-9.054 F600.000
G1 X177.910 Y-106.502 Z-9.120 F600.000
G1 X177.879 Y-106.655 Z-9.192 F600.000
G1 X177.791 Y-106.786 Z-9.259 F600.000
G1 X177.657 Y-106.879 Z-9.312 F600.000
G1 X177.498 Y-106.909 Z-9.371 F600.000
G1 X177.343 Y-106.879 Z-9.437 F600.000
G1 X177.212 Y-106.791 Z-9.504 F600.000
G1 X177.121 Y-106.657 Z-9.562 F600.000
G1 X177.091 Y-106.498 Z-9.621 F600.000
G1 X177.121 Y-106.343 Z-9.687 F600.000
G1 X177.209 Y-106.212 Z-9.754 F600.000
G1 X177.343 Y-106.121 Z-9.812 F600.000
G1 X177.501 Y-106.090 Z-9.874 F600.000
G1 X177.656 Y-106.121 Z-9.939 F600.000
G1 X177.790 Y-106.210 Z-10.000 F600.000
G2 X177.657 Y-106.879 Z-10.000 I-0.290 J-0.290 K0.000 F600.000
G2 X177.121 Y-106.657 Z-10.000 I-0.157 J0.379 K0.000 F600.000
G2 X177.343 Y-106.121 Z-10.000 I0.379 J0.157 K0.000 F600.000
G2 X177.790 Y-106.210 Z-10.000 I0.157 J-0.379 K0.000 F600.000
G0 X177.790 Y-106.210 Z6.000
(Finish operation: RampEntryDressup007)
(Begin operation: RampEntryDressup008)
(Path: RampEntryDressup008)
G0 X0.000 Y0.000 Z6.000
G0 X94.790 Y-106.210 Z6.000
G0 X94.790 Y-106.210 Z4.000
G1 X94.878 Y-106.363 Z3.697 F600.000
G1 X94.908 Y-106.510 Z3.380 F600.000
G1 X94.881 Y-106.647 Z3.058 F600.000
G1 X94.796 Y-106.771 Z2.741 F600.000
G1 X94.657 Y-106.879 Z2.438 F600.000
G1 X94.491 Y-106.907 Z2.130 F600.000
G1 X94.343 Y-106.879 Z1.812 F600.000
G1 X94.219 Y-106.794 Z1.495 F600.000
G1 X94.121 Y-106.657 Z1.187 F600.000
G1 X94.093 Y-106.491 Z0.880 F600.000
G1 X94.121 Y-106.343 Z0.562 F600.000
G1 X94.206 Y-106.219 Z0.245 F600.000
G1 X94.343 Y-106.121 Z-0.063 F600.000
G1 X94.503 Y-106.091 Z-0.373 F600.000
G1 X94.654 Y-106.121 Z-0.689 F600.000
G1 X94.790 Y-106.210 Z-1.000 F600.000
G1 X94.878 Y-106.353 Z-1.113 F600.000
G1 X94.909 Y-106.505 Z-1.244 F600.000
G1 X94.880 Y-106.652 Z-1.381 F600.000
G1 X94.793 Y-106.780 Z-1.512 F600.000
G1 X94.657 Y-106.879 Z-1.625 F600.000
G1 X94.495 Y-106.908 Z-1.744 F600.000
G1 X94.343 Y-106.879 Z-1.875 F600.000
G1 X94.215 Y-106.792 Z-2.006 F600.000
G1 X94.121 Y-106.657 Z-2.125 F600.000
G1 X94.092 Y-106.495 Z-2.244 F600.000
G1 X94.121 Y-106.343 Z-2.375 F600.000
G1 X94.208 Y-106.215 Z-2.506 F600.000
G1 X94.343 Y-106.121 Z-2.625 F600.000
G1 X94.502 Y-106.090 Z-2.748 F600.000
G1 X94.655 Y-106.121 Z-2.877 F600.000
G1 X94.790 Y-106.210 Z-3.000 F600.000
G1 X94.878 Y-106.353 Z-3.113 F600.000
G1 X94.909 Y-106.505 Z-3.244 F600.000
G1 X94.880 Y-106.652 Z-3.381 F600.000
G1 X94.793 Y-106.780 Z-3.512 F600.000
G1 X94.657 Y-106.879 Z-3.625 F600.000
G1 X94.495 Y-106.908 Z-3.744 F600.000
G1 X94.343 Y-106.879 Z-3.875 F600.000
G1 X94.215 Y-106.792 Z-4.006 F600.000
G1 X94.121 Y-106.657 Z-4.125 F600.000
G1 X94.092 Y-106.495 Z-4.244 F600.000
G1 X94.121 Y-106.343 Z-4.375 F600.000
G1 X94.208 Y-106.215 Z-4.506 F600.000
G1 X94.343 Y-106.121 Z-4.625 F600.000
G1 X94.502 Y-106.090 Z-4.748 F600.000
G1 X94.655 Y-106.121 Z-4.877 F600.000
G1 X94.790 Y-106.210 Z-5.000 F600.000
G1 X94.878 Y-106.353 Z-5.113 F600.000
G1 X94.909 Y-106.505 Z-5.244 F600.000
G1 X94.880 Y-106.652 Z-5.381 F600.000
G1 X94.793 Y-106.780 Z-5.512 F600.000
G1 X94.657 Y-106.879 Z-5.625 F600.000
G1 X94.495 Y-106.908 Z-5.744 F600.000
G1 X94.343 Y-106.879 Z-5.875 F600.000
G1 X94.215 Y-106.792 Z-6.006 F600.000
G1 X94.121 Y-106.657 Z-6.125 F600.000
G1 X94.092 Y-106.495 Z-6.244 F600.000
G1 X94.121 Y-106.343 Z-6.375 F600.000
G1 X94.208 Y-106.215 Z-6.506 F600.000
G1 X94.343 Y-106.121 Z-6.625 F600.000
G1 X94.502 Y-106.090 Z-6.748 F600.000
G1 X94.655 Y-106.121 Z-6.877 F600.000
G1 X94.790 Y-106.210 Z-7.000 F600.000
G1 X94.878 Y-106.353 Z-7.113 F600.000
G1 X94.909 Y-106.505 Z-7.244 F600.000
G1 X94.880 Y-106.652 Z-7.381 F600.000
G1 X94.793 Y-106.780 Z-7.512 F600.000
G1 X94.657 Y-106.879 Z-7.625 F600.000
G1 X94.495 Y-106.908 Z-7.744 F600.000
G1 X94.343 Y-106.879 Z-7.875 F600.000
G1 X94.215 Y-106.792 Z-8.006 F600.000
G1 X94.121 Y-106.657 Z-8.125 F600.000
G1 X94.092 Y-106.495 Z-8.244 F600.000
G1 X94.121 Y-106.343 Z-8.375 F600.000
G1 X94.208 Y-106.215 Z-8.506 F600.000
G1 X94.343 Y-106.121 Z-8.625 F600.000
G1 X94.502 Y-106.090 Z-8.748 F600.000
G1 X94.655 Y-106.121 Z-8.877 F600.000
G1 X94.790 Y-106.210 Z-9.000 F600.000
G1 X94.878 Y-106.347 Z-9.054 F600.000
G1 X94.910 Y-106.502 Z-9.120 F600.000
G1 X94.879 Y-106.655 Z-9.192 F600.000
G1 X94.791 Y-106.786 Z-9.259 F600.000
G1 X94.657 Y-106.879 Z-9.312 F600.000
G1 X94.498 Y-106.909 Z-9.371 F600.000
G1 X94.343 Y-106.879 Z-9.437 F600.000
G1 X94.212 Y-106.791 Z-9.504 F600.000
G1 X94.121 Y-106.657 Z-9.562 F600.000
G1 X94.091 Y-106.498 Z-9.621 F600.000
G1 X94.121 Y-106.343 Z-9.687 F600.000
G1 X94.209 Y-106.212 Z-9.754 F600.000
G1 X94.343 Y-106.121 Z-9.812 F600.000
G1 X94.501 Y-106.090 Z-9.874 F600.000
G1 X94.656 Y-106.121 Z-9.939 F600.000
G1 X94.790 Y-106.210 Z-10.000 F600.000
G2 X94.657 Y-106.879 Z-10.000 I-0.290 J-0.290 K0.000 F600.000
G2 X94.121 Y-106.657 Z-10.000 I-0.157 J0.379 K0.000 F600.000
G2 X94.343 Y-106.121 Z-10.000 I0.379 J0.157 K0.000 F600.000
G2 X94.790 Y-106.210 Z-10.000 I0.157 J-0.379 K0.000 F600.000
G0 X94.790 Y-106.210 Z6.000
(Finish operation: RampEntryDressup008)
(Begin operation: Pocket_Shape001)
(Path: Pocket_Shape001)
(Pocket_Shape001)
G0 Z6.000
G0 X96.914 Y-21.086
G0 Z4.000
G1 X96.914 Y-21.086 Z-1.000 F300.000
G2 X94.714 Y-26.908 Z-1.000 I-2.414 J-2.414 K0.000 F600.000
G2 X91.092 Y-23.714 Z-1.000 I-0.214 J3.408 K0.000 F600.000
G2 X94.286 Y-20.092 Z-1.000 I3.408 J0.214 K0.000 F600.000
G2 X96.914 Y-21.086 Z-1.000 I0.214 J-3.408 K0.000 F600.000
G0 Z6.000
G0 X96.989 Y-25.837 Z6.000
G0 X96.989 Y-25.837 Z4.000
G1 X96.989 Y-25.837 Z-1.000 F300.000
G3 X97.079 Y-21.271 Z-1.000 I-2.477 J2.333 K0.000 F600.000
G1 X92.270 Y-26.080 Z-1.000 F600.000
G2 X91.186 Y-22.689 Z-1.000 I2.211 J2.576 K0.000 F600.000
G2 X93.683 Y-20.192 Z-1.000 I3.291 J-0.794 K0.000 F600.000
G1 X91.186 Y-22.689 Z-1.000 F600.000
G1 X91.186 Y-22.689 Z-3.000 F300.000
G1 X93.683 Y-20.192 Z-3.000 F600.000
G3 X91.186 Y-22.689 Z-3.000 I0.794 J-3.291 K0.000 F600.000
G3 X92.270 Y-26.080 Z-3.000 I3.295 J-0.816 K0.000 F600.000
G1 X97.079 Y-21.271 Z-3.000 F600.000
G2 X96.989 Y-25.837 Z-3.000 I-2.567 J-2.233 K0.000 F600.000
G0 Z6.000
G0 X96.989 Y-25.837 Z6.000
G0 X96.989 Y-25.837 Z4.000
G1 X96.989 Y-25.837 Z-3.000 F300.000
G2 X94.714 Y-26.908 Z-3.000 I-2.489 J2.337 K0.000 F600.000
G2 X91.092 Y-23.714 Z-3.000 I-0.214 J3.408 K0.000 F600.000
G2 X94.286 Y-20.092 Z-3.000 I3.408 J0.214 K0.000 F600.000
G2 X96.989 Y-25.837 Z-3.000 I0.214 J-3.408 K0.000 F600.000
G1 X96.989 Y-25.837 Z-4.000 F300.000
G2 X94.714 Y-26.908 Z-4.000 I-2.489 J2.337 K0.000 F600.000
G2 X91.092 Y-23.714 Z-4.000 I-0.214 J3.408 K0.000 F600.000
G2 X94.286 Y-20.092 Z-4.000 I3.408 J0.214 K0.000 F600.000
G2 X96.989 Y-25.837 Z-4.000 I0.214 J-3.408 K0.000 F600.000
G0 Z6.000
G0 X96.989 Y-25.837 Z6.000
G0 X96.989 Y-25.837 Z4.000
G1 X96.989 Y-25.837 Z-4.000 F300.000
G3 X97.079 Y-21.271 Z-4.000 I-2.477 J2.333 K0.000 F600.000
G1 X92.270 Y-26.080 Z-4.000 F600.000
G2 X91.186 Y-22.689 Z-4.000 I2.211 J2.576 K0.000 F600.000
G2 X93.683 Y-20.192 Z-4.000 I3.291 J-0.794 K0.000 F600.000
G1 X91.186 Y-22.689 Z-4.000 F600.000
G0 Z6.000
G0 Z6.000
G0 X91.186 Y-22.689
G0 X94.365 Y-103.088
G0 X94.365 Y-103.088 Z4.000
G1 X94.365 Y-103.088 Z-1.000 F300.000
G2 X94.714 Y-109.908 Z-1.000 I0.135 J-3.412 K0.000 F600.000
G2 X91.092 Y-106.714 Z-1.000 I-0.214 J3.408 K0.000 F600.000
G2 X94.286 Y-103.092 Z-1.000 I3.408 J0.214 K0.000 F600.000
G2 X94.365 Y-103.088 Z-1.000 I0.214 J-3.408 K0.000 F600.000
G0 Z6.000
G0 X91.186 Y-105.689 Z6.000
G0 X91.186 Y-105.689 Z4.000
G1 X91.186 Y-105.689 Z-1.000 F300.000
G1 X93.683 Y-103.192 Z-1.000 F600.000
G3 X91.186 Y-105.689 Z-1.000 I0.794 J-3.291 K0.000 F600.000
G3 X92.270 Y-109.080 Z-1.000 I3.295 J-0.816 K0.000 F600.000
G1 X97.079 Y-104.271 Z-1.000 F600.000
G2 X96.989 Y-108.837 Z-1.000 I-2.567 J-2.233 K0.000 F600.000
G1 X96.989 Y-108.837 Z-3.000 F300.000
G3 X97.079 Y-104.271 Z-3.000 I-2.477 J2.333 K0.000 F600.000
G1 X92.270 Y-109.080 Z-3.000 F600.000
G2 X91.186 Y-105.689 Z-3.000 I2.211 J2.576 K0.000 F600.000
G2 X93.683 Y-103.192 Z-3.000 I3.291 J-0.794 K0.000 F600.000
G1 X91.186 Y-105.689 Z-3.000 F600.000
G0 Z6.000
G0 X91.184 Y-105.688 Z6.000
G0 X91.184 Y-105.688 Z4.000
G1 X91.184 Y-105.688 Z-3.000 F300.000
G2 X94.286 Y-103.092 Z-3.000 I3.316 J-0.812 K0.000 F600.000
G2 X94.714 Y-109.908 Z-3.000 I0.214 J-3.408 K0.000 F600.000
G2 X91.184 Y-105.688 Z-3.000 I-0.214 J3.408 K0.000 F600.000
G1 X91.184 Y-105.688 Z-4.000 F300.000
G2 X94.286 Y-103.092 Z-4.000 I3.316 J-0.812 K0.000 F600.000
G2 X94.714 Y-109.908 Z-4.000 I0.214 J-3.408 K0.000 F600.000
G2 X91.184 Y-105.688 Z-4.000 I-0.214 J3.408 K0.000 F600.000
G0 Z6.000
G0 X91.186 Y-105.689 Z6.000
G0 X91.186 Y-105.689 Z4.000
G1 X91.186 Y-105.689 Z-4.000 F300.000
G1 X93.683 Y-103.192 Z-4.000 F600.000
G3 X91.186 Y-105.689 Z-4.000 I0.794 J-3.291 K0.000 F600.000
G3 X92.270 Y-109.080 Z-4.000 I3.295 J-0.816 K0.000 F600.000
G1 X97.079 Y-104.271 Z-4.000 F600.000
G2 X96.989 Y-108.837 Z-4.000 I-2.567 J-2.233 K0.000 F600.000
G0 Z6.000
G0 Z6.000
G0 X96.989 Y-108.837
G0 X174.087 Y-106.599
G0 X174.087 Y-106.599 Z4.000
G1 X174.087 Y-106.599 Z-1.000 F300.000
G2 X174.086 Y-106.500 Z-1.000 I3.413 J0.099 K0.000 F600.000
G2 X180.914 Y-106.500 Z-1.000 I3.414 J-0.000 K0.000 F600.000
G2 X174.087 Y-106.599 Z-1.000 I-3.414 J0.000 K0.000 F600.000
G0 Z6.000
G0 X176.683 Y-109.808 Z6.000
G0 X176.683 Y-109.808 Z4.000
G1 X176.683 Y-109.808 Z-1.000 F300.000
G1 X174.186 Y-107.311 Z-1.000 F600.000
G3 X176.683 Y-109.808 Z-1.000 I3.291 J0.794 K0.000 F600.000
G3 X180.079 Y-108.729 Z-1.000 I0.831 J3.268 K0.000 F600.000
G1 X175.270 Y-103.920 Z-1.000 F600.000
G2 X179.989 Y-104.163 Z-1.000 I2.233 J-2.572 K0.000 F600.000
G1 X179.989 Y-104.163 Z-3.000 F300.000
G3 X175.270 Y-103.920 Z-3.000 I-2.486 J-2.329 K0.000 F600.000
G1 X180.079 Y-108.729 Z-3.000 F600.000
G2 X176.683 Y-109.808 Z-3.000 I-2.566 J2.189 K0.000 F600.000
G2 X174.186 Y-107.311 Z-3.000 I0.794 J3.291 K0.000 F600.000
G1 X176.683 Y-109.808 Z-3.000 F600.000
G0 Z6.000
G0 X176.681 Y-109.815 Z6.000
G0 X176.681 Y-109.815 Z4.000
G1 X176.681 Y-109.815 Z-3.000 F300.000
G2 X174.086 Y-106.500 Z-3.000 I0.819 J3.315 K0.000 F600.000
G2 X180.914 Y-106.500 Z-3.000 I3.414 J-0.000 K0.000 F600.000
G2 X176.681 Y-109.815 Z-3.000 I-3.414 J0.000 K0.000 F600.000
G1 X176.681 Y-109.815 Z-4.000 F300.000
G2 X174.086 Y-106.500 Z-4.000 I0.819 J3.315 K0.000 F600.000
G2 X180.914 Y-106.500 Z-4.000 I3.414 J-0.000 K0.000 F600.000
G2 X176.681 Y-109.815 Z-4.000 I-3.414 J0.000 K0.000 F600.000
G0 Z6.000
G0 X176.683 Y-109.808 Z6.000
G0 X176.683 Y-109.808 Z4.000
G1 X176.683 Y-109.808 Z-4.000 F300.000
G1 X174.186 Y-107.311 Z-4.000 F600.000
G3 X176.683 Y-109.808 Z-4.000 I3.291 J0.794 K0.000 F600.000
G3 X180.079 Y-108.729 Z-4.000 I0.831 J3.268 K0.000 F600.000
G1 X175.270 Y-103.920 Z-4.000 F600.000
G2 X179.989 Y-104.163 Z-4.000 I2.233 J-2.572 K0.000 F600.000
G0 Z6.000
G0 Z6.000
G0 X179.989 Y-104.163
G0 X177.605 Y-26.913
G0 X177.605 Y-26.913 Z4.000
G1 X177.605 Y-26.913 Z-1.000 F300.000
G2 X177.286 Y-20.092 Z-1.000 I-0.105 J3.413 K0.000 F600.000
G2 X180.908 Y-23.286 Z-1.000 I0.214 J-3.408 K0.000 F600.000
G2 X177.714 Y-26.908 Z-1.000 I-3.408 J-0.214 K0.000 F600.000
G2 X177.605 Y-26.913 Z-1.000 I-0.214 J3.408 K0.000 F600.000
G0 Z6.000
G0 X179.989 Y-25.837 Z6.000
G0 X179.989 Y-25.837 Z4.000
G1 X179.989 Y-25.837 Z-1.000 F300.000
G3 X180.079 Y-21.271 Z-1.000 I-2.477 J2.333 K0.000 F600.000
G1 X175.270 Y-26.080 Z-1.000 F600.000
G2 X174.186 Y-22.689 Z-1.000 I2.211 J2.576 K0.000 F600.000
G2 X176.683 Y-20.192 Z-1.000 I3.291 J-0.794 K0.000 F600.000
G1 X174.186 Y-22.689 Z-1.000 F600.000
G1 X174.186 Y-22.689 Z-3.000 F300.000
G1 X176.683 Y-20.192 Z-3.000 F600.000
G3 X174.186 Y-22.689 Z-3.000 I0.794 J-3.291 K0.000 F600.000
G3 X175.270 Y-26.080 Z-3.000 I3.295 J-0.816 K0.000 F600.000
G1 X180.079 Y-21.271 Z-3.000 F600.000
G2 X179.989 Y-25.837 Z-3.000 I-2.567 J-2.233 K0.000 F600.000
G0 Z6.000
G0 X179.989 Y-25.837 Z6.000
G0 X179.989 Y-25.837 Z4.000
G1 X179.989 Y-25.837 Z-3.000 F300.000
G2 X177.714 Y-26.908 Z-3.000 I-2.489 J2.337 K0.000 F600.000
G2 X177.286 Y-20.092 Z-3.000 I-0.214 J3.408 K0.000 F600.000
G2 X179.989 Y-25.837 Z-3.000 I0.214 J-3.408 K0.000 F600.000
G1 X179.989 Y-25.837 Z-4.000 F300.000
G2 X177.714 Y-26.908 Z-4.000 I-2.489 J2.337 K0.000 F600.000
G2 X177.286 Y-20.092 Z-4.000 I-0.214 J3.408 K0.000 F600.000
G2 X179.989 Y-25.837 Z-4.000 I0.214 J-3.408 K0.000 F600.000
G0 Z6.000
G0 X179.989 Y-25.837 Z6.000
G0 X179.989 Y-25.837 Z4.000
G1 X179.989 Y-25.837 Z-4.000 F300.000
G3 X180.079 Y-21.271 Z-4.000 I-2.477 J2.333 K0.000 F600.000
G1 X175.270 Y-26.080 Z-4.000 F600.000
G2 X174.186 Y-22.689 Z-4.000 I2.211 J2.576 K0.000 F600.000
G2 X176.683 Y-20.192 Z-4.000 I3.291 J-0.794 K0.000 F600.000
G1 X174.186 Y-22.689 Z-4.000 F600.000
G0 Z6.000
G0 Z6.000
(Finish operation: Pocket_Shape001)
(Begin operation: RampEntryDressup011)
(Path: RampEntryDressup011)
G0 X0.000 Y0.000 Z6.000
G0 X165.286 Y-35.713 Z6.000
G0 X165.286 Y-35.713 Z4.000
G1 X177.171 Y-47.598 Z2.983 F600.000
G1 X177.445 Y-47.912 Z2.965 F600.000
G1 X177.662 Y-48.267 Z2.943 F600.000
G1 X177.814 Y-48.655 Z2.918 F600.000
G1 X177.898 Y-49.062 Z2.891 F600.000
G1 X177.910 Y-49.478 Z2.862 F600.000
G1 X177.852 Y-49.890 Z2.831 F600.000
G1 X177.723 Y-50.285 Z2.801 F600.000
G1 X177.528 Y-50.653 Z2.772 F600.000
G1 X177.273 Y-50.982 Z2.744 F600.000
G1 X176.966 Y-51.262 Z2.719 F600.000
G1 X176.615 Y-51.486 Z2.698 F600.000
G1 X176.230 Y-51.646 Z2.680 F600.000
G1 X175.856 Y-51.733 Z2.658 F600.000
G1 X175.472 Y-51.759 Z2.635 F600.000
G1 X175.090 Y-51.724 Z2.611 F600.000
G1 X174.717 Y-51.630 Z2.586 F600.000
G1 X174.365 Y-51.477 Z2.562 F600.000
G1 X174.040 Y-51.271 Z2.539 F600.000
G1 X173.752 Y-51.017 Z2.517 F600.000
G1 X149.982 Y-27.246 Z0.483 F600.000
G1 X149.739 Y-26.970 Z0.460 F600.000
G1 X149.510 Y-26.605 Z0.455 F600.000
G1 X149.348 Y-26.206 Z0.442 F600.000
G1 X149.260 Y-25.784 Z0.423 F600.000
G1 X149.247 Y-25.354 Z0.398 F600.000
G1 X149.311 Y-24.929 Z0.368 F600.000
G1 X149.449 Y-24.522 Z0.334 F600.000
G1 X149.656 Y-24.147 Z0.297 F600.000
G1 X149.927 Y-23.814 Z0.259 F600.000
G1 X150.252 Y-23.534 Z0.219 F600.000
G1 X150.623 Y-23.317 Z0.180 F600.000
G1 X151.025 Y-23.169 Z0.143 F600.000
G1 X151.449 Y-23.094 Z0.109 F600.000
G1 X151.878 Y-23.096 Z0.080 F600.000
G1 X152.301 Y-23.174 Z0.055 F600.000
G1 X152.704 Y-23.325 Z0.036 F600.000
G1 X153.075 Y-23.545 Z0.023 F600.000
G1 X153.400 Y-23.827 Z0.017 F600.000
G1 X165.286 Y-35.713 Z-1.000 F600.000
G1 X177.171 Y-47.598 Z-1.407 F600.000
G1 X177.445 Y-47.911 Z-1.414 F600.000
G1 X177.662 Y-48.267 Z-1.423 F600.000
G1 X177.814 Y-48.654 Z-1.433 F600.000
G1 X177.898 Y-49.062 Z-1.444 F600.000
G1 X177.911 Y-49.478 Z-1.455 F600.000
G1 X177.852 Y-49.890 Z-1.467 F600.000
G1 X177.723 Y-50.285 Z-1.480 F600.000
G1 X177.528 Y-50.653 Z-1.491 F600.000
G1 X177.273 Y-50.982 Z-1.502 F600.000
G1 X176.966 Y-51.263 Z-1.512 F600.000
G1 X176.614 Y-51.486 Z-1.521 F600.000
G1 X176.230 Y-51.646 Z-1.528 F600.000
G1 X175.856 Y-51.733 Z-1.537 F600.000
G1 X175.472 Y-51.759 Z-1.546 F600.000
G1 X175.090 Y-51.724 Z-1.556 F600.000
G1 X174.717 Y-51.630 Z-1.565 F600.000
G1 X174.365 Y-51.477 Z-1.575 F600.000
G1 X174.040 Y-51.271 Z-1.584 F600.000
G1 X173.752 Y-51.017 Z-1.593 F600.000
G1 X149.982 Y-27.246 Z-2.407 F600.000
G1 X149.739 Y-26.970 Z-2.416 F600.000
G1 X149.509 Y-26.606 Z-2.418 F600.000
G1 X149.347 Y-26.207 Z-2.423 F600.000
G1 X149.258 Y-25.786 Z-2.431 F600.000
G1 X149.245 Y-25.357 Z-2.441 F600.000
G1 X149.309 Y-24.931 Z-2.453 F600.000
G1 X149.447 Y-24.524 Z-2.466 F600.000
G1 X149.655 Y-24.147 Z-2.481 F600.000
G1 X149.927 Y-23.814 Z-2.497 F600.000
G1 X150.253 Y-23.534 Z-2.512 F600.000
G1 X150.624 Y-23.316 Z-2.528 F600.000
G1 X151.027 Y-23.168 Z-2.543 F600.000
G1 X151.451 Y-23.093 Z-2.556 F600.000
G1 X151.881 Y-23.095 Z-2.568 F600.000
G1 X152.304 Y-23.173 Z-2.578 F600.000
G1 X152.706 Y-23.324 Z-2.586 F600.000
G1 X153.076 Y-23.545 Z-2.591 F600.000
G1 X153.400 Y-23.827 Z-2.593 F600.000
G1 X165.286 Y-35.713 Z-3.000 F600.000
G1 X177.171 Y-47.598 Z-3.407 F600.000
G1 X177.445 Y-47.911 Z-3.414 F600.000
G1 X177.662 Y-48.267 Z-3.423 F600.000
G1 X177.814 Y-48.654 Z-3.433 F600.000
G1 X177.898 Y-49.062 Z-3.444 F600.000
G1 X177.911 Y-49.478 Z-3.455 F600.000
G1 X177.852 Y-49.890 Z-3.467 F600.000
G1 X177.723 Y-50.285 Z-3.480 F600.000
G1 X177.528 Y-50.653 Z-3.491 F600.000
G1 X177.273 Y-50.982 Z-3.502 F600.000
G1 X176.966 Y-51.263 Z-3.512 F600.000
G1 X176.614 Y-51.486 Z-3.521 F600.000
G1 X176.230 Y-51.646 Z-3.528 F600.000
G1 X175.856 Y-51.733 Z-3.537 F600.000
G1 X175.472 Y-51.759 Z-3.546 F600.000
G1 X175.090 Y-51.724 Z-3.556 F600.000
G1 X174.717 Y-51.630 Z-3.565 F600.000
G1 X174.365 Y-51.477 Z-3.575 F600.000
G1 X174.040 Y-51.271 Z-3.584 F600.000
G1 X173.752 Y-51.017 Z-3.593 F600.000
G1 X149.982 Y-27.246 Z-4.407 F600.000
G1 X149.739 Y-26.970 Z-4.416 F600.000
G1 X149.509 Y-26.606 Z-4.418 F600.000
G1 X149.347 Y-26.207 Z-4.423 F600.000
G1 X149.258 Y-25.786 Z-4.431 F600.000
G1 X149.245 Y-25.357 Z-4.441 F600.000
G1 X149.309 Y-24.931 Z-4.453 F600.000
G1 X149.447 Y-24.524 Z-4.466 F600.000
G1 X149.655 Y-24.147 Z-4.481 F600.000
G1 X149.927 Y-23.814 Z-4.497 F600.000
G1 X150.253 Y-23.534 Z-4.512 F600.000
G1 X150.624 Y-23.316 Z-4.528 F600.000
G1 X151.027 Y-23.168 Z-4.543 F600.000
G1 X151.451 Y-23.093 Z-4.556 F600.000
G1 X151.881 Y-23.095 Z-4.568 F600.000
G1 X152.304 Y-23.173 Z-4.578 F600.000
G1 X152.706 Y-23.324 Z-4.586 F600.000
G1 X153.076 Y-23.545 Z-4.591 F600.000
G1 X153.400 Y-23.827 Z-4.593 F600.000
G1 X165.286 Y-35.713 Z-5.000 F600.000
G1 X177.171 Y-47.598 Z-5.407 F600.000
G1 X177.445 Y-47.911 Z-5.414 F600.000
G1 X177.662 Y-48.267 Z-5.423 F600.000
G1 X177.814 Y-48.654 Z-5.433 F600.000
G1 X177.898 Y-49.062 Z-5.444 F600.000
G1 X177.911 Y-49.478 Z-5.455 F600.000
G1 X177.852 Y-49.890 Z-5.467 F600.000
G1 X177.723 Y-50.285 Z-5.480 F600.000
G1 X177.528 Y-50.653 Z-5.491 F600.000
G1 X177.273 Y-50.982 Z-5.502 F600.000
G1 X176.966 Y-51.263 Z-5.512 F600.000
G1 X176.614 Y-51.486 Z-5.521 F600.000
G1 X176.230 Y-51.646 Z-5.528 F600.000
G1 X175.856 Y-51.733 Z-5.537 F600.000
G1 X175.472 Y-51.759 Z-5.546 F600.000
G1 X175.090 Y-51.724 Z-5.556 F600.000
G1 X174.717 Y-51.630 Z-5.565 F600.000
G1 X174.365 Y-51.477 Z-5.575 F600.000
G1 X174.040 Y-51.271 Z-5.584 F600.000
G1 X173.752 Y-51.017 Z-5.593 F600.000
G1 X149.982 Y-27.246 Z-6.407 F600.000
G1 X149.739 Y-26.970 Z-6.416 F600.000
G1 X149.509 Y-26.606 Z-6.418 F600.000
G1 X149.347 Y-26.207 Z-6.423 F600.000
G1 X149.258 Y-25.786 Z-6.431 F600.000
G1 X149.245 Y-25.357 Z-6.441 F600.000
G1 X149.309 Y-24.931 Z-6.453 F600.000
G1 X149.447 Y-24.524 Z-6.466 F600.000
G1 X149.655 Y-24.147 Z-6.481 F600.000
G1 X149.927 Y-23.814 Z-6.497 F600.000
G1 X150.253 Y-23.534 Z-6.512 F600.000
G1 X150.624 Y-23.316 Z-6.528 F600.000
G1 X151.027 Y-23.168 Z-6.543 F600.000
G1 X151.451 Y-23.093 Z-6.556 F600.000
G1 X151.881 Y-23.095 Z-6.568 F600.000
G1 X152.304 Y-23.173 Z-6.578 F600.000
G1 X152.706 Y-23.324 Z-6.586 F600.000
G1 X153.076 Y-23.545 Z-6.591 F600.000
G1 X153.400 Y-23.827 Z-6.593 F600.000
G1 X165.286 Y-35.713 Z-7.000 F600.000
G1 X177.171 Y-47.598 Z-7.407 F600.000
G1 X177.445 Y-47.911 Z-7.414 F600.000
G1 X177.662 Y-48.267 Z-7.423 F600.000
G1 X177.814 Y-48.654 Z-7.433 F600.000
G1 X177.898 Y-49.062 Z-7.444 F600.000
G1 X177.911 Y-49.478 Z-7.455 F600.000
G1 X177.852 Y-49.890 Z-7.467 F600.000
G1 X177.723 Y-50.285 Z-7.480 F600.000
G1 X177.528 Y-50.653 Z-7.491 F600.000
G1 X177.273 Y-50.982 Z-7.502 F600.000
G1 X176.966 Y-51.263 Z-7.512 F600.000
G1 X176.614 Y-51.486 Z-7.521 F600.000
G1 X176.230 Y-51.646 Z-7.528 F600.000
G1 X175.856 Y-51.733 Z-7.537 F600.000
G1 X175.472 Y-51.759 Z-7.546 F600.000
G1 X175.090 Y-51.724 Z-7.556 F600.000
G1 X174.717 Y-51.630 Z-7.565 F600.000
G1 X174.365 Y-51.477 Z-7.575 F600.000
G1 X174.040 Y-51.271 Z-7.584 F600.000
G1 X173.752 Y-51.017 Z-7.593 F600.000
G1 X149.982 Y-27.246 Z-8.407 F600.000
G1 X149.739 Y-26.970 Z-8.416 F600.000
G1 X149.509 Y-26.606 Z-8.418 F600.000
G1 X149.347 Y-26.207 Z-8.423 F600.000
G1 X149.258 Y-25.786 Z-8.431 F600.000
G1 X149.245 Y-25.357 Z-8.441 F600.000
G1 X149.309 Y-24.931 Z-8.453 F600.000
G1 X149.447 Y-24.524 Z-8.466 F600.000
G1 X149.655 Y-24.147 Z-8.481 F600.000
G1 X149.927 Y-23.814 Z-8.497 F600.000
G1 X150.253 Y-23.534 Z-8.512 F600.000
G1 X150.624 Y-23.316 Z-8.528 F600.000
G1 X151.027 Y-23.168 Z-8.543 F600.000
G1 X151.451 Y-23.093 Z-8.556 F600.000
G1 X151.881 Y-23.095 Z-8.568 F600.000
G1 X152.304 Y-23.173 Z-8.578 F600.000
G1 X152.706 Y-23.324 Z-8.586 F600.000
G1 X153.076 Y-23.545 Z-8.591 F600.000
G1 X153.400 Y-23.827 Z-8.593 F600.000
G1 X165.286 Y-35.713 Z-9.000 F600.000
G1 X177.171 Y-47.598 Z-9.203 F600.000
G1 X177.445 Y-47.911 Z-9.207 F600.000
G1 X177.662 Y-48.267 Z-9.211 F600.000
G1 X177.814 Y-48.654 Z-9.216 F600.000
G1 X177.898 Y-49.062 Z-9.222 F600.000
G1 X177.911 Y-49.478 Z-9.228 F600.000
G1 X177.852 Y-49.890 Z-9.234 F600.000
G1 X177.723 Y-50.285 Z-9.240 F600.000
G1 X177.528 Y-50.653 Z-9.246 F600.000
G1 X177.273 Y-50.982 Z-9.251 F600.000
G1 X176.966 Y-51.263 Z-9.256 F600.000
G1 X176.614 Y-51.486 Z-9.260 F600.000
G1 X176.230 Y-51.646 Z-9.264 F600.000
G1 X175.856 Y-51.733 Z-9.268 F600.000
G1 X175.472 Y-51.759 Z-9.273 F600.000
G1 X175.090 Y-51.724 Z-9.278 F600.000
G1 X174.717 Y-51.630 Z-9.283 F600.000
G1 X174.365 Y-51.477 Z-9.288 F600.000
G1 X174.040 Y-51.271 Z-9.292 F600.000
G1 X173.752 Y-51.017 Z-9.297 F600.000
G1 X149.982 Y-27.246 Z-9.703 F600.000
G1 X149.739 Y-26.970 Z-9.708 F600.000
G1 X149.509 Y-26.606 Z-9.709 F600.000
G1 X149.347 Y-26.208 Z-9.712 F600.000
G1 X149.258 Y-25.787 Z-9.715 F600.000
G1 X149.245 Y-25.357 Z-9.720 F600.000
G1 X149.309 Y-24.931 Z-9.726 F600.000
G1 X149.447 Y-24.524 Z-9.733 F600.000
G1 X149.655 Y-24.148 Z-9.741 F600.000
G1 X149.927 Y-23.814 Z-9.748 F600.000
G1 X150.253 Y-23.534 Z-9.756 F600.000
G1 X150.624 Y-23.316 Z-9.764 F600.000
G1 X151.027 Y-23.168 Z-9.771 F600.000
G1 X151.451 Y-23.093 Z-9.778 F600.000
G1 X151.881 Y-23.094 Z-9.784 F600.000
G1 X152.304 Y-23.172 Z-9.789 F600.000
G1 X152.707 Y-23.324 Z-9.793 F600.000
G1 X153.076 Y-23.545 Z-9.795 F600.000
G1 X153.400 Y-23.827 Z-9.797 F600.000
G1 X165.286 Y-35.713 Z-10.000 F600.000
G1 X177.171 Y-47.598 Z-10.000 F600.000
G2 X176.230 Y-51.646 Z-10.000 I-1.675 J-1.744 K0.000 F600.000
G2 X173.752 Y-51.017 Z-10.000 I-0.731 J2.315 K0.000 F600.000
G1 X149.982 Y-27.246 Z-10.000 F600.000
G1 X149.739 Y-26.970 Z-10.000 F600.000
G2 X153.400 Y-23.827 Z-10.000 I1.918 J1.469 K0.000 F600.000
G1 X165.286 Y-35.713 Z-10.000 F600.000
G0 X165.286 Y-35.713 Z6.000
(Finish operation: RampEntryDressup011)
(Begin operation: RampEntryDressup012)
(Path: RampEntryDressup012)
G0 X0.000 Y0.000 Z6.000
G0 X156.093 Y-44.905 Z6.000
G0 X156.093 Y-44.905 Z4.000
G1 X177.171 Y-65.983 Z2.893 F600.000
G1 X177.445 Y-66.296 Z2.882 F600.000
G1 X177.662 Y-66.652 Z2.869 F600.000
G1 X177.814 Y-67.039 Z2.853 F600.000
G1 X177.898 Y-67.447 Z2.836 F600.000
G1 X177.911 Y-67.863 Z2.818 F600.000
G1 X177.852 Y-68.274 Z2.800 F600.000
G1 X177.723 Y-68.670 Z2.781 F600.000
G1 X177.528 Y-69.038 Z2.763 F600.000
G1 X177.273 Y-69.367 Z2.747 F600.000
G1 X176.966 Y-69.647 Z2.731 F600.000
G1 X176.615 Y-69.871 Z2.718 F600.000
G1 X176.230 Y-70.031 Z2.707 F600.000
G1 X175.856 Y-70.117 Z2.694 F600.000
G1 X175.472 Y-70.144 Z2.679 F600.000
G1 X175.090 Y-70.109 Z2.665 F600.000
G1 X174.717 Y-70.014 Z2.650 F600.000
G1 X174.365 Y-69.862 Z2.635 F600.000
G1 X174.040 Y-69.656 Z2.620 F600.000
G1 X173.752 Y-69.402 Z2.607 F600.000
G1 X131.598 Y-27.248 Z0.393 F600.000
G1 X131.346 Y-26.959 Z0.379 F600.000
G1 X131.119 Y-26.594 Z0.375 F600.000
G1 X130.959 Y-26.195 Z0.367 F600.000
G1 X130.873 Y-25.774 Z0.356 F600.000
G1 X130.862 Y-25.345 Z0.340 F600.000
G1 X130.928 Y-24.921 Z0.322 F600.000
G1 X131.067 Y-24.515 Z0.301 F600.000
G1 X131.276 Y-24.140 Z0.279 F600.000
G1 X131.548 Y-23.808 Z0.255 F600.000
G1 X131.875 Y-23.530 Z0.231 F600.000
G1 X132.245 Y-23.314 Z0.207 F600.000
G1 X132.648 Y-23.167 Z0.184 F600.000
G1 X133.071 Y-23.093 Z0.164 F600.000
G1 X133.500 Y-23.096 Z0.145 F600.000
G1 X133.923 Y-23.174 Z0.130 F600.000
G1 X134.324 Y-23.326 Z0.118 F600.000
G1 X134.693 Y-23.547 Z0.111 F600.000
G1 X135.017 Y-23.829 Z0.107 F600.000
G1 X156.093 Y-44.905 Z-1.000 F600.000
G1 X177.171 Y-65.983 Z-1.443 F600.000
G1 X177.445 Y-66.296 Z-1.447 F600.000
G1 X177.662 Y-66.651 Z-1.453 F600.000
G1 X177.814 Y-67.039 Z-1.459 F600.000
G1 X177.898 Y-67.446 Z-1.465 F600.000
G1 X177.911 Y-67.862 Z-1.473 F600.000
G1 X177.852 Y-68.274 Z-1.480 F600.000
G1 X177.723 Y-68.670 Z-1.487 F600.000
G1 X177.528 Y-69.038 Z-1.495 F600.000
G1 X177.273 Y-69.367 Z-1.501 F600.000
G1 X176.966 Y-69.648 Z-1.508 F600.000
G1 X176.614 Y-69.871 Z-1.513 F600.000
G1 X176.230 Y-70.031 Z-1.517 F600.000
G1 X175.856 Y-70.117 Z-1.523 F600.000
G1 X175.472 Y-70.144 Z-1.528 F600.000
G1 X175.090 Y-70.109 Z-1.534 F600.000
G1 X174.717 Y-70.014 Z-1.540 F600.000
G1 X174.365 Y-69.862 Z-1.546 F600.000
G1 X174.040 Y-69.656 Z-1.552 F600.000
G1 X173.752 Y-69.402 Z-1.557 F600.000
G1 X131.598 Y-27.248 Z-2.443 F600.000
G1 X131.346 Y-26.959 Z-2.449 F600.000
G1 X131.119 Y-26.594 Z-2.450 F600.000
G1 X130.959 Y-26.196 Z-2.453 F600.000
G1 X130.872 Y-25.775 Z-2.458 F600.000
G1 X130.862 Y-25.346 Z-2.464 F600.000
G1 X130.927 Y-24.921 Z-2.471 F600.000
G1 X131.067 Y-24.515 Z-2.479 F600.000
G1 X131.276 Y-24.140 Z-2.489 F600.000
G1 X131.548 Y-23.808 Z-2.498 F600.000
G1 X131.875 Y-23.530 Z-2.508 F600.000
G1 X132.246 Y-23.313 Z-2.517 F600.000
G1 X132.649 Y-23.166 Z-2.526 F600.000
G1 X133.072 Y-23.093 Z-2.535 F600.000
G1 X133.501 Y-23.095 Z-2.542 F600.000
G1 X133.924 Y-23.174 Z-2.548 F600.000
G1 X134.325 Y-23.326 Z-2.553 F600.000
G1 X134.694 Y-23.546 Z-2.556 F600.000
G1 X135.017 Y-23.829 Z-2.557 F600.000
G1 X156.093 Y-44.905 Z-3.000 F600.000
G1 X177.171 Y-65.983 Z-3.443 F600.000
G1 X177.445 Y-66.296 Z-3.447 F600.000
G1 X177.662 Y-66.651 Z-3.453 F600.000
G1 X177.814 Y-67.039 Z-3.459 F600.000
G1 X177.898 Y-67.446 Z-3.465 F600.000
G1 X177.911 Y-67.862 Z-3.473 F600.000
G1 X177.852 Y-68.274 Z-3.480 F600.000
G1 X177.723 Y-68.670 Z-3.487 F600.000
G1 X177.528 Y-69.038 Z-3.495 F600.000
G1 X177.273 Y-69.367 Z-3.501 F600.000
G1 X176.966 Y-69.648 Z-3.508 F600.000
G1 X176.614 Y-69.871 Z-3.513 F600.000
G1 X176.230 Y-70.031 Z-3.517 F600.000
G1 X175.856 Y-70.117 Z-3.523 F600.000
G1 X175.472 Y-70.144 Z-3.528 F600.000
G1 X175.090 Y-70.109 Z-3.534 F600.000
G1 X174.717 Y-70.014 Z-3.540 F600.000
G1 X174.365 Y-69.862 Z-3.546 F600.000
G1 X174.040 Y-69.656 Z-3.552 F600.000
G1 X173.752 Y-69.402 Z-3.557 F600.000
G1 X131.598 Y-27.248 Z-4.443 F600.000
G1 X131.346 Y-26.959 Z-4.449 F600.000
G1 X131.119 Y-26.594 Z-4.450 F600.000
G1 X130.959 Y-26.196 Z-4.453 F600.000
G1 X130.872 Y-25.775 Z-4.458 F600.000
G1 X130.862 Y-25.346 Z-4.464 F600.000
G1 X130.927 Y-24.921 Z-4.471 F600.000
G1 X131.067 Y-24.515 Z-4.479 F600.000
G1 X131.276 Y-24.140 Z-4.489 F600.000
G1 X131.548 Y-23.808 Z-4.498 F600.000
G1 X131.875 Y-23.530 Z-4.508 F600.000
G1 X132.246 Y-23.313 Z-4.517 F600.000
G1 X132.649 Y-23.166 Z-4.526 F600.000
G1 X133.072 Y-23.093 Z-4.535 F600.000
G1 X133.501 Y-23.095 Z-4.542 F600.000
G1 X133.924 Y-23.174 Z-4.548 F600.000
G1 X134.325 Y-23.326 Z-4.553 F600.000
G1 X134.694 Y-23.546 Z-4.556 F600.000
G1 X135.017 Y-23.829 Z-4.557 F600.000
G1 X156.093 Y-44.905 Z-5.000 F600.000
G1 X177.171 Y-65.983 Z-5.443 F600.000
G1 X177.445 Y-66.296 Z-5.447 F600.000
G1 X177.662 Y-66.651 Z-5.453 F600.000
G1 X177.814 Y-67.039 Z-5.459 F600.000
G1 X177.898 Y-67.446 Z-5.465 F600.000
G1 X177.911 Y-67.862 Z-5.473 F600.000
G1 X177.852 Y-68.274 Z-5.480 F600.000
G1 X177.723 Y-68.670 Z-5.487 F600.000
G1 X177.528 Y-69.038 Z-5.495 F600.000
G1 X177.273 Y-69.367 Z-5.501 F600.000
G1 X176.966 Y-69.648 Z-5.508 F600.000
G1 X176.614 Y-69.871 Z-5.513 F600.000
G1 X176.230 Y-70.031 Z-5.517 F600.000
G1 X175.856 Y-70.117 Z-5.523 F600.000
G1 X175.472 Y-70.144 Z-5.528 F600.000
G1 X175.090 Y-70.109 Z-5.534 F600.000
G1 X174.717 Y-70.014 Z-5.540 F600.000
G1 X174.365 Y-69.862 Z-5.546 F600.000
G1 X174.040 Y-69.656 Z-5.552 F600.000
G1 X173.752 Y-69.402 Z-5.557 F600.000
G1 X131.598 Y-27.248 Z-6.443 F600.000
G1 X131.346 Y-26.959 Z-6.449 F600.000
G1 X131.119 Y-26.594 Z-6.450 F600.000
G1 X130.959 Y-26.196 Z-6.453 F600.000
G1 X130.872 Y-25.775 Z-6.458 F600.000
G1 X130.862 Y-25.346 Z-6.464 F600.000
G1 X130.927 Y-24.921 Z-6.471 F600.000
G1 X131.067 Y-24.515 Z-6.479 F600.000
G1 X131.276 Y-24.140 Z-6.489 F600.000
G1 X131.548 Y-23.808 Z-6.498 F600.000
G1 X131.875 Y-23.530 Z-6.508 F600.000
G1 X132.246 Y-23.313 Z-6.517 F600.000
G1 X132.649 Y-23.166 Z-6.526 F600.000
G1 X133.072 Y-23.093 Z-6.535 F600.000
G1 X133.501 Y-23.095 Z-6.542 F600.000
G1 X133.924 Y-23.174 Z-6.548 F600.000
G1 X134.325 Y-23.326 Z-6.553 F600.000
G1 X134.694 Y-23.546 Z-6.556 F600.000
G1 X135.017 Y-23.829 Z-6.557 F600.000
G1 X156.093 Y-44.905 Z-7.000 F600.000
G1 X177.171 Y-65.983 Z-7.443 F600.000
G1 X177.445 Y-66.296 Z-7.447 F600.000
G1 X177.662 Y-66.651 Z-7.453 F600.000
G1 X177.814 Y-67.039 Z-7.459 F600.000
G1 X177.898 Y-67.446 Z-7.465 F600.000
G1 X177.911 Y-67.862 Z-7.473 F600.000
G1 X177.852 Y-68.274 Z-7.480 F600.000
G1 X177.723 Y-68.670 Z-7.487 F600.000
G1 X177.528 Y-69.038 Z-7.495 F600.000
G1 X177.273 Y-69.367 Z-7.501 F600.000
G1 X176.966 Y-69.648 Z-7.508 F600.000
G1 X176.614 Y-69.871 Z-7.513 F600.000
G1 X176.230 Y-70.031 Z-7.517 F600.000
G1 X175.856 Y-70.117 Z-7.523 F600.000
G1 X175.472 Y-70.144 Z-7.528 F600.000
G1 X175.090 Y-70.109 Z-7.534 F600.000
G1 X174.717 Y-70.014 Z-7.540 F600.000
G1 X174.365 Y-69.862 Z-7.546 F600.000
G1 X174.040 Y-69.656 Z-7.552 F600.000
G1 X173.752 Y-69.402 Z-7.557 F600.000
G1 X131.598 Y-27.248 Z-8.443 F600.000
G1 X131.346 Y-26.959 Z-8.449 F600.000
G1 X131.119 Y-26.594 Z-8.450 F600.000
G1 X130.959 Y-26.196 Z-8.453 F600.000
G1 X130.872 Y-25.775 Z-8.458 F600.000
G1 X130.862 Y-25.346 Z-8.464 F600.000
G1 X130.927 Y-24.921 Z-8.471 F600.000
G1 X131.067 Y-24.515 Z-8.479 F600.000
G1 X131.276 Y-24.140 Z-8.489 F600.000
G1 X131.548 Y-23.808 Z-8.498 F600.000
G1 X131.875 Y-23.530 Z-8.508 F600.000
G1 X132.246 Y-23.313 Z-8.517 F600.000
G1 X132.649 Y-23.166 Z-8.526 F600.000
G1 X133.072 Y-23.093 Z-8.535 F600.000
G1 X133.501 Y-23.095 Z-8.542 F600.000
G1 X133.924 Y-23.174 Z-8.548 F600.000
G1 X134.325 Y-23.326 Z-8.553 F600.000
G1 X134.694 Y-23.546 Z-8.556 F600.000
G1 X135.017 Y-23.829 Z-8.557 F600.000
G1 X156.093 Y-44.905 Z-9.000 F600.000
G1 X177.171 Y-65.983 Z-9.221 F600.000
G1 X177.445 Y-66.296 Z-9.224 F600.000
G1 X177.662 Y-66.651 Z-9.226 F600.000
G1 X177.814 Y-67.039 Z-9.229 F600.000
G1 X177.898 Y-67.446 Z-9.233 F600.000
G1 X177.911 Y-67.862 Z-9.236 F600.000
G1 X177.852 Y-68.274 Z-9.240 F600.000
G1 X177.723 Y-68.670 Z-9.244 F600.000
G1 X177.528 Y-69.038 Z-9.247 F600.000
G1 X177.273 Y-69.367 Z-9.251 F600.000
G1 X176.966 Y-69.648 Z-9.254 F600.000
G1 X176.614 Y-69.871 Z-9.256 F600.000
G1 X176.230 Y-70.031 Z-9.259 F600.000
G1 X175.856 Y-70.117 Z-9.261 F600.000
G1 X175.472 Y-70.144 Z-9.264 F600.000
G1 X175.090 Y-70.109 Z-9.267 F600.000
G1 X174.717 Y-70.014 Z-9.270 F600.000
G1 X174.365 Y-69.862 Z-9.273 F600.000
G1 X174.040 Y-69.656 Z-9.276 F600.000
G1 X173.752 Y-69.402 Z-9.279 F600.000
G1 X131.598 Y-27.248 Z-9.721 F600.000
G1 X131.346 Y-26.959 Z-9.724 F600.000
G1 X131.119 Y-26.594 Z-9.725 F600.000
G1 X130.959 Y-26.196 Z-9.727 F600.000
G1 X130.872 Y-25.775 Z-9.729 F600.000
G1 X130.862 Y-25.346 Z-9.732 F600.000
G1 X130.927 Y-24.921 Z-9.736 F600.000
G1 X131.066 Y-24.515 Z-9.740 F600.000
G1 X131.276 Y-24.140 Z-9.744 F600.000
G1 X131.548 Y-23.808 Z-9.749 F600.000
G1 X131.875 Y-23.530 Z-9.754 F600.000
G1 X132.246 Y-23.313 Z-9.759 F600.000
G1 X132.649 Y-23.166 Z-9.763 F600.000
G1 X133.072 Y-23.093 Z-9.767 F600.000
G1 X133.502 Y-23.095 Z-9.771 F600.000
G1 X133.924 Y-23.174 Z-9.774 F600.000
G1 X134.325 Y-23.326 Z-9.776 F600.000
G1 X134.694 Y-23.546 Z-9.778 F600.000
G1 X135.017 Y-23.829 Z-9.779 F600.000
G1 X156.093 Y-44.905 Z-10.000 F600.000
G1 X177.171 Y-65.983 Z-10.000 F600.000
G2 X176.230 Y-70.031 Z-10.000 I-1.675 J-1.744 K0.000 F600.000
G2 X173.752 Y-69.402 Z-10.000 I-0.731 J2.315 K0.000 F600.000
G1 X131.598 Y-27.248 Z-10.000 F600.000
G1 X131.346 Y-26.959 Z-10.000 F600.000
G2 X135.017 Y-23.829 Z-10.000 I1.926 J1.458 K0.000 F600.000
G1 X156.093 Y-44.905 Z-10.000 F600.000
G0 X156.093 Y-44.905 Z6.000
(Finish operation: RampEntryDressup012)
(Begin operation: RampEntryDressup013)
(Path: RampEntryDressup013)
G0 X0.000 Y0.000 Z6.000
G0 X146.901 Y-54.097 Z6.000
G0 X146.901 Y-54.097 Z4.000
G1 X177.171 Y-84.367 Z2.853 F600.000
G1 X177.449 Y-84.685 Z2.845 F600.000
G1 X177.667 Y-85.047 Z2.836 F600.000
G1 X177.819 Y-85.440 Z2.824 F600.000
G1 X177.901 Y-85.855 Z2.812 F600.000
G1 X177.909 Y-86.277 Z2.799 F600.000
G1 X177.843 Y-86.694 Z2.785 F600.000
G1 X177.706 Y-87.093 Z2.771 F600.000
G1 X177.501 Y-87.463 Z2.758 F600.000
G1 X177.236 Y-87.791 Z2.746 F600.000
G1 X176.917 Y-88.068 Z2.735 F600.000
G1 X176.555 Y-88.286 Z2.725 F600.000
G1 X176.161 Y-88.437 Z2.717 F600.000
G1 X175.732 Y-88.517 Z2.706 F600.000
G1 X175.297 Y-88.520 Z2.694 F600.000
G1 X174.868 Y-88.445 Z2.682 F600.000
G1 X174.459 Y-88.294 Z2.670 F600.000
G1 X174.084 Y-88.073 Z2.658 F600.000
G1 X173.754 Y-87.788 Z2.647 F600.000
G1 X113.212 Y-27.246 Z0.353 F600.000
G1 X112.970 Y-26.970 Z0.343 F600.000
G1 X112.740 Y-26.606 Z0.341 F600.000
G1 X112.578 Y-26.207 Z0.335 F600.000
G1 X112.489 Y-25.786 Z0.327 F600.000
G1 X112.476 Y-25.356 Z0.316 F600.000
G1 X112.540 Y-24.931 Z0.302 F600.000
G1 X112.678 Y-24.524 Z0.287 F600.000
G1 X112.886 Y-24.147 Z0.271 F600.000
G1 X113.157 Y-23.814 Z0.254 F600.000
G1 X113.483 Y-23.534 Z0.236 F600.000
G1 X113.854 Y-23.316 Z0.219 F600.000
G1 X114.258 Y-23.168 Z0.203 F600.000
G1 X114.681 Y-23.093 Z0.188 F600.000
G1 X115.111 Y-23.095 Z0.174 F600.000
G1 X115.534 Y-23.173 Z0.163 F600.000
G1 X115.937 Y-23.324 Z0.155 F600.000
G1 X116.306 Y-23.545 Z0.149 F600.000
G1 X116.631 Y-23.827 Z0.147 F600.000
G1 X146.901 Y-54.097 Z-1.000 F600.000
G1 X177.171 Y-84.367 Z-1.459 F600.000
G1 X177.449 Y-84.685 Z-1.462 F600.000
G1 X177.667 Y-85.046 Z-1.466 F600.000
G1 X177.819 Y-85.440 Z-1.470 F600.000
G1 X177.901 Y-85.855 Z-1.475 F600.000
G1 X177.909 Y-86.277 Z-1.481 F600.000
G1 X177.843 Y-86.694 Z-1.486 F600.000
G1 X177.706 Y-87.094 Z-1.491 F600.000
G1 X177.501 Y-87.463 Z-1.497 F600.000
G1 X177.236 Y-87.791 Z-1.502 F600.000
G1 X176.917 Y-88.068 Z-1.506 F600.000
G1 X176.555 Y-88.286 Z-1.510 F600.000
G1 X176.161 Y-88.437 Z-1.513 F600.000
G1 X175.732 Y-88.517 Z-1.518 F600.000
G1 X175.297 Y-88.520 Z-1.522 F600.000
G1 X174.868 Y-88.445 Z-1.527 F600.000
G1 X174.459 Y-88.294 Z-1.532 F600.000
G1 X174.084 Y-88.073 Z-1.537 F600.000
G1 X173.754 Y-87.788 Z-1.541 F600.000
G1 X113.212 Y-27.246 Z-2.459 F600.000
G1 X112.970 Y-26.970 Z-2.463 F600.000
G1 X112.739 Y-26.606 Z-2.464 F600.000
G1 X112.577 Y-26.208 Z-2.466 F600.000
G1 X112.488 Y-25.787 Z-2.469 F600.000
G1 X112.476 Y-25.357 Z-2.474 F600.000
G1 X112.539 Y-24.931 Z-2.479 F600.000
G1 X112.677 Y-24.524 Z-2.485 F600.000
G1 X112.885 Y-24.148 Z-2.492 F600.000
G1 X113.157 Y-23.814 Z-2.498 F600.000
G1 X113.483 Y-23.534 Z-2.505 F600.000
G1 X113.854 Y-23.316 Z-2.512 F600.000
G1 X114.258 Y-23.168 Z-2.519 F600.000
G1 X114.681 Y-23.093 Z-2.525 F600.000
G1 X115.112 Y-23.094 Z-2.530 F600.000
G1 X115.535 Y-23.172 Z-2.535 F600.000
G1 X115.937 Y-23.324 Z-2.538 F600.000
G1 X116.307 Y-23.545 Z-2.540 F600.000
G1 X116.631 Y-23.827 Z-2.541 F600.000
G1 X146.901 Y-54.097 Z-3.000 F600.000
G1 X177.171 Y-84.367 Z-3.459 F600.000
G1 X177.449 Y-84.685 Z-3.462 F600.000
G1 X177.667 Y-85.046 Z-3.466 F600.000
G1 X177.819 Y-85.440 Z-3.470 F600.000
G1 X177.901 Y-85.855 Z-3.475 F600.000
G1 X177.909 Y-86.277 Z-3.481 F600.000
G1 X177.843 Y-86.694 Z-3.486 F600.000
G1 X177.706 Y-87.094 Z-3.491 F600.000
G1 X177.501 Y-87.463 Z-3.497 F600.000
G1 X177.236 Y-87.791 Z-3.502 F600.000
G1 X176.917 Y-88.068 Z-3.506 F600.000
G1 X176.555 Y-88.286 Z-3.510 F600.000
G1 X176.161 Y-88.437 Z-3.513 F600.000
G1 X175.732 Y-88.517 Z-3.518 F600.000
G1 X175.297 Y-88.520 Z-3.522 F600.000
G1 X174.868 Y-88.445 Z-3.527 F600.000
G1 X174.459 Y-88.294 Z-3.532 F600.000
G1 X174.084 Y-88.073 Z-3.537 F600.000
G1 X173.754 Y-87.788 Z-3.541 F600.000
G1 X113.212 Y-27.246 Z-4.459 F600.000
G1 X112.970 Y-26.970 Z-4.463 F600.000
G1 X112.739 Y-26.606 Z-4.464 F600.000
G1 X112.577 Y-26.208 Z-4.466 F600.000
G1 X112.488 Y-25.787 Z-4.469 F600.000
G1 X112.476 Y-25.357 Z-4.474 F600.000
G1 X112.539 Y-24.931 Z-4.479 F600.000
G1 X112.677 Y-24.524 Z-4.485 F600.000
G1 X112.885 Y-24.148 Z-4.492 F600.000
G1 X113.157 Y-23.814 Z-4.498 F600.000
G1 X113.483 Y-23.534 Z-4.505 F600.000
G1 X113.854 Y-23.316 Z-4.512 F600.000
G1 X114.258 Y-23.168 Z-4.519 F600.000
G1 X114.681 Y-23.093 Z-4.525 F600.000
G1 X115.112 Y-23.094 Z-4.530 F600.000
G1 X115.535 Y-23.172 Z-4.535 F600.000
G1 X115.937 Y-23.324 Z-4.538 F600.000
G1 X116.307 Y-23.545 Z-4.540 F600.000
G1 X116.631 Y-23.827 Z-4.541 F600.000
G1 X146.901 Y-54.097 Z-5.000 F600.000
G1 X177.171 Y-84.367 Z-5.459 F600.000
G1 X177.449 Y-84.685 Z-5.462 F600.000
G1 X177.667 Y-85.046 Z-5.466 F600.000
G1 X177.819 Y-85.440 Z-5.470 F600.000
G1 X177.901 Y-85.855 Z-5.475 F600.000
G1 X177.909 Y-86.277 Z-5.481 F600.000
G1 X177.843 Y-86.694 Z-5.486 F600.000
G1 X177.706 Y-87.094 Z-5.491 F600.000
G1 X177.501 Y-87.463 Z-5.497 F600.000
G1 X177.236 Y-87.791 Z-5.502 F600.000
G1 X176.917 Y-88.068 Z-5.506 F600.000
G1 X176.555 Y-88.286 Z-5.510 F600.000
G1 X176.161 Y-88.437 Z-5.513 F600.000
G1 X175.732 Y-88.517 Z-5.518 F600.000
G1 X175.297 Y-88.520 Z-5.522 F600.000
G1 X174.868 Y-88.445 Z-5.527 F600.000
G1 X174.459 Y-88.294 Z-5.532 F600.000
G1 X174.084 Y-88.073 Z-5.537 F600.000
G1 X173.754 Y-87.788 Z-5.541 F600.000
G1 X113.212 Y-27.246 Z-6.459 F600.000
G1 X112.970 Y-26.970 Z-6.463 F600.000
G1 X112.739 Y-26.606 Z-6.464 F600.000
G1 X112.577 Y-26.208 Z-6.466 F600.000
G1 X112.488 Y-25.787 Z-6.469 F600.000
G1 X112.476 Y-25.357 Z-6.474 F600.000
G1 X112.539 Y-24.931 Z-6.479 F600.000
G1 X112.677 Y-24.524 Z-6.485 F600.000
G1 X112.885 Y-24.148 Z-6.492 F600.000
G1 X113.157 Y-23.814 Z-6.498 F600.000
G1 X113.483 Y-23.534 Z-6.505 F600.000
G1 X113.854 Y-23.316 Z-6.512 F600.000
G1 X114.258 Y-23.168 Z-6.519 F600.000
G1 X114.681 Y-23.093 Z-6.525 F600.000
G1 X115.112 Y-23.094 Z-6.530 F600.000
G1 X115.535 Y-23.172 Z-6.535 F600.000
G1 X115.937 Y-23.324 Z-6.538 F600.000
G1 X116.307 Y-23.545 Z-6.540 F600.000
G1 X116.631 Y-23.827 Z-6.541 F600.000
G1 X146.901 Y-54.097 Z-7.000 F600.000
G1 X177.171 Y-84.367 Z-7.459 F600.000
G1 X177.449 Y-84.685 Z-7.462 F600.000
G1 X177.667 Y-85.046 Z-7.466 F600.000
G1 X177.819 Y-85.440 Z-7.470 F600.000
G1 X177.901 Y-85.855 Z-7.475 F600.000
G1 X177.909 Y-86.277 Z-7.481 F600.000
G1 X177.843 Y-86.694 Z-7.486 F600.000
G1 X177.706 Y-87.094 Z-7.491 F600.000
G1 X177.501 Y-87.463 Z-7.497 F600.000
G1 X177.236 Y-87.791 Z-7.502 F600.000
G1 X176.917 Y-88.068 Z-7.506 F600.000
G1 X176.555 Y-88.286 Z-7.510 F600.000
G1 X176.161 Y-88.437 Z-7.513 F600.000
G1 X175.732 Y-88.517 Z-7.518 F600.000
G1 X175.297 Y-88.520 Z-7.522 F600.000
G1 X174.868 Y-88.445 Z-7.527 F600.000
G1 X174.459 Y-88.294 Z-7.532 F600.000
G1 X174.084 Y-88.073 Z-7.537 F600.000
G1 X173.754 Y-87.788 Z-7.541 F600.000
G1 X113.212 Y-27.246 Z-8.459 F600.000
G1 X112.970 Y-26.970 Z-8.463 F600.000
G1 X112.739 Y-26.606 Z-8.464 F600.000
G1 X112.577 Y-26.208 Z-8.466 F600.000
G1 X112.488 Y-25.787 Z-8.469 F600.000
G1 X112.476 Y-25.357 Z-8.474 F600.000
G1 X112.539 Y-24.931 Z-8.479 F600.000
G1 X112.677 Y-24.524 Z-8.485 F600.000
G1 X112.885 Y-24.148 Z-8.492 F600.000
G1 X113.157 Y-23.814 Z-8.498 F600.000
G1 X113.483 Y-23.534 Z-8.505 F600.000
G1 X113.854 Y-23.316 Z-8.512 F600.000
G1 X114.258 Y-23.168 Z-8.519 F600.000
G1 X114.681 Y-23.093 Z-8.525 F600.000
G1 X115.112 Y-23.094 Z-8.530 F600.000
G1 X115.535 Y-23.172 Z-8.535 F600.000
G1 X115.937 Y-23.324 Z-8.538 F600.000
G1 X116.307 Y-23.545 Z-8.540 F600.000
G1 X116.631 Y-23.827 Z-8.541 F600.000
G1 X146.901 Y-54.097 Z-9.000 F600.000
G1 X177.171 Y-84.367 Z-9.229 F600.000
G1 X177.449 Y-84.685 Z-9.231 F600.000
G1 X177.667 Y-85.046 Z-9.233 F600.000
G1 X177.819 Y-85.440 Z-9.235 F600.000
G1 X177.901 Y-85.855 Z-9.238 F600.000
G1 X177.909 Y-86.277 Z-9.240 F600.000
G1 X177.843 Y-86.694 Z-9.243 F600.000
G1 X177.706 Y-87.094 Z-9.246 F600.000
G1 X177.501 Y-87.463 Z-9.248 F600.000
G1 X177.236 Y-87.791 Z-9.251 F600.000
G1 X176.917 Y-88.068 Z-9.253 F600.000
G1 X176.555 Y-88.286 Z-9.255 F600.000
G1 X176.161 Y-88.437 Z-9.257 F600.000
G1 X175.732 Y-88.517 Z-9.259 F600.000
G1 X175.297 Y-88.520 Z-9.261 F600.000
G1 X174.868 Y-88.445 Z-9.264 F600.000
G1 X174.459 Y-88.294 Z-9.266 F600.000
G1 X174.084 Y-88.073 Z-9.268 F600.000
G1 X173.754 Y-87.788 Z-9.271 F600.000
G1 X113.212 Y-27.246 Z-9.729 F600.000
G1 X112.970 Y-26.970 Z-9.731 F600.000
G1 X112.739 Y-26.606 Z-9.732 F600.000
G1 X112.577 Y-26.208 Z-9.733 F600.000
G1 X112.488 Y-25.787 Z-9.735 F600.000
G1 X112.476 Y-25.357 Z-9.737 F600.000
G1 X112.539 Y-24.931 Z-9.740 F600.000
G1 X112.677 Y-24.524 Z-9.743 F600.000
G1 X112.885 Y-24.148 Z-9.746 F600.000
G1 X113.157 Y-23.814 Z-9.749 F600.000
G1 X113.483 Y-23.534 Z-9.753 F600.000
G1 X113.854 Y-23.316 Z-9.756 F600.000
G1 X114.258 Y-23.167 Z-9.759 F600.000
G1 X114.682 Y-23.093 Z-9.762 F600.000
G1 X115.112 Y-23.094 Z-9.765 F600.000
G1 X115.535 Y-23.172 Z-9.767 F600.000
G1 X115.937 Y-23.324 Z-9.769 F600.000
G1 X116.307 Y-23.545 Z-9.770 F600.000
G1 X116.631 Y-23.827 Z-9.771 F600.000
G1 X146.901 Y-54.097 Z-10.000 F600.000
G1 X177.171 Y-84.367 Z-10.000 F600.000
G2 X176.161 Y-88.437 Z-10.000 I-1.675 J-1.745 K0.000 F600.000
G2 X173.754 Y-87.788 Z-10.000 I-0.661 J2.335 K0.000 F600.000
G1 X113.212 Y-27.246 Z-10.000 F600.000
G1 X112.970 Y-26.970 Z-10.000 F600.000
G2 X116.631 Y-23.827 Z-10.000 I1.918 J1.469 K0.000 F600.000
G1 X146.901 Y-54.097 Z-10.000 F600.000
G0 X146.901 Y-54.097 Z6.000
(Finish operation: RampEntryDressup013)
(Begin operation: RampEntryDressup014)
(Path: RampEntryDressup014)
G0 X0.000 Y0.000 Z6.000
G0 X137.709 Y-63.290 Z6.000
G0 X137.709 Y-63.290 Z4.000
G1 X168.171 Y-93.752 Z2.852 F600.000
G1 X168.445 Y-94.066 Z2.845 F600.000
G1 X168.662 Y-94.421 Z2.835 F600.000
G1 X168.814 Y-94.808 Z2.824 F600.000
G1 X168.898 Y-95.216 Z2.812 F600.000
G1 X168.911 Y-95.632 Z2.799 F600.000
G1 X168.852 Y-96.044 Z2.786 F600.000
G1 X168.723 Y-96.440 Z2.773 F600.000
G1 X168.528 Y-96.808 Z2.760 F600.000
G1 X168.273 Y-97.137 Z2.748 F600.000
G1 X167.966 Y-97.417 Z2.737 F600.000
G1 X167.614 Y-97.641 Z2.727 F600.000
G1 X167.230 Y-97.801 Z2.719 F600.000
G1 X166.856 Y-97.887 Z2.710 F600.000
G1 X166.472 Y-97.913 Z2.699 F600.000
G1 X166.090 Y-97.878 Z2.689 F600.000
G1 X165.717 Y-97.784 Z2.678 F600.000
G1 X165.365 Y-97.632 Z2.667 F600.000
G1 X165.040 Y-97.426 Z2.657 F600.000
G1 X164.752 Y-97.171 Z2.648 F600.000
G1 X103.827 Y-36.246 Z0.352 F600.000
G1 X103.585 Y-35.970 Z0.343 F600.000
G1 X103.355 Y-35.606 Z0.340 F600.000
G1 X103.193 Y-35.207 Z0.335 F600.000
G1 X103.104 Y-34.786 Z0.326 F600.000
G1 X103.091 Y-34.356 Z0.315 F600.000
G1 X103.155 Y-33.931 Z0.302 F600.000
G1 X103.293 Y-33.524 Z0.287 F600.000
G1 X103.501 Y-33.147 Z0.271 F600.000
G1 X103.772 Y-32.814 Z0.254 F600.000
G1 X104.099 Y-32.534 Z0.236 F600.000
G1 X104.469 Y-32.316 Z0.219 F600.000
G1 X104.873 Y-32.168 Z0.203 F600.000
G1 X105.296 Y-32.093 Z0.188 F600.000
G1 X105.726 Y-32.095 Z0.175 F600.000
G1 X106.149 Y-32.173 Z0.164 F600.000
G1 X106.552 Y-32.324 Z0.156 F600.000
G1 X106.921 Y-32.545 Z0.150 F600.000
G1 X107.246 Y-32.827 Z0.148 F600.000
G1 X137.709 Y-63.290 Z-1.000 F600.000
G1 X168.171 Y-93.752 Z-1.459 F600.000
G1 X168.445 Y-94.065 Z-1.462 F600.000
G1 X168.662 Y-94.421 Z-1.466 F600.000
G1 X168.814 Y-94.808 Z-1.470 F600.000
G1 X168.898 Y-95.216 Z-1.475 F600.000
G1 X168.911 Y-95.632 Z-1.480 F600.000
G1 X168.852 Y-96.044 Z-1.486 F600.000
G1 X168.723 Y-96.440 Z-1.491 F600.000
G1 X168.528 Y-96.808 Z-1.496 F600.000
G1 X168.273 Y-97.137 Z-1.501 F600.000
G1 X167.966 Y-97.417 Z-1.505 F600.000
G1 X167.614 Y-97.641 Z-1.509 F600.000
G1 X167.230 Y-97.801 Z-1.512 F600.000
G1 X166.856 Y-97.887 Z-1.516 F600.000
G1 X166.472 Y-97.913 Z-1.520 F600.000
G1 X166.090 Y-97.878 Z-1.524 F600.000
G1 X165.717 Y-97.784 Z-1.529 F600.000
G1 X165.365 Y-97.632 Z-1.533 F600.000
G1 X165.040 Y-97.426 Z-1.537 F600.000
G1 X164.752 Y-97.171 Z-1.541 F600.000
G1 X103.827 Y-36.246 Z-2.459 F600.000
G1 X103.585 Y-35.970 Z-2.463 F600.000
G1 X103.355 Y-35.606 Z-2.464 F600.000
G1 X103.193 Y-35.208 Z-2.466 F600.000
G1 X103.104 Y-34.787 Z-2.470 F600.000
G1 X103.091 Y-34.357 Z-2.474 F600.000
G1 X103.155 Y-33.931 Z-2.479 F600.000
G1 X103.293 Y-33.524 Z-2.485 F600.000
G1 X103.501 Y-33.148 Z-2.492 F600.000
G1 X103.772 Y-32.814 Z-2.498 F600.000
G1 X104.099 Y-32.534 Z-2.505 F600.000
G1 X104.469 Y-32.316 Z-2.512 F600.000
G1 X104.873 Y-32.168 Z-2.519 F600.000
G1 X105.297 Y-32.093 Z-2.525 F600.000
G1 X105.727 Y-32.094 Z-2.530 F600.000
G1 X106.150 Y-32.172 Z-2.534 F600.000
G1 X106.552 Y-32.324 Z-2.538 F600.000
G1 X106.922 Y-32.545 Z-2.540 F600.000
G1 X107.246 Y-32.827 Z-2.541 F600.000
G1 X137.709 Y-63.290 Z-3.000 F600.000
G1 X168.171 Y-93.752 Z-3.459 F600.000
G1 X168.445 Y-94.065 Z-3.462 F600.000
G1 X168.662 Y-94.421 Z-3.466 F600.000
G1 X168.814 Y-94.808 Z-3.470 F600.000
G1 X168.898 Y-95.216 Z-3.475 F600.000
G1 X168.911 Y-95.632 Z-3.480 F600.000
G1 X168.852 Y-96.044 Z-3.486 F600.000
G1 X168.723 Y-96.440 Z-3.491 F600.000
G1 X168.528 Y-96.808 Z-3.496 F600.000
G1 X168.273 Y-97.137 Z-3.501 F600.000
G1 X167.966 Y-97.417 Z-3.505 F600.000
G1 X167.614 Y-97.641 Z-3.509 F600.000
G1 X167.230 Y-97.801 Z-3.512 F600.000
G1 X166.856 Y-97.887 Z-3.516 F600.000
G1 X166.472 Y-97.913 Z-3.520 F600.000
G1 X166.090 Y-97.878 Z-3.524 F600.000
G1 X165.717 Y-97.784 Z-3.529 F600.000
G1 X165.365 Y-97.632 Z-3.533 F600.000
G1 X165.040 Y-97.426 Z-3.537 F600.000
G1 X164.752 Y-97.171 Z-3.541 F600.000
G1 X103.827 Y-36.246 Z-4.459 F600.000
G1 X103.585 Y-35.970 Z-4.463 F600.000
G1 X103.355 Y-35.606 Z-4.464 F600.000
G1 X103.193 Y-35.208 Z-4.466 F600.000
G1 X103.104 Y-34.787 Z-4.470 F600.000
G1 X103.091 Y-34.357 Z-4.474 F600.000
G1 X103.155 Y-33.931 Z-4.479 F600.000
G1 X103.293 Y-33.524 Z-4.485 F600.000
G1 X103.501 Y-33.148 Z-4.492 F600.000
G1 X103.772 Y-32.814 Z-4.498 F600.000
G1 X104.099 Y-32.534 Z-4.505 F600.000
G1 X104.469 Y-32.316 Z-4.512 F600.000
G1 X104.873 Y-32.168 Z-4.519 F600.000
G1 X105.297 Y-32.093 Z-4.525 F600.000
G1 X105.727 Y-32.094 Z-4.530 F600.000
G1 X106.150 Y-32.172 Z-4.534 F600.000
G1 X106.552 Y-32.324 Z-4.538 F600.000
G1 X106.922 Y-32.545 Z-4.540 F600.000
G1 X107.246 Y-32.827 Z-4.541 F600.000
G1 X137.709 Y-63.290 Z-5.000 F600.000
G1 X168.171 Y-93.752 Z-5.459 F600.000
G1 X168.445 Y-94.065 Z-5.462 F600.000
G1 X168.662 Y-94.421 Z-5.466 F600.000
G1 X168.814 Y-94.808 Z-5.470 F600.000
G1 X168.898 Y-95.216 Z-5.475 F600.000
G1 X168.911 Y-95.632 Z-5.480 F600.000
G1 X168.852 Y-96.044 Z-5.486 F600.000
G1 X168.723 Y-96.440 Z-5.491 F600.000
G1 X168.528 Y-96.808 Z-5.496 F600.000
G1 X168.273 Y-97.137 Z-5.501 F600.000
G1 X167.966 Y-97.417 Z-5.505 F600.000
G1 X167.614 Y-97.641 Z-5.509 F600.000
G1 X167.230 Y-97.801 Z-5.512 F600.000
G1 X166.856 Y-97.887 Z-5.516 F600.000
G1 X166.472 Y-97.913 Z-5.520 F600.000
G1 X166.090 Y-97.878 Z-5.524 F600.000
G1 X165.717 Y-97.784 Z-5.529 F600.000
G1 X165.365 Y-97.632 Z-5.533 F600.000
G1 X165.040 Y-97.426 Z-5.537 F600.000
G1 X164.752 Y-97.171 Z-5.541 F600.000
G1 X103.827 Y-36.246 Z-6.459 F600.000
G1 X103.585 Y-35.970 Z-6.463 F600.000
G1 X103.355 Y-35.606 Z-6.464 F600.000
G1 X103.193 Y-35.208 Z-6.466 F600.000
G1 X103.104 Y-34.787 Z-6.470 F600.000
G1 X103.091 Y-34.357 Z-6.474 F600.000
G1 X103.155 Y-33.931 Z-6.479 F600.000
G1 X103.293 Y-33.524 Z-6.485 F600.000
G1 X103.501 Y-33.148 Z-6.492 F600.000
G1 X103.772 Y-32.814 Z-6.498 F600.000
G1 X104.099 Y-32.534 Z-6.505 F600.000
G1 X104.469 Y-32.316 Z-6.512 F600.000
G1 X104.873 Y-32.168 Z-6.519 F600.000
G1 X105.297 Y-32.093 Z-6.525 F600.000
G1 X105.727 Y-32.094 Z-6.530 F600.000
G1 X106.150 Y-32.172 Z-6.534 F600.000
G1 X106.552 Y-32.324 Z-6.538 F600.000
G1 X106.922 Y-32.545 Z-6.540 F600.000
G1 X107.246 Y-32.827 Z-6.541 F600.000
G1 X137.709 Y-63.290 Z-7.000 F600.000
G1 X168.171 Y-93.752 Z-7.459 F600.000
G1 X168.445 Y-94.065 Z-7.462 F600.000
G1 X168.662 Y-94.421 Z-7.466 F600.000
G1 X168.814 Y-94.808 Z-7.470 F600.000
G1 X168.898 Y-95.216 Z-7.475 F600.000
G1 X168.911 Y-95.632 Z-7.480 F600.000
G1 X168.852 Y-96.044 Z-7.486 F600.000
G1 X168.723 Y-96.440 Z-7.491 F600.000
G1 X168.528 Y-96.808 Z-7.496 F600.000
G1 X168.273 Y-97.137 Z-7.501 F600.000
G1 X167.966 Y-97.417 Z-7.505 F600.000
G1 X167.614 Y-97.641 Z-7.509 F600.000
G1 X167.230 Y-97.801 Z-7.512 F600.000
G1 X166.856 Y-97.887 Z-7.516 F600.000
G1 X166.472 Y-97.913 Z-7.520 F600.000
G1 X166.090 Y-97.878 Z-7.524 F600.000
G1 X165.717 Y-97.784 Z-7.529 F600.000
G1 X165.365 Y-97.632 Z-7.533 F600.000
G1 X165.040 Y-97.426 Z-7.537 F600.000
G1 X164.752 Y-97.171 Z-7.541 F600.000
G1 X103.827 Y-36.246 Z-8.459 F600.000
G1 X103.585 Y-35.970 Z-8.463 F600.000
G1 X103.355 Y-35.606 Z-8.464 F600.000
G1 X103.193 Y-35.208 Z-8.466 F600.000
G1 X103.104 Y-34.787 Z-8.470 F600.000
G1 X103.091 Y-34.357 Z-8.474 F600.000
G1 X103.155 Y-33.931 Z-8.479 F600.000
G1 X103.293 Y-33.524 Z-8.485 F600.000
G1 X103.501 Y-33.148 Z-8.492 F600.000
G1 X103.772 Y-32.814 Z-8.498 F600.000
G1 X104.099 Y-32.534 Z-8.505 F600.000
G1 X104.469 Y-32.316 Z-8.512 F600.000
G1 X104.873 Y-32.168 Z-8.519 F600.000
G1 X105.297 Y-32.093 Z-8.525 F600.000
G1 X105.727 Y-32.094 Z-8.530 F600.000
G1 X106.150 Y-32.172 Z-8.534 F600.000
G1 X106.552 Y-32.324 Z-8.538 F600.000
G1 X106.922 Y-32.545 Z-8.540 F600.000
G1 X107.246 Y-32.827 Z-8.541 F600.000
G1 X137.709 Y-63.290 Z-9.000 F600.000
G1 X168.171 Y-93.752 Z-9.230 F600.000
G1 X168.445 Y-94.065 Z-9.231 F600.000
G1 X168.662 Y-94.421 Z-9.233 F600.000
G1 X168.814 Y-94.808 Z-9.235 F600.000
G1 X168.898 Y-95.216 Z-9.238 F600.000
G1 X168.911 Y-95.632 Z-9.240 F600.000
G1 X168.852 Y-96.044 Z-9.243 F600.000
G1 X168.723 Y-96.440 Z-9.245 F600.000
G1 X168.528 Y-96.808 Z-9.248 F600.000
G1 X168.273 Y-97.137 Z-9.250 F600.000
G1 X167.966 Y-97.417 Z-9.253 F600.000
G1 X167.614 Y-97.641 Z-9.255 F600.000
G1 X167.230 Y-97.801 Z-9.256 F600.000
G1 X166.856 Y-97.887 Z-9.258 F600.000
G1 X166.472 Y-97.913 Z-9.260 F600.000
G1 X166.090 Y-97.878 Z-9.262 F600.000
G1 X165.717 Y-97.784 Z-9.264 F600.000
G1 X165.365 Y-97.632 Z-9.267 F600.000
G1 X165.040 Y-97.426 Z-9.269 F600.000
G1 X164.752 Y-97.171 Z-9.270 F600.000
G1 X103.827 Y-36.246 Z-9.730 F600.000
G1 X103.585 Y-35.970 Z-9.731 F600.000
G1 X103.355 Y-35.606 Z-9.732 F600.000
G1 X103.193 Y-35.208 Z-9.733 F600.000
G1 X103.104 Y-34.787 Z-9.735 F600.000
G1 X103.091 Y-34.357 Z-9.737 F600.000
G1 X103.154 Y-33.931 Z-9.740 F600.000
G1 X103.293 Y-33.524 Z-9.743 F600.000
G1 X103.501 Y-33.148 Z-9.746 F600.000
G1 X103.772 Y-32.814 Z-9.749 F600.000
G1 X104.099 Y-32.534 Z-9.753 F600.000
G1 X104.469 Y-32.316 Z-9.756 F600.000
G1 X104.873 Y-32.167 Z-9.759 F600.000
G1 X105.297 Y-32.093 Z-9.762 F600.000
G1 X105.727 Y-32.094 Z-9.765 F600.000
G1 X106.150 Y-32.172 Z-9.767 F600.000
G1 X106.552 Y-32.324 Z-9.769 F600.000
G1 X106.922 Y-32.545 Z-9.770 F600.000
G1 X107.246 Y-32.827 Z-9.770 F600.000
G1 X137.709 Y-63.290 Z-10.000 F600.000
G1 X168.171 Y-93.752 Z-10.000 F600.000
G2 X167.230 Y-97.801 Z-10.000 I-1.675 J-1.744 K0.000 F600.000
G2 X164.752 Y-97.171 Z-10.000 I-0.731 J2.315 K0.000 F600.000
G1 X103.827 Y-36.246 Z-10.000 F600.000
G1 X103.585 Y-35.970 Z-10.000 F600.000
G2 X107.246 Y-32.827 Z-10.000 I1.918 J1.469 K0.000 F600.000
G1 X137.709 Y-63.290 Z-10.000 F600.000
G0 X137.709 Y-63.290 Z6.000
(Finish operation: RampEntryDressup014)
(Begin operation: RampEntryDressup015)
(Path: RampEntryDressup015)
G0 X0.000 Y0.000 Z6.000
G0 X129.516 Y-73.482 Z6.000
G0 X129.516 Y-73.482 Z4.000
G1 X160.786 Y-104.752 Z2.850 F600.000
G1 X161.061 Y-105.066 Z2.842 F600.000
G1 X161.277 Y-105.421 Z2.833 F600.000
G1 X161.430 Y-105.808 Z2.822 F600.000
G1 X161.513 Y-106.216 Z2.811 F600.000
G1 X161.526 Y-106.632 Z2.798 F600.000
G1 X161.467 Y-107.044 Z2.785 F600.000
G1 X161.338 Y-107.440 Z2.772 F600.000
G1 X161.143 Y-107.808 Z2.759 F600.000
G1 X160.888 Y-108.137 Z2.748 F600.000
G1 X160.581 Y-108.417 Z2.737 F600.000
G1 X160.230 Y-108.641 Z2.728 F600.000
G1 X159.845 Y-108.801 Z2.720 F600.000
G1 X159.471 Y-108.887 Z2.711 F600.000
G1 X159.088 Y-108.913 Z2.701 F600.000
G1 X158.705 Y-108.878 Z2.690 F600.000
G1 X158.333 Y-108.784 Z2.680 F600.000
G1 X157.980 Y-108.632 Z2.669 F600.000
G1 X157.655 Y-108.426 Z2.659 F600.000
G1 X157.368 Y-108.171 Z2.650 F600.000
G1 X94.827 Y-45.631 Z0.350 F600.000
G1 X94.585 Y-45.354 Z0.340 F600.000
G1 X94.355 Y-44.991 Z0.338 F600.000
G1 X94.193 Y-44.592 Z0.333 F600.000
G1 X94.104 Y-44.171 Z0.324 F600.000
G1 X94.091 Y-43.741 Z0.314 F600.000
G1 X94.155 Y-43.316 Z0.301 F600.000
G1 X94.293 Y-42.909 Z0.286 F600.000
G1 X94.501 Y-42.532 Z0.270 F600.000
G1 X94.772 Y-42.199 Z0.254 F600.000
G1 X95.099 Y-41.919 Z0.237 F600.000
G1 X95.469 Y-41.701 Z0.220 F600.000
G1 X95.873 Y-41.553 Z0.204 F600.000
G1 X96.296 Y-41.478 Z0.190 F600.000
G1 X96.726 Y-41.480 Z0.177 F600.000
G1 X97.149 Y-41.557 Z0.166 F600.000
G1 X97.552 Y-41.709 Z0.158 F600.000
G1 X97.922 Y-41.929 Z0.152 F600.000
G1 X98.246 Y-42.212 Z0.150 F600.000
G1 X129.516 Y-73.482 Z-1.000 F600.000
G1 X160.786 Y-104.752 Z-1.460 F600.000
G1 X161.061 Y-105.065 Z-1.463 F600.000
G1 X161.277 Y-105.421 Z-1.467 F600.000
G1 X161.430 Y-105.808 Z-1.471 F600.000
G1 X161.513 Y-106.216 Z-1.476 F600.000
G1 X161.526 Y-106.632 Z-1.481 F600.000
G1 X161.467 Y-107.044 Z-1.486 F600.000
G1 X161.338 Y-107.440 Z-1.491 F600.000
G1 X161.143 Y-107.808 Z-1.496 F600.000
G1 X160.888 Y-108.137 Z-1.501 F600.000
G1 X160.581 Y-108.417 Z-1.505 F600.000
G1 X160.230 Y-108.641 Z-1.509 F600.000
G1 X159.845 Y-108.801 Z-1.512 F600.000
G1 X159.471 Y-108.887 Z-1.516 F600.000
G1 X159.088 Y-108.913 Z-1.520 F600.000
G1 X158.705 Y-108.878 Z-1.524 F600.000
G1 X158.333 Y-108.784 Z-1.528 F600.000
G1 X157.980 Y-108.632 Z-1.532 F600.000
G1 X157.655 Y-108.426 Z-1.536 F600.000
G1 X157.368 Y-108.171 Z-1.540 F600.000
G1 X94.827 Y-45.631 Z-2.460 F600.000
G1 X94.585 Y-45.354 Z-2.464 F600.000
G1 X94.355 Y-44.991 Z-2.465 F600.000
G1 X94.193 Y-44.592 Z-2.467 F600.000
G1 X94.104 Y-44.172 Z-2.470 F600.000
G1 X94.091 Y-43.742 Z-2.475 F600.000
G1 X94.155 Y-43.316 Z-2.480 F600.000
G1 X94.293 Y-42.909 Z-2.485 F600.000
G1 X94.501 Y-42.532 Z-2.492 F600.000
G1 X94.772 Y-42.199 Z-2.499 F600.000
G1 X95.099 Y-41.919 Z-2.505 F600.000
G1 X95.469 Y-41.701 Z-2.512 F600.000
G1 X95.873 Y-41.552 Z-2.518 F600.000
G1 X96.297 Y-41.478 Z-2.524 F600.000
G1 X96.727 Y-41.479 Z-2.529 F600.000
G1 X97.150 Y-41.557 Z-2.534 F600.000
G1 X97.552 Y-41.709 Z-2.537 F600.000
G1 X97.922 Y-41.929 Z-2.539 F600.000
G1 X98.246 Y-42.212 Z-2.540 F600.000
G1 X129.516 Y-73.482 Z-3.000 F600.000
G1 X160.786 Y-104.752 Z-3.460 F600.000
G1 X161.061 Y-105.065 Z-3.463 F600.000
G1 X161.277 Y-105.421 Z-3.467 F600.000
G1 X161.430 Y-105.808 Z-3.471 F600.000
G1 X161.513 Y-106.216 Z-3.476 F600.000
G1 X161.526 Y-106.632 Z-3.481 F600.000
G1 X161.467 Y-107.044 Z-3.486 F600.000
G1 X161.338 Y-107.440 Z-3.491 F600.000
G1 X161.143 Y-107.808 Z-3.496 F600.000
G1 X160.888 Y-108.137 Z-3.501 F600.000
G1 X160.581 Y-108.417 Z-3.505 F600.000
G1 X160.230 Y-108.641 Z-3.509 F600.000
G1 X159.845 Y-108.801 Z-3.512 F600.000
G1 X159.471 Y-108.887 Z-3.516 F600.000
G1 X159.088 Y-108.913 Z-3.520 F600.000
G1 X158.705 Y-108.878 Z-3.524 F600.000
G1 X158.333 Y-108.784 Z-3.528 F600.000
G1 X157.980 Y-108.632 Z-3.532 F600.000
G1 X157.655 Y-108.426 Z-3.536 F600.000
G1 X157.368 Y-108.171 Z-3.540 F600.000
G1 X94.827 Y-45.631 Z-4.460 F600.000
G1 X94.585 Y-45.354 Z-4.464 F600.000
G1 X94.355 Y-44.991 Z-4.465 F600.000
G1 X94.193 Y-44.592 Z-4.467 F600.000
G1 X94.104 Y-44.172 Z-4.470 F600.000
G1 X94.091 Y-43.742 Z-4.475 F600.000
G1 X94.155 Y-43.316 Z-4.480 F600.000
G1 X94.293 Y-42.909 Z-4.485 F600.000
G1 X94.501 Y-42.532 Z-4.492 F600.000
G1 X94.772 Y-42.199 Z-4.499 F600.000
G1 X95.099 Y-41.919 Z-4.505 F600.000
G1 X95.469 Y-41.701 Z-4.512 F600.000
G1 X95.873 Y-41.552 Z-4.518 F600.000
G1 X96.297 Y-41.478 Z-4.524 F600.000
G1 X96.727 Y-41.479 Z-4.529 F600.000
G1 X97.150 Y-41.557 Z-4.534 F600.000
G1 X97.552 Y-41.709 Z-4.537 F600.000
G1 X97.922 Y-41.929 Z-4.539 F600.000
G1 X98.246 Y-42.212 Z-4.540 F600.000
G1 X129.516 Y-73.482 Z-5.000 F600.000
G1 X160.786 Y-104.752 Z-5.460 F600.000
G1 X161.061 Y-105.065 Z-5.463 F600.000
G1 X161.277 Y-105.421 Z-5.467 F600.000
G1 X161.430 Y-105.808 Z-5.471 F600.000
G1 X161.513 Y-106.216 Z-5.476 F600.000
G1 X161.526 Y-106.632 Z-5.481 F600.000
G1 X161.467 Y-107.044 Z-5.486 F600.000
G1 X161.338 Y-107.440 Z-5.491 F600.000
G1 X161.143 Y-107.808 Z-5.496 F600.000
G1 X160.888 Y-108.137 Z-5.501 F600.000
G1 X160.581 Y-108.417 Z-5.505 F600.000
G1 X160.230 Y-108.641 Z-5.509 F600.000
G1 X159.845 Y-108.801 Z-5.512 F600.000
G1 X159.471 Y-108.887 Z-5.516 F600.000
G1 X159.088 Y-108.913 Z-5.520 F600.000
G1 X158.705 Y-108.878 Z-5.524 F600.000
G1 X158.333 Y-108.784 Z-5.528 F600.000
G1 X157.980 Y-108.632 Z-5.532 F600.000
G1 X157.655 Y-108.426 Z-5.536 F600.000
G1 X157.368 Y-108.171 Z-5.540 F600.000
G1 X94.827 Y-45.631 Z-6.460 F600.000
G1 X94.585 Y-45.354 Z-6.464 F600.000
G1 X94.355 Y-44.991 Z-6.465 F600.000
G1 X94.193 Y-44.592 Z-6.467 F600.000
G1 X94.104 Y-44.172 Z-6.470 F600.000
G1 X94.091 Y-43.742 Z-6.475 F600.000
G1 X94.155 Y-43.316 Z-6.480 F600.000
G1 X94.293 Y-42.909 Z-6.485 F600.000
G1 X94.501 Y-42.532 Z-6.492 F600.000
G1 X94.772 Y-42.199 Z-6.499 F600.000
G1 X95.099 Y-41.919 Z-6.505 F600.000
G1 X95.469 Y-41.701 Z-6.512 F600.000
G1 X95.873 Y-41.552 Z-6.518 F600.000
G1 X96.297 Y-41.478 Z-6.524 F600.000
G1 X96.727 Y-41.479 Z-6.529 F600.000
G1 X97.150 Y-41.557 Z-6.534 F600.000
G1 X97.552 Y-41.709 Z-6.537 F600.000
G1 X97.922 Y-41.929 Z-6.539 F600.000
G1 X98.246 Y-42.212 Z-6.540 F600.000
G1 X129.516 Y-73.482 Z-7.000 F600.000
G1 X160.786 Y-104.752 Z-7.460 F600.000
G1 X161.061 Y-105.065 Z-7.463 F600.000
G1 X161.277 Y-105.421 Z-7.467 F600.000
G1 X161.430 Y-105.808 Z-7.471 F600.000
G1 X161.513 Y-106.216 Z-7.476 F600.000
G1 X161.526 Y-106.632 Z-7.481 F600.000
G1 X161.467 Y-107.044 Z-7.486 F600.000
G1 X161.338 Y-107.440 Z-7.491 F600.000
G1 X161.143 Y-107.808 Z-7.496 F600.000
G1 X160.888 Y-108.137 Z-7.501 F600.000
G1 X160.581 Y-108.417 Z-7.505 F600.000
G1 X160.230 Y-108.641 Z-7.509 F600.000
G1 X159.845 Y-108.801 Z-7.512 F600.000
G1 X159.471 Y-108.887 Z-7.516 F600.000
G1 X159.088 Y-108.913 Z-7.520 F600.000
G1 X158.705 Y-108.878 Z-7.524 F600.000
G1 X158.333 Y-108.784 Z-7.528 F600.000
G1 X157.980 Y-108.632 Z-7.532 F600.000
G1 X157.655 Y-108.426 Z-7.536 F600.000
G1 X157.368 Y-108.171 Z-7.540 F600.000
G1 X94.827 Y-45.631 Z-8.460 F600.000
G1 X94.585 Y-45.354 Z-8.464 F600.000
G1 X94.355 Y-44.991 Z-8.465 F600.000
G1 X94.193 Y-44.592 Z-8.467 F600.000
G1 X94.104 Y-44.172 Z-8.470 F600.000
G1 X94.091 Y-43.742 Z-8.475 F600.000
G1 X94.155 Y-43.316 Z-8.480 F600.000
G1 X94.293 Y-42.909 Z-8.485 F600.000
G1 X94.501 Y-42.532 Z-8.492 F600.000
G1 X94.772 Y-42.199 Z-8.499 F600.000
G1 X95.099 Y-41.919 Z-8.505 F600.000
G1 X95.469 Y-41.701 Z-8.512 F600.000
G1 X95.873 Y-41.552 Z-8.518 F600.000
G1 X96.297 Y-41.478 Z-8.524 F600.000
G1 X96.727 Y-41.479 Z-8.529 F600.000
G1 X97.150 Y-41.557 Z-8.534 F600.000
G1 X97.552 Y-41.709 Z-8.537 F600.000
G1 X97.922 Y-41.929 Z-8.539 F600.000
G1 X98.246 Y-42.212 Z-8.540 F600.000
G1 X129.516 Y-73.482 Z-9.000 F600.000
G1 X160.786 Y-104.752 Z-9.230 F600.000
G1 X161.061 Y-105.065 Z-9.232 F600.000
G1 X161.277 Y-105.421 Z-9.233 F600.000
G1 X161.430 Y-105.808 Z-9.236 F600.000
G1 X161.513 Y-106.216 Z-9.238 F600.000
G1 X161.526 Y-106.632 Z-9.240 F600.000
G1 X161.467 Y-107.044 Z-9.243 F600.000
G1 X161.338 Y-107.440 Z-9.246 F600.000
G1 X161.143 Y-107.808 Z-9.248 F600.000
G1 X160.888 Y-108.137 Z-9.250 F600.000
G1 X160.581 Y-108.417 Z-9.253 F600.000
G1 X160.230 Y-108.641 Z-9.254 F600.000
G1 X159.845 Y-108.801 Z-9.256 F600.000
G1 X159.471 Y-108.887 Z-9.258 F600.000
G1 X159.088 Y-108.913 Z-9.260 F600.000
G1 X158.705 Y-108.878 Z-9.262 F600.000
G1 X158.333 Y-108.784 Z-9.264 F600.000
G1 X157.980 Y-108.632 Z-9.266 F600.000
G1 X157.655 Y-108.426 Z-9.268 F600.000
G1 X157.368 Y-108.171 Z-9.270 F600.000
G1 X94.827 Y-45.631 Z-9.730 F600.000
G1 X94.585 Y-45.354 Z-9.732 F600.000
G1 X94.355 Y-44.991 Z-9.732 F600.000
G1 X94.193 Y-44.593 Z-9.733 F600.000
G1 X94.104 Y-44.172 Z-9.735 F600.000
G1 X94.091 Y-43.742 Z-9.737 F600.000
G1 X94.154 Y-43.316 Z-9.740 F600.000
G1 X94.293 Y-42.909 Z-9.743 F600.000
G1 X94.501 Y-42.532 Z-9.746 F600.000
G1 X94.772 Y-42.199 Z-9.749 F600.000
G1 X95.099 Y-41.919 Z-9.753 F600.000
G1 X95.469 Y-41.701 Z-9.756 F600.000
G1 X95.873 Y-41.552 Z-9.759 F600.000
G1 X96.297 Y-41.478 Z-9.762 F600.000
G1 X96.727 Y-41.479 Z-9.765 F600.000
G1 X97.150 Y-41.557 Z-9.767 F600.000
G1 X97.553 Y-41.709 Z-9.768 F600.000
G1 X97.922 Y-41.929 Z-9.770 F600.000
G1 X98.246 Y-42.212 Z-9.770 F600.000
G1 X129.516 Y-73.482 Z-10.000 F600.000
G1 X160.786 Y-104.752 Z-10.000 F600.000
G2 X159.845 Y-108.801 Z-10.000 I-1.675 J-1.744 K0.000 F600.000
G2 X157.368 Y-108.171 Z-10.000 I-0.731 J2.315 K0.000 F600.000
G1 X94.827 Y-45.631 Z-10.000 F600.000
G1 X94.585 Y-45.354 Z-10.000 F600.000
G2 X98.246 Y-42.212 Z-10.000 I1.918 J1.469 K0.000 F600.000
G1 X129.516 Y-73.482 Z-10.000 F600.000
G0 X129.516 Y-73.482 Z6.000
(Finish operation: RampEntryDressup015)
(Begin operation: RampEntryDressup016)
(Path: RampEntryDressup016)
G0 X0.000 Y0.000 Z6.000
G0 X120.324 Y-82.675 Z6.000
G0 X120.324 Y-82.675 Z4.000
G1 X142.402 Y-104.752 Z2.887 F600.000
G1 X142.676 Y-105.066 Z2.877 F600.000
G1 X142.892 Y-105.421 Z2.864 F600.000
G1 X143.045 Y-105.809 Z2.849 F600.000
G1 X143.128 Y-106.216 Z2.833 F600.000
G1 X143.141 Y-106.632 Z2.816 F600.000
G1 X143.082 Y-107.044 Z2.798 F600.000
G1 X142.953 Y-107.440 Z2.780 F600.000
G1 X142.759 Y-107.807 Z2.763 F600.000
G1 X142.504 Y-108.136 Z2.747 F600.000
G1 X142.196 Y-108.417 Z2.732 F600.000
G1 X141.845 Y-108.641 Z2.719 F600.000
G1 X141.461 Y-108.801 Z2.709 F600.000
G1 X141.086 Y-108.887 Z2.696 F600.000
G1 X140.703 Y-108.913 Z2.682 F600.000
G1 X140.320 Y-108.878 Z2.668 F600.000
G1 X139.948 Y-108.784 Z2.654 F600.000
G1 X139.595 Y-108.632 Z2.639 F600.000
G1 X139.271 Y-108.426 Z2.626 F600.000
G1 X138.983 Y-108.171 Z2.613 F600.000
G1 X94.829 Y-64.017 Z0.387 F600.000
G1 X94.577 Y-63.728 Z0.373 F600.000
G1 X94.349 Y-63.364 Z0.370 F600.000
G1 X94.190 Y-62.965 Z0.363 F600.000
G1 X94.103 Y-62.544 Z0.351 F600.000
G1 X94.093 Y-62.115 Z0.337 F600.000
G1 X94.158 Y-61.690 Z0.319 F600.000
G1 X94.297 Y-61.284 Z0.299 F600.000
G1 X94.507 Y-60.910 Z0.278 F600.000
G1 X94.779 Y-60.578 Z0.255 F600.000
G1 X95.105 Y-60.299 Z0.232 F600.000
G1 X95.476 Y-60.083 Z0.209 F600.000
G1 X95.879 Y-59.936 Z0.187 F600.000
G1 X96.302 Y-59.863 Z0.167 F600.000
G1 X96.731 Y-59.865 Z0.149 F600.000
G1 X97.153 Y-59.944 Z0.135 F600.000
G1 X97.555 Y-60.096 Z0.124 F600.000
G1 X97.924 Y-60.316 Z0.116 F600.000
G1 X98.248 Y-60.598 Z0.113 F600.000
G1 X120.324 Y-82.675 Z-1.000 F600.000
G1 X142.402 Y-104.752 Z-1.445 F600.000
G1 X142.676 Y-105.065 Z-1.449 F600.000
G1 X142.892 Y-105.421 Z-1.454 F600.000
G1 X143.045 Y-105.808 Z-1.460 F600.000
G1 X143.128 Y-106.216 Z-1.467 F600.000
G1 X143.141 Y-106.632 Z-1.474 F600.000
G1 X143.082 Y-107.044 Z-1.481 F600.000
G1 X142.953 Y-107.440 Z-1.488 F600.000
G1 X142.758 Y-107.808 Z-1.495 F600.000
G1 X142.504 Y-108.137 Z-1.501 F600.000
G1 X142.196 Y-108.417 Z-1.507 F600.000
G1 X141.845 Y-108.641 Z-1.512 F600.000
G1 X141.461 Y-108.801 Z-1.516 F600.000
G1 X141.086 Y-108.887 Z-1.522 F600.000
G1 X140.703 Y-108.913 Z-1.527 F600.000
G1 X140.320 Y-108.878 Z-1.533 F600.000
G1 X139.948 Y-108.784 Z-1.539 F600.000
G1 X139.595 Y-108.632 Z-1.544 F600.000
G1 X139.271 Y-108.426 Z-1.550 F600.000
G1 X138.983 Y-108.171 Z-1.555 F600.000
G1 X94.829 Y-64.017 Z-2.445 F600.000
G1 X94.577 Y-63.728 Z-2.451 F600.000
G1 X94.349 Y-63.364 Z-2.452 F600.000
G1 X94.189 Y-62.965 Z-2.455 F600.000
G1 X94.103 Y-62.545 Z-2.459 F600.000
G1 X94.092 Y-62.115 Z-2.465 F600.000
G1 X94.157 Y-61.691 Z-2.472 F600.000
G1 X94.297 Y-61.285 Z-2.480 F600.000
G1 X94.506 Y-60.910 Z-2.489 F600.000
G1 X94.778 Y-60.578 Z-2.498 F600.000
G1 X95.105 Y-60.299 Z-2.507 F600.000
G1 X95.476 Y-60.083 Z-2.517 F600.000
G1 X95.879 Y-59.936 Z-2.525 F600.000
G1 X96.302 Y-59.862 Z-2.533 F600.000
G1 X96.732 Y-59.865 Z-2.540 F600.000
G1 X97.154 Y-59.943 Z-2.546 F600.000
G1 X97.556 Y-60.095 Z-2.551 F600.000
G1 X97.924 Y-60.316 Z-2.553 F600.000
G1 X98.248 Y-60.598 Z-2.555 F600.000
G1 X120.324 Y-82.675 Z-3.000 F600.000
G1 X142.402 Y-104.752 Z-3.445 F600.000
G1 X142.676 Y-105.065 Z-3.449 F600.000
G1 X142.892 Y-105.421 Z-3.454 F600.000
G1 X143.045 Y-105.808 Z-3.460 F600.000
G1 X143.128 Y-106.216 Z-3.467 F600.000
G1 X143.141 Y-106.632 Z-3.474 F600.000
G1 X143.082 Y-107.044 Z-3.481 F600.000
G1 X142.953 Y-107.440 Z-3.488 F600.000
G1 X142.758 Y-107.808 Z-3.495 F600.000
G1 X142.504 Y-108.137 Z-3.501 F600.000
G1 X142.196 Y-108.417 Z-3.507 F600.000
G1 X141.845 Y-108.641 Z-3.512 F600.000
G1 X141.461 Y-108.801 Z-3.516 F600.000
G1 X141.086 Y-108.887 Z-3.522 F600.000
G1 X140.703 Y-108.913 Z-3.527 F600.000
G1 X140.320 Y-108.878 Z-3.533 F600.000
G1 X139.948 Y-108.784 Z-3.539 F600.000
G1 X139.595 Y-108.632 Z-3.544 F600.000
G1 X139.271 Y-108.426 Z-3.550 F600.000
G1 X138.983 Y-108.171 Z-3.555 F600.000
G1 X94.829 Y-64.017 Z-4.445 F600.000
G1 X94.577 Y-63.728 Z-4.451 F600.000
G1 X94.349 Y-63.364 Z-4.452 F600.000
G1 X94.189 Y-62.965 Z-4.455 F600.000
G1 X94.103 Y-62.545 Z-4.459 F600.000
G1 X94.092 Y-62.115 Z-4.465 F600.000
G1 X94.157 Y-61.691 Z-4.472 F600.000
G1 X94.297 Y-61.285 Z-4.480 F600.000
G1 X94.506 Y-60.910 Z-4.489 F600.000
G1 X94.778 Y-60.578 Z-4.498 F600.000
G1 X95.105 Y-60.299 Z-4.507 F600.000
G1 X95.476 Y-60.083 Z-4.517 F600.000
G1 X95.879 Y-59.936 Z-4.525 F600.000
G1 X96.302 Y-59.862 Z-4.533 F600.000
G1 X96.732 Y-59.865 Z-4.540 F600.000
G1 X97.154 Y-59.943 Z-4.546 F600.000
G1 X97.556 Y-60.095 Z-4.551 F600.000
G1 X97.924 Y-60.316 Z-4.553 F600.000
G1 X98.248 Y-60.598 Z-4.555 F600.000
G1 X120.324 Y-82.675 Z-5.000 F600.000
G1 X142.402 Y-104.752 Z-5.445 F600.000
G1 X142.676 Y-105.065 Z-5.449 F600.000
G1 X142.892 Y-105.421 Z-5.454 F600.000
G1 X143.045 Y-105.808 Z-5.460 F600.000
G1 X143.128 Y-106.216 Z-5.467 F600.000
G1 X143.141 Y-106.632 Z-5.474 F600.000
G1 X143.082 Y-107.044 Z-5.481 F600.000
G1 X142.953 Y-107.440 Z-5.488 F600.000
G1 X142.758 Y-107.808 Z-5.495 F600.000
G1 X142.504 Y-108.137 Z-5.501 F600.000
G1 X142.196 Y-108.417 Z-5.507 F600.000
G1 X141.845 Y-108.641 Z-5.512 F600.000
G1 X141.461 Y-108.801 Z-5.516 F600.000
G1 X141.086 Y-108.887 Z-5.522 F600.000
G1 X140.703 Y-108.913 Z-5.527 F600.000
G1 X140.320 Y-108.878 Z-5.533 F600.000
G1 X139.948 Y-108.784 Z-5.539 F600.000
G1 X139.595 Y-108.632 Z-5.544 F600.000
G1 X139.271 Y-108.426 Z-5.550 F600.000
G1 X138.983 Y-108.171 Z-5.555 F600.000
G1 X94.829 Y-64.017 Z-6.445 F600.000
G1 X94.577 Y-63.728 Z-6.451 F600.000
G1 X94.349 Y-63.364 Z-6.452 F600.000
G1 X94.189 Y-62.965 Z-6.455 F600.000
G1 X94.103 Y-62.545 Z-6.459 F600.000
G1 X94.092 Y-62.115 Z-6.465 F600.000
G1 X94.157 Y-61.691 Z-6.472 F600.000
G1 X94.297 Y-61.285 Z-6.480 F600.000
G1 X94.506 Y-60.910 Z-6.489 F600.000
G1 X94.778 Y-60.578 Z-6.498 F600.000
G1 X95.105 Y-60.299 Z-6.507 F600.000
G1 X95.476 Y-60.083 Z-6.517 F600.000
G1 X95.879 Y-59.936 Z-6.525 F600.000
G1 X96.302 Y-59.862 Z-6.533 F600.000
G1 X96.732 Y-59.865 Z-6.540 F600.000
G1 X97.154 Y-59.943 Z-6.546 F600.000
G1 X97.556 Y-60.095 Z-6.551 F600.000
G1 X97.924 Y-60.316 Z-6.553 F600.000
G1 X98.248 Y-60.598 Z-6.555 F600.000
G1 X120.324 Y-82.675 Z-7.000 F600.000
G1 X142.402 Y-104.752 Z-7.445 F600.000
G1 X142.676 Y-105.065 Z-7.449 F600.000
G1 X142.892 Y-105.421 Z-7.454 F600.000
G1 X143.045 Y-105.808 Z-7.460 F600.000
G1 X143.128 Y-106.216 Z-7.467 F600.000
G1 X143.141 Y-106.632 Z-7.474 F600.000
G1 X143.082 Y-107.044 Z-7.481 F600.000
G1 X142.953 Y-107.440 Z-7.488 F600.000
G1 X142.758 Y-107.808 Z-7.495 F600.000
G1 X142.504 Y-108.137 Z-7.501 F600.000
G1 X142.196 Y-108.417 Z-7.507 F600.000
G1 X141.845 Y-108.641 Z-7.512 F600.000
G1 X141.461 Y-108.801 Z-7.516 F600.000
G1 X141.086 Y-108.887 Z-7.522 F600.000
G1 X140.703 Y-108.913 Z-7.527 F600.000
G1 X140.320 Y-108.878 Z-7.533 F600.000
G1 X139.948 Y-108.784 Z-7.539 F600.000
G1 X139.595 Y-108.632 Z-7.544 F600.000
G1 X139.271 Y-108.426 Z-7.550 F600.000
G1 X138.983 Y-108.171 Z-7.555 F600.000
G1 X94.829 Y-64.017 Z-8.445 F600.000
G1 X94.577 Y-63.728 Z-8.451 F600.000
G1 X94.349 Y-63.364 Z-8.452 F600.000
G1 X94.189 Y-62.965 Z-8.455 F600.000
G1 X94.103 Y-62.545 Z-8.459 F600.000
G1 X94.092 Y-62.115 Z-8.465 F600.000
G1 X94.157 Y-61.691 Z-8.472 F600.000
G1 X94.297 Y-61.285 Z-8.480 F600.000
G1 X94.506 Y-60.910 Z-8.489 F600.000
G1 X94.778 Y-60.578 Z-8.498 F600.000
G1 X95.105 Y-60.299 Z-8.507 F600.000
G1 X95.476 Y-60.083 Z-8.517 F600.000
G1 X95.879 Y-59.936 Z-8.525 F600.000
G1 X96.302 Y-59.862 Z-8.533 F600.000
G1 X96.732 Y-59.865 Z-8.540 F600.000
G1 X97.154 Y-59.943 Z-8.546 F600.000
G1 X97.556 Y-60.095 Z-8.551 F600.000
G1 X97.924 Y-60.316 Z-8.553 F600.000
G1 X98.248 Y-60.598 Z-8.555 F600.000
G1 X120.324 Y-82.675 Z-9.000 F600.000
G1 X142.402 Y-104.752 Z-9.223 F600.000
G1 X142.676 Y-105.065 Z-9.225 F600.000
G1 X142.892 Y-105.421 Z-9.227 F600.000
G1 X143.045 Y-105.808 Z-9.230 F600.000
G1 X143.128 Y-106.216 Z-9.233 F600.000
G1 X143.141 Y-106.632 Z-9.237 F600.000
G1 X143.082 Y-107.044 Z-9.240 F600.000
G1 X142.953 Y-107.440 Z-9.244 F600.000
G1 X142.758 Y-107.808 Z-9.247 F600.000
G1 X142.504 Y-108.137 Z-9.251 F600.000
G1 X142.196 Y-108.417 Z-9.254 F600.000
G1 X141.845 Y-108.641 Z-9.256 F600.000
G1 X141.461 Y-108.801 Z-9.258 F600.000
G1 X141.086 Y-108.887 Z-9.261 F600.000
G1 X140.703 Y-108.913 Z-9.264 F600.000
G1 X140.320 Y-108.878 Z-9.266 F600.000
G1 X139.948 Y-108.784 Z-9.269 F600.000
G1 X139.595 Y-108.632 Z-9.272 F600.000
G1 X139.271 Y-108.426 Z-9.275 F600.000
G1 X138.983 Y-108.171 Z-9.277 F600.000
G1 X94.829 Y-64.017 Z-9.723 F600.000
G1 X94.577 Y-63.728 Z-9.725 F600.000
G1 X94.349 Y-63.364 Z-9.726 F600.000
G1 X94.189 Y-62.965 Z-9.727 F600.000
G1 X94.103 Y-62.545 Z-9.730 F600.000
G1 X94.092 Y-62.115 Z-9.733 F600.000
G1 X94.157 Y-61.691 Z-9.736 F600.000
G1 X94.297 Y-61.285 Z-9.740 F600.000
G1 X94.506 Y-60.910 Z-9.744 F600.000
G1 X94.778 Y-60.578 Z-9.749 F600.000
G1 X95.105 Y-60.299 Z-9.754 F600.000
G1 X95.476 Y-60.083 Z-9.758 F600.000
G1 X95.879 Y-59.936 Z-9.763 F600.000
G1 X96.303 Y-59.862 Z-9.767 F600.000
G1 X96.732 Y-59.865 Z-9.770 F600.000
G1 X97.154 Y-59.943 Z-9.773 F600.000
G1 X97.556 Y-60.095 Z-9.775 F600.000
G1 X97.924 Y-60.316 Z-9.777 F600.000
G1 X98.248 Y-60.598 Z-9.777 F600.000
G1 X120.324 Y-82.675 Z-10.000 F600.000
G1 X142.402 Y-104.752 Z-10.000 F600.000
G2 X141.461 Y-108.801 Z-10.000 I-1.675 J-1.744 K0.000 F600.000
G2 X138.983 Y-108.171 Z-10.000 I-0.731 J2.315 K0.000 F600.000
G1 X94.829 Y-64.017 Z-10.000 F600.000
G1 X94.577 Y-63.728 Z-10.000 F600.000
G2 X98.248 Y-60.598 Z-10.000 I1.926 J1.458 K0.000 F600.000
G1 X120.324 Y-82.675 Z-10.000 F600.000
G0 X120.324 Y-82.675 Z6.000
(Finish operation: RampEntryDressup016)
(Begin operation: RampEntryDressup017)
(Path: RampEntryDressup017)
G0 X0.000 Y0.000 Z6.000
G0 X111.131 Y-91.867 Z6.000
G0 X111.131 Y-91.867 Z4.000
G1 X124.017 Y-104.752 Z2.968 F600.000
G1 X124.291 Y-105.066 Z2.951 F600.000
G1 X124.508 Y-105.422 Z2.931 F600.000
G1 X124.660 Y-105.809 Z2.908 F600.000
G1 X124.744 Y-106.217 Z2.882 F600.000
G1 X124.756 Y-106.632 Z2.854 F600.000
G1 X124.697 Y-107.044 Z2.826 F600.000
G1 X124.569 Y-107.440 Z2.798 F600.000
G1 X124.374 Y-107.807 Z2.771 F600.000
G1 X124.119 Y-108.136 Z2.745 F600.000
G1 X123.811 Y-108.417 Z2.721 F600.000
G1 X123.460 Y-108.640 Z2.701 F600.000
G1 X123.076 Y-108.801 Z2.685 F600.000
G1 X122.701 Y-108.887 Z2.664 F600.000
G1 X122.318 Y-108.913 Z2.642 F600.000
G1 X121.935 Y-108.878 Z2.620 F600.000
G1 X121.563 Y-108.784 Z2.597 F600.000
G1 X121.210 Y-108.632 Z2.574 F600.000
G1 X120.886 Y-108.426 Z2.552 F600.000
G1 X120.598 Y-108.171 Z2.532 F600.000
G1 X94.827 Y-82.400 Z0.468 F600.000
G1 X94.585 Y-82.124 Z0.447 F600.000
G1 X94.355 Y-81.759 Z0.441 F600.000
G1 X94.194 Y-81.360 Z0.430 F600.000
G1 X94.105 Y-80.939 Z0.412 F600.000
G1 X94.093 Y-80.509 Z0.389 F600.000
G1 X94.156 Y-80.084 Z0.361 F600.000
G1 X94.294 Y-79.677 Z0.329 F600.000
G1 X94.502 Y-79.301 Z0.294 F600.000
G1 X94.773 Y-78.968 Z0.258 F600.000
G1 X95.098 Y-78.689 Z0.221 F600.000
G1 X95.468 Y-78.471 Z0.185 F600.000
G1 X95.871 Y-78.323 Z0.150 F600.000
G1 X96.295 Y-78.249 Z0.118 F600.000
G1 X96.724 Y-78.250 Z0.090 F600.000
G1 X97.147 Y-78.328 Z0.067 F600.000
G1 X97.550 Y-78.479 Z0.049 F600.000
G1 X97.921 Y-78.699 Z0.038 F600.000
G1 X98.246 Y-78.982 Z0.032 F600.000
G1 X111.131 Y-91.867 Z-1.000 F600.000
G1 X124.017 Y-104.752 Z-1.413 F600.000
G1 X124.291 Y-105.066 Z-1.419 F600.000
G1 X124.508 Y-105.421 Z-1.428 F600.000
G1 X124.660 Y-105.808 Z-1.437 F600.000
G1 X124.744 Y-106.216 Z-1.447 F600.000
G1 X124.756 Y-106.632 Z-1.458 F600.000
G1 X124.697 Y-107.044 Z-1.470 F600.000
G1 X124.568 Y-107.440 Z-1.481 F600.000
G1 X124.374 Y-107.808 Z-1.492 F600.000
G1 X124.119 Y-108.137 Z-1.502 F600.000
G1 X123.811 Y-108.417 Z-1.511 F600.000
G1 X123.460 Y-108.641 Z-1.520 F600.000
G1 X123.076 Y-108.801 Z-1.526 F600.000
G1 X122.701 Y-108.887 Z-1.534 F600.000
G1 X122.318 Y-108.913 Z-1.543 F600.000
G1 X121.935 Y-108.878 Z-1.552 F600.000
G1 X121.563 Y-108.784 Z-1.561 F600.000
G1 X121.210 Y-108.632 Z-1.570 F600.000
G1 X120.886 Y-108.426 Z-1.579 F600.000
G1 X120.598 Y-108.171 Z-1.587 F600.000
G1 X94.827 Y-82.400 Z-2.413 F600.000
G1 X94.585 Y-82.124 Z-2.421 F600.000
G1 X94.355 Y-81.760 Z-2.423 F600.000
G1 X94.193 Y-81.362 Z-2.428 F600.000
G1 X94.104 Y-80.941 Z-2.435 F600.000
G1 X94.091 Y-80.511 Z-2.444 F600.000
G1 X94.155 Y-80.086 Z-2.456 F600.000
G1 X94.293 Y-79.678 Z-2.468 F600.000
G1 X94.501 Y-79.302 Z-2.482 F600.000
G1 X94.772 Y-78.968 Z-2.497 F600.000
G1 X95.099 Y-78.688 Z-2.512 F600.000
G1 X95.469 Y-78.471 Z-2.526 F600.000
G1 X95.873 Y-78.322 Z-2.540 F600.000
G1 X96.296 Y-78.247 Z-2.553 F600.000
G1 X96.727 Y-78.249 Z-2.564 F600.000
G1 X97.150 Y-78.327 Z-2.573 F600.000
G1 X97.552 Y-78.478 Z-2.580 F600.000
G1 X97.922 Y-78.699 Z-2.585 F600.000
G1 X98.246 Y-78.982 Z-2.587 F600.000
G1 X111.131 Y-91.867 Z-3.000 F600.000
G1 X124.017 Y-104.752 Z-3.413 F600.000
G1 X124.291 Y-105.066 Z-3.419 F600.000
G1 X124.508 Y-105.421 Z-3.428 F600.000
G1 X124.660 Y-105.808 Z-3.437 F600.000
G1 X124.744 Y-106.216 Z-3.447 F600.000
G1 X124.756 Y-106.632 Z-3.458 F600.000
G1 X124.697 Y-107.044 Z-3.470 F600.000
G1 X124.568 Y-107.440 Z-3.481 F600.000
G1 X124.374 Y-107.808 Z-3.492 F600.000
G1 X124.119 Y-108.137 Z-3.502 F600.000
G1 X123.811 Y-108.417 Z-3.511 F600.000
G1 X123.460 Y-108.641 Z-3.520 F600.000
G1 X123.076 Y-108.801 Z-3.526 F600.000
G1 X122.701 Y-108.887 Z-3.534 F600.000
G1 X122.318 Y-108.913 Z-3.543 F600.000
G1 X121.935 Y-108.878 Z-3.552 F600.000
G1 X121.563 Y-108.784 Z-3.561 F600.000
G1 X121.210 Y-108.632 Z-3.570 F600.000
G1 X120.886 Y-108.426 Z-3.579 F600.000
G1 X120.598 Y-108.171 Z-3.587 F600.000
G1 X94.827 Y-82.400 Z-4.413 F600.000
G1 X94.585 Y-82.124 Z-4.421 F600.000
G1 X94.355 Y-81.760 Z-4.423 F600.000
G1 X94.193 Y-81.362 Z-4.428 F600.000
G1 X94.104 Y-80.941 Z-4.435 F600.000
G1 X94.091 Y-80.511 Z-4.444 F600.000
G1 X94.155 Y-80.086 Z-4.456 F600.000
G1 X94.293 Y-79.678 Z-4.468 F600.000
G1 X94.501 Y-79.302 Z-4.482 F600.000
G1 X94.772 Y-78.968 Z-4.497 F600.000
G1 X95.099 Y-78.688 Z-4.512 F600.000
G1 X95.469 Y-78.471 Z-4.526 F600.000
G1 X95.873 Y-78.322 Z-4.540 F600.000
G1 X96.296 Y-78.247 Z-4.553 F600.000
G1 X96.727 Y-78.249 Z-4.564 F600.000
G1 X97.150 Y-78.327 Z-4.573 F600.000
G1 X97.552 Y-78.478 Z-4.580 F600.000
G1 X97.922 Y-78.699 Z-4.585 F600.000
G1 X98.246 Y-78.982 Z-4.587 F600.000
G1 X111.131 Y-91.867 Z-5.000 F600.000
G1 X124.017 Y-104.752 Z-5.413 F600.000
G1 X124.291 Y-105.066 Z-5.419 F600.000
G1 X124.508 Y-105.421 Z-5.428 F600.000
G1 X124.660 Y-105.808 Z-5.437 F600.000
G1 X124.744 Y-106.216 Z-5.447 F600.000
G1 X124.756 Y-106.632 Z-5.458 F600.000
G1 X124.697 Y-107.044 Z-5.470 F600.000
G1 X124.568 Y-107.440 Z-5.481 F600.000
G1 X124.374 Y-107.808 Z-5.492 F600.000
G1 X124.119 Y-108.137 Z-5.502 F600.000
G1 X123.811 Y-108.417 Z-5.511 F600.000
G1 X123.460 Y-108.641 Z-5.520 F600.000
G1 X123.076 Y-108.801 Z-5.526 F600.000
G1 X122.701 Y-108.887 Z-5.534 F600.000
G1 X122.318 Y-108.913 Z-5.543 F600.000
G1 X121.935 Y-108.878 Z-5.552 F600.000
G1 X121.563 Y-108.784 Z-5.561 F600.000
G1 X121.210 Y-108.632 Z-5.570 F600.000
G1 X120.886 Y-108.426 Z-5.579 F600.000
G1 X120.598 Y-108.171 Z-5.587 F600.000
G1 X94.827 Y-82.400 Z-6.413 F600.000
G1 X94.585 Y-82.124 Z-6.421 F600.000
G1 X94.355 Y-81.760 Z-6.423 F600.000
G1 X94.193 Y-81.362 Z-6.428 F600.000
G1 X94.104 Y-80.941 Z-6.435 F600.000
G1 X94.091 Y-80.511 Z-6.444 F600.000
G1 X94.155 Y-80.086 Z-6.456 F600.000
G1 X94.293 Y-79.678 Z-6.468 F600.000
G1 X94.501 Y-79.302 Z-6.482 F600.000
G1 X94.772 Y-78.968 Z-6.497 F600.000
G1 X95.099 Y-78.688 Z-6.512 F600.000
G1 X95.469 Y-78.471 Z-6.526 F600.000
G1 X95.873 Y-78.322 Z-6.540 F600.000
G1 X96.296 Y-78.247 Z-6.553 F600.000
G1 X96.727 Y-78.249 Z-6.564 F600.000
G1 X97.150 Y-78.327 Z-6.573 F600.000
G1 X97.552 Y-78.478 Z-6.580 F600.000
G1 X97.922 Y-78.699 Z-6.585 F600.000
G1 X98.246 Y-78.982 Z-6.587 F600.000
G1 X111.131 Y-91.867 Z-7.000 F600.000
G1 X124.017 Y-104.752 Z-7.413 F600.000
G1 X124.291 Y-105.066 Z-7.419 F600.000
G1 X124.508 Y-105.421 Z-7.428 F600.000
G1 X124.660 Y-105.808 Z-7.437 F600.000
G1 X124.744 Y-106.216 Z-7.447 F600.000
G1 X124.756 Y-106.632 Z-7.458 F600.000
G1 X124.697 Y-107.044 Z-7.470 F600.000
G1 X124.568 Y-107.440 Z-7.481 F600.000
G1 X124.374 Y-107.808 Z-7.492 F600.000
G1 X124.119 Y-108.137 Z-7.502 F600.000
G1 X123.811 Y-108.417 Z-7.511 F600.000
G1 X123.460 Y-108.641 Z-7.520 F600.000
G1 X123.076 Y-108.801 Z-7.526 F600.000
G1 X122.701 Y-108.887 Z-7.534 F600.000
G1 X122.318 Y-108.913 Z-7.543 F600.000
G1 X121.935 Y-108.878 Z-7.552 F600.000
G1 X121.563 Y-108.784 Z-7.561 F600.000
G1 X121.210 Y-108.632 Z-7.570 F600.000
G1 X120.886 Y-108.426 Z-7.579 F600.000
G1 X120.598 Y-108.171 Z-7.587 F600.000
G1 X94.827 Y-82.400 Z-8.413 F600.000
G1 X94.585 Y-82.124 Z-8.421 F600.000
G1 X94.355 Y-81.760 Z-8.423 F600.000
G1 X94.193 Y-81.362 Z-8.428 F600.000
G1 X94.104 Y-80.941 Z-8.435 F600.000
G1 X94.091 Y-80.511 Z-8.444 F600.000
G1 X94.155 Y-80.086 Z-8.456 F600.000
G1 X94.293 Y-79.678 Z-8.468 F600.000
G1 X94.501 Y-79.302 Z-8.482 F600.000
G1 X94.772 Y-78.968 Z-8.497 F600.000
G1 X95.099 Y-78.688 Z-8.512 F600.000
G1 X95.469 Y-78.471 Z-8.526 F600.000
G1 X95.873 Y-78.322 Z-8.540 F600.000
G1 X96.296 Y-78.247 Z-8.553 F600.000
G1 X96.727 Y-78.249 Z-8.564 F600.000
G1 X97.150 Y-78.327 Z-8.573 F600.000
G1 X97.552 Y-78.478 Z-8.580 F600.000
G1 X97.922 Y-78.699 Z-8.585 F600.000
G1 X98.246 Y-78.982 Z-8.587 F600.000
G1 X111.131 Y-91.867 Z-9.000 F600.000
G1 X124.017 Y-104.752 Z-9.206 F600.000
G1 X124.291 Y-105.065 Z-9.210 F600.000
G1 X124.508 Y-105.421 Z-9.214 F600.000
G1 X124.660 Y-105.808 Z-9.218 F600.000
G1 X124.744 Y-106.216 Z-9.224 F600.000
G1 X124.756 Y-106.632 Z-9.229 F600.000
G1 X124.697 Y-107.044 Z-9.235 F600.000
G1 X124.568 Y-107.440 Z-9.240 F600.000
G1 X124.374 Y-107.808 Z-9.246 F600.000
G1 X124.119 Y-108.137 Z-9.251 F600.000
G1 X123.811 Y-108.417 Z-9.256 F600.000
G1 X123.460 Y-108.641 Z-9.260 F600.000
G1 X123.076 Y-108.801 Z-9.263 F600.000
G1 X122.701 Y-108.887 Z-9.267 F600.000
G1 X122.318 Y-108.913 Z-9.272 F600.000
G1 X121.935 Y-108.878 Z-9.276 F600.000
G1 X121.563 Y-108.784 Z-9.281 F600.000
G1 X121.210 Y-108.632 Z-9.285 F600.000
G1 X120.886 Y-108.426 Z-9.290 F600.000
G1 X120.598 Y-108.171 Z-9.294 F600.000
G1 X94.827 Y-82.400 Z-9.706 F600.000
G1 X94.585 Y-82.124 Z-9.711 F600.000
G1 X94.355 Y-81.761 Z-9.712 F600.000
G1 X94.193 Y-81.362 Z-9.714 F600.000
G1 X94.104 Y-80.941 Z-9.718 F600.000
G1 X94.091 Y-80.511 Z-9.722 F600.000
G1 X94.155 Y-80.086 Z-9.728 F600.000
G1 X94.293 Y-79.678 Z-9.734 F600.000
G1 X94.501 Y-79.302 Z-9.741 F600.000
G1 X94.772 Y-78.968 Z-9.748 F600.000
G1 X95.099 Y-78.688 Z-9.756 F600.000
G1 X95.469 Y-78.470 Z-9.763 F600.000
G1 X95.873 Y-78.322 Z-9.770 F600.000
G1 X96.297 Y-78.247 Z-9.776 F600.000
G1 X96.727 Y-78.249 Z-9.782 F600.000
G1 X97.150 Y-78.327 Z-9.787 F600.000
G1 X97.552 Y-78.478 Z-9.790 F600.000
G1 X97.922 Y-78.699 Z-9.792 F600.000
G1 X98.246 Y-78.982 Z-9.794 F600.000
G1 X111.131 Y-91.867 Z-10.000 F600.000
G1 X124.017 Y-104.752 Z-10.000 F600.000
G2 X123.076 Y-108.801 Z-10.000 I-1.675 J-1.744 K0.000 F600.000
G2 X120.598 Y-108.171 Z-10.000 I-0.731 J2.315 K0.000 F600.000
G1 X94.827 Y-82.400 Z-10.000 F600.000
G1 X94.585 Y-82.124 Z-10.000 F600.000
G2 X98.246 Y-78.982 Z-10.000 I1.918 J1.469 K0.000 F600.000
G1 X111.131 Y-91.867 Z-10.000 F600.000
G0 X111.131 Y-91.867 Z6.000
(Finish operation: RampEntryDressup017)
(Begin operation: DressupTag001)
(Path: DressupTag001)
G0 Z6.000
G0 X241.119 Y1.119 Z6.000
G0 X241.119 Y1.119 Z4.000
G1 X241.316 Y0.879 Z3.998 F599.000
G1 X241.462 Y0.606 Z3.997 F598.960
G1 X241.552 Y0.309 Z3.995 F598.960
G1 X241.583 Y-0.000 Z3.993 F599.000
G1 X241.582 Y-130.000 Z3.300 F598.981
G1 X241.543 Y-130.352 Z3.298 F599.115
G1 X241.426 Y-130.687 Z3.296 F598.981
G1 X241.237 Y-130.987 Z3.294 F598.897
G1 X240.987 Y-131.237 Z3.292 F598.869
G1 X240.687 Y-131.426 Z3.290 F598.897
G1 X240.352 Y-131.543 Z3.288 F598.981
G1 X240.000 Y-131.582 Z3.287 F599.115
G1 X0.000 Y-131.582 Z2.007 F598.981
G1 X-0.352 Y-131.543 Z2.005 F599.115
G1 X-0.687 Y-131.426 Z2.003 F598.981
G1 X-0.987 Y-131.237 Z2.001 F598.897
G1 X-1.237 Y-130.987 Z1.999 F598.869
G1 X-1.426 Y-130.687 Z1.997 F598.897
G1 X-1.543 Y-130.352 Z1.995 F598.981
G1 X-1.582 Y-130.000 Z1.993 F599.115
G1 X-1.582 Y-0.000 Z1.300 F598.981
G1 X-1.543 Y0.352 Z1.298 F599.115
G1 X-1.426 Y0.687 Z1.296 F598.981
G1 X-1.237 Y0.987 Z1.294 F598.897
G1 X-0.987 Y1.237 Z1.292 F598.869
G1 X-0.687 Y1.426 Z1.290 F598.897
G1 X-0.352 Y1.543 Z1.288 F598.981
G1 X-0.000 Y1.582 Z1.287 F599.115
G1 X240.000 Y1.583 Z0.007 F598.981
G1 X240.309 Y1.552 Z0.005 F599.000
G1 X240.606 Y1.462 Z0.003 F598.960
G1 X240.879 Y1.316 Z0.002 F598.960
G1 X241.119 Y1.119 Z-0.000 F599.000
G1 X241.316 Y0.879 Z-0.000 F599.750
G1 X241.462 Y0.606 Z-0.001 F599.740
G1 X241.552 Y0.309 Z-0.001 F599.740
G1 X241.583 Y-0.000 Z-0.002 F599.750
G1 X241.582 Y-130.000 Z-0.175 F599.745
G1 X241.543 Y-130.352 Z-0.175 F599.779
G1 X241.426 Y-130.687 Z-0.176 F599.745
G1 X241.237 Y-130.987 Z-0.176 F599.724
G1 X240.987 Y-131.237 Z-0.177 F599.717
G1 X240.687 Y-131.426 Z-0.177 F599.724
G1 X240.352 Y-131.543 Z-0.178 F599.745
G1 X240.000 Y-131.582 Z-0.178 F599.779
G1 X0.000 Y-131.582 Z-0.498 F599.745
G1 X-0.352 Y-131.543 Z-0.499 F599.779
G1 X-0.687 Y-131.426 Z-0.499 F599.745
G1 X-0.987 Y-131.237 Z-0.500 F599.724
G1 X-1.237 Y-130.987 Z-0.500 F599.717
G1 X-1.426 Y-130.687 Z-0.501 F599.724
G1 X-1.543 Y-130.352 Z-0.501 F599.745
G1 X-1.582 Y-130.000 Z-0.502 F599.779
G1 X-1.582 Y-0.000 Z-0.675 F599.745
G1 X-1.543 Y0.352 Z-0.675 F599.779
G1 X-1.426 Y0.687 Z-0.676 F599.745
G1 X-1.237 Y0.987 Z-0.676 F599.724
G1 X-0.987 Y1.237 Z-0.677 F599.717
G1 X-0.687 Y1.426 Z-0.677 F599.724
G1 X-0.352 Y1.543 Z-0.678 F599.745
G1 X-0.000 Y1.582 Z-0.678 F599.779
G1 X240.000 Y1.583 Z-0.998 F599.745
G1 X240.309 Y1.552 Z-0.999 F599.750
G1 X240.606 Y1.462 Z-0.999 F599.740
G1 X240.879 Y1.316 Z-1.000 F599.740
G1 X241.119 Y1.119 Z-1.000 F599.750
G1 X241.316 Y0.879 Z-1.000 F599.750
G1 X241.462 Y0.606 Z-1.001 F599.740
G1 X241.552 Y0.309 Z-1.001 F599.740
G1 X241.583 Y-0.000 Z-1.002 F599.750
G1 X241.582 Y-130.000 Z-1.175 F599.745
G1 X241.543 Y-130.352 Z-1.175 F599.779
G1 X241.426 Y-130.687 Z-1.176 F599.745
G1 X241.237 Y-130.987 Z-1.176 F599.724
G1 X240.987 Y-131.237 Z-1.177 F599.717
G1 X240.687 Y-131.426 Z-1.177 F599.724
G1 X240.352 Y-131.543 Z-1.178 F599.745
G1 X240.000 Y-131.582 Z-1.178 F599.779
G1 X0.000 Y-131.582 Z-1.498 F599.745
G1 X-0.352 Y-131.543 Z-1.499 F599.779
G1 X-0.687 Y-131.426 Z-1.499 F599.745
G1 X-0.987 Y-131.237 Z-1.500 F599.724
G1 X-1.237 Y-130.987 Z-1.500 F599.717
G1 X-1.426 Y-130.687 Z-1.501 F599.724
G1 X-1.543 Y-130.352 Z-1.501 F599.745
G1 X-1.582 Y-130.000 Z-1.502 F599.779
G1 X-1.582 Y-0.000 Z-1.675 F599.745
G1 X-1.543 Y0.352 Z-1.675 F599.779
G1 X-1.426 Y0.687 Z-1.676 F599.745
G1 X-1.237 Y0.987 Z-1.676 F599.724
G1 X-0.987 Y1.237 Z-1.677 F599.717
G1 X-0.687 Y1.426 Z-1.677 F599.724
G1 X-0.352 Y1.543 Z-1.678 F599.745
G1 X-0.000 Y1.582 Z-1.678 F599.779
G1 X240.000 Y1.583 Z-1.998 F599.745
G1 X240.309 Y1.552 Z-1.999 F599.750
G1 X240.606 Y1.462 Z-1.999 F599.740
G1 X240.879 Y1.316 Z-2.000 F599.740
G1 X241.119 Y1.119 Z-2.000 F599.750
G1 X241.316 Y0.879 Z-2.000 F599.750
G1 X241.462 Y0.606 Z-2.001 F599.740
G1 X241.552 Y0.309 Z-2.001 F599.740
G1 X241.583 Y-0.000 Z-2.002 F599.750
G1 X241.582 Y-130.000 Z-2.175 F599.745
G1 X241.543 Y-130.352 Z-2.175 F599.779
G1 X241.426 Y-130.687 Z-2.176 F599.745
G1 X241.237 Y-130.987 Z-2.176 F599.724
G1 X240.987 Y-131.237 Z-2.177 F599.717
G1 X240.687 Y-131.426 Z-2.177 F599.724
G1 X240.352 Y-131.543 Z-2.178 F599.745
G1 X240.000 Y-131.582 Z-2.178 F599.779
G1 X0.000 Y-131.582 Z-2.498 F599.745
G1 X-0.352 Y-131.543 Z-2.499 F599.779
G1 X-0.687 Y-131.426 Z-2.499 F599.745
G1 X-0.987 Y-131.237 Z-2.500 F599.724
G1 X-1.237 Y-130.987 Z-2.500 F599.717
G1 X-1.426 Y-130.687 Z-2.501 F599.724
G1 X-1.543 Y-130.352 Z-2.501 F599.745
G1 X-1.582 Y-130.000 Z-2.502 F599.779
G1 X-1.582 Y-0.000 Z-2.675 F599.745
G1 X-1.543 Y0.352 Z-2.675 F599.779
G1 X-1.426 Y0.687 Z-2.676 F599.745
G1 X-1.237 Y0.987 Z-2.676 F599.724
G1 X-0.987 Y1.237 Z-2.677 F599.717
G1 X-0.687 Y1.426 Z-2.677 F599.724
G1 X-0.352 Y1.543 Z-2.678 F599.745
G1 X-0.000 Y1.582 Z-2.678 F599.779
G1 X240.000 Y1.583 Z-2.998 F599.745
G1 X240.309 Y1.552 Z-2.999 F599.750
G1 X240.606 Y1.462 Z-2.999 F599.740
G1 X240.879 Y1.316 Z-3.000 F599.740
G1 X241.119 Y1.119 Z-3.000 F599.750
G1 X241.316 Y0.879 Z-3.000 F599.750
G1 X241.462 Y0.606 Z-3.001 F599.740
G1 X241.552 Y0.309 Z-3.001 F599.740
G1 X241.583 Y-0.000 Z-3.002 F599.750
G1 X241.582 Y-130.000 Z-3.175 F599.745
G1 X241.543 Y-130.352 Z-3.175 F599.779
G1 X241.426 Y-130.687 Z-3.176 F599.745
G1 X241.237 Y-130.987 Z-3.176 F599.724
G1 X240.987 Y-131.237 Z-3.177 F599.717
G1 X240.687 Y-131.426 Z-3.177 F599.724
G1 X240.352 Y-131.543 Z-3.178 F599.745
G1 X240.000 Y-131.582 Z-3.178 F599.779
G1 X0.000 Y-131.582 Z-3.498 F599.745
G1 X-0.352 Y-131.543 Z-3.499 F599.779
G1 X-0.687 Y-131.426 Z-3.499 F599.745
G1 X-0.987 Y-131.237 Z-3.500 F599.724
G1 X-1.237 Y-130.987 Z-3.500 F599.717
G1 X-1.426 Y-130.687 Z-3.501 F599.724
G1 X-1.543 Y-130.352 Z-3.501 F599.745
G1 X-1.582 Y-130.000 Z-3.502 F599.779
G1 X-1.582 Y-0.000 Z-3.675 F599.745
G1 X-1.543 Y0.352 Z-3.675 F599.779
G1 X-1.426 Y0.687 Z-3.676 F599.745
G1 X-1.237 Y0.987 Z-3.676 F599.724
G1 X-0.987 Y1.237 Z-3.677 F599.717
G1 X-0.687 Y1.426 Z-3.677 F599.724
G1 X-0.352 Y1.543 Z-3.678 F599.745
G1 X-0.000 Y1.582 Z-3.678 F599.779
G1 X240.000 Y1.583 Z-3.998 F599.745
G1 X240.309 Y1.552 Z-3.999 F599.750
G1 X240.606 Y1.462 Z-3.999 F599.740
G1 X240.879 Y1.316 Z-4.000 F599.740
G1 X241.119 Y1.119 Z-4.000 F599.750
G1 X241.316 Y0.879 Z-4.000 F599.750
G1 X241.462 Y0.606 Z-4.001 F599.740
G1 X241.552 Y0.309 Z-4.001 F599.740
G1 X241.583 Y-0.000 Z-4.002 F599.750
G1 X241.582 Y-130.000 Z-4.175 F599.745
G1 X241.543 Y-130.352 Z-4.175 F599.779
G1 X241.426 Y-130.687 Z-4.176 F599.745
G1 X241.237 Y-130.987 Z-4.176 F599.724
G1 X240.987 Y-131.237 Z-4.177 F599.717
G1 X240.687 Y-131.426 Z-4.177 F599.724
G1 X240.352 Y-131.543 Z-4.178 F599.745
G1 X240.000 Y-131.582 Z-4.178 F599.779
G1 X0.000 Y-131.582 Z-4.498 F599.745
G1 X-0.352 Y-131.543 Z-4.499 F599.779
G1 X-0.687 Y-131.426 Z-4.499 F599.745
G1 X-0.987 Y-131.237 Z-4.500 F599.724
G1 X-1.237 Y-130.987 Z-4.500 F599.717
G1 X-1.426 Y-130.687 Z-4.501 F599.724
G1 X-1.543 Y-130.352 Z-4.501 F599.745
G1 X-1.582 Y-130.000 Z-4.502 F599.779
G1 X-1.582 Y-0.000 Z-4.675 F599.745
G1 X-1.543 Y0.352 Z-4.675 F599.779
G1 X-1.426 Y0.687 Z-4.676 F599.745
G1 X-1.237 Y0.987 Z-4.676 F599.724
G1 X-0.987 Y1.237 Z-4.677 F599.717
G1 X-0.687 Y1.426 Z-4.677 F599.724
G1 X-0.352 Y1.543 Z-4.678 F599.745
G1 X-0.000 Y1.582 Z-4.678 F599.779
G1 X240.000 Y1.583 Z-4.998 F599.745
G1 X240.309 Y1.552 Z-4.999 F599.750
G1 X240.606 Y1.462 Z-4.999 F599.740
G1 X240.879 Y1.316 Z-5.000 F599.740
G1 X241.119 Y1.119 Z-5.000 F599.750
G1 X241.316 Y0.879 Z-5.000 F599.750
G1 X241.462 Y0.606 Z-5.001 F599.740
G1 X241.552 Y0.309 Z-5.001 F599.740
G1 X241.583 Y-0.000 Z-5.002 F599.750
G1 X241.582 Y-130.000 Z-5.175 F599.745
G1 X241.543 Y-130.352 Z-5.175 F599.779
G1 X241.426 Y-130.687 Z-5.176 F599.745
G1 X241.237 Y-130.987 Z-5.176 F599.724
G1 X240.987 Y-131.237 Z-5.177 F599.717
G1 X240.687 Y-131.426 Z-5.177 F599.724
G1 X240.352 Y-131.543 Z-5.178 F599.745
G1 X240.000 Y-131.582 Z-5.178 F599.779
G1 X0.000 Y-131.582 Z-5.498 F599.745
G1 X-0.352 Y-131.543 Z-5.499 F599.779
G1 X-0.687 Y-131.426 Z-5.499 F599.745
G1 X-0.987 Y-131.237 Z-5.500 F599.724
G1 X-1.237 Y-130.987 Z-5.500 F599.717
G1 X-1.426 Y-130.687 Z-5.501 F599.724
G1 X-1.543 Y-130.352 Z-5.501 F599.745
G1 X-1.582 Y-130.000 Z-5.502 F599.779
G1 X-1.582 Y-0.000 Z-5.675 F599.745
G1 X-1.543 Y0.352 Z-5.675 F599.779
G1 X-1.426 Y0.687 Z-5.676 F599.745
G1 X-1.237 Y0.987 Z-5.676 F599.724
G1 X-0.987 Y1.237 Z-5.677 F599.717
G1 X-0.687 Y1.426 Z-5.677 F599.724
G1 X-0.352 Y1.543 Z-5.678 F599.745
G1 X-0.000 Y1.582 Z-5.678 F599.779
G1 X240.000 Y1.583 Z-5.998 F599.745
G1 X240.309 Y1.552 Z-5.999 F599.750
G1 X240.606 Y1.462 Z-5.999 F599.740
G1 X240.879 Y1.316 Z-6.000 F599.740
G1 X241.119 Y1.119 Z-6.000 F599.750
G1 X241.316 Y0.879 Z-6.000 F599.750
G1 X241.462 Y0.606 Z-6.001 F599.740
G1 X241.552 Y0.309 Z-6.001 F599.740
G1 X241.583 Y-0.000 Z-6.002 F599.750
G1 X241.582 Y-130.000 Z-6.175 F599.745
G1 X241.543 Y-130.352 Z-6.175 F599.779
G1 X241.426 Y-130.687 Z-6.176 F599.745
